**kern	**kern	**kern	**kern	**kern	**kern	**kern	**kern	**kern	**kern	**kern	**kern	**kern	**kern	**kern	**kern	**kern	**kern
*ITrd7c12	*	*	*	*	*	*	*	*ITrd3c5	*ITrd3c5	*	*	*ITrd2c3	*ITrd2c3	*	*	*	*
*	*Icello	*Iviola	*Ivioln	*Ivioln	*Itimpa	*Itromp	*Itromp	*	*	*Ifagot	*Ifagot	*	*	*Ioboe	*Ioboe	*Iflt	*Iflt
*Icbass	*I"Violoncello	*I"Viola	*I#2	*I#1	*I"Timpani	*I#2	*I#1	*Icor	*Icor	*I#2	*I#1	*Iclars	*Iclars	*I#2	*I#1	*I#2	*I#1
*I"Basso	*	*	*I"Violino II	*I"Violino I	*	*I"Tromba 2	*I"Tromba 1	*I#2	*I#1	*I"Fagotto 2	*I"Fagotto 1	*I#2	*I#1	*I"Oboe 2	*I"Oboe 1	*I"Flauto 2	*I"Flauto 1
*	*	*	*	*	*	*	*	*I"Corno 2	*I"Corno 1	*	*	*I"Clarinet 2	*I"Clarinet 1	*	*	*	*
*>[A,1. ending,A,2. ending,B,B,C]	*>[A,1. ending,A,2. ending,B,B,C]	*>[A,1. ending,A,2. ending,B,B,C]	*>[A,1. ending,A,2. ending,B,B,C]	*>[A,1. ending,A,2. ending,B,B,C]	*>[A,1. ending,A,2. ending,B,B,C]	*>[A,1. ending,A,2. ending,B,B,C]	*>[A,1. ending,A,2. ending,B,B,C]	*>[A,1. ending,A,2. ending,B,B,C]	*>[A,1. ending,A,2. ending,B,B,C]	*>[A,1. ending,A,2. ending,B,B,C]	*>[A,1. ending,A,2. ending,B,B,C]	*>[A,1. ending,A,2. ending,B,B,C]	*>[A,1. ending,A,2. ending,B,B,C]	*>[A,1. ending,A,2. ending,B,B,C]	*>[A,1. ending,A,2. ending,B,B,C]	*>[A,1. ending,A,2. ending,B,B,C]	*>[A,1. ending,A,2. ending,B,B,C]
*>norep[A,2. ending,B,C]	*>norep[A,2. ending,B,C]	*>norep[A,2. ending,B,C]	*>norep[A,2. ending,B,C]	*>norep[A,2. ending,B,C]	*>norep[A,2. ending,B,C]	*>norep[A,2. ending,B,C]	*>norep[A,2. ending,B,C]	*>norep[A,2. ending,B,C]	*>norep[A,2. ending,B,C]	*>norep[A,2. ending,B,C]	*>norep[A,2. ending,B,C]	*>norep[A,2. ending,B,C]	*>norep[A,2. ending,B,C]	*>norep[A,2. ending,B,C]	*>norep[A,2. ending,B,C]	*>norep[A,2. ending,B,C]	*>norep[A,2. ending,B,C]
=1	=1	=1	=1	=1	=1	=1	=1	=1	=1	=1	=1	=1	=1	=1	=1	=1	=1
*>A	*>A	*>A	*>A	*>A	*>A	*>A	*>A	*>A	*>A	*>A	*>A	*>A	*>A	*>A	*>A	*>A	*>A
*staff:9	*staff:9	*staff:10	*staff:11	*staff:12	*staff:13	*staff:14	*staff:14	*staff:15	*staff:15	*staff:16	*staff:16	*staff:17	*staff:17	*staff:18	*staff:18	*staff:19	*staff:19
*clefF4	*clefF4	*clefC3	*clefG2	*clefG2	*clefF4	*clefG2	*clefG2	*clefG2	*clefG2	*clefF4	*clefF4	*clefG2	*clefG2	*clefG2	*clefG2	*clefG2	*clefG2
*k[f#]	*k[f#]	*k[f#]	*k[f#]	*k[f#]	*M2/4	*M2/4	*M2/4	*M2/4	*M2/4	*k[f#]	*k[f#]	*k[f#]	*k[f#]	*k[f#]	*k[f#]	*k[f#]	*k[f#]
*M2/4	*M2/4	*M2/4	*M2/4	*M2/4	*	*	*	*	*	*M2/4	*M2/4	*M2/4	*M2/4	*M2/4	*M2/4	*M2/4	*M2/4
8GG	8G	2r	8B	2r	2r	2r	2r	2r	2r	8G'y	8B'	2r	2r	2r	2r	2r	2r
8BB	8B	.	8d	.	.	.	.	.	.	8B'y	8d'	.	.	.	.	.	.
8GG	8G	.	8B	.	.	.	.	.	.	8G'y	8B'	.	.	.	.	.	.
8BB	8B	.	8d	.	.	.	.	.	.	8B'y	8d'	.	.	.	.	.	.
=2	=2	=2	=2	=2	=2	=2	=2	=2	=2	=2	=2	=2	=2	=2	=2	=2	=2
8GG	8G	2r	8B	8..dd	2r	2r	2r	2r	2r	8G'y	8B'	2r	2r	2r	2r	2r	2r
8BB	8B	.	8d	.	.	.	.	.	.	8B'y	8d'	.	.	.	.	.	.
.	.	.	.	32b	.	.	.	.	.	.	.	.	.	.	.	.	.
8GG	8G	.	8B	8gg'	.	.	.	.	.	8G'y	8B'	.	.	.	.	.	.
8BB	8B	.	8d	8gg'	.	.	.	.	.	8B'y	8d'	.	.	.	.	.	.
=3	=3	=3	=3	=3	=3	=3	=3	=3	=3	=3	=3	=3	=3	=3	=3	=3	=3
.	.	.	.	8ggq	.	.	.	.	.	.	.	.	.	.	.	.	.
8GG	8G	2r	8B	8bb'	2r	2r	2r	2r	2r	8G'y	8B'	2r	2r	2r	2r	2r	2r
8BB	8B	.	8d	32aa	.	.	.	.	.	8B'y	8d'	.	.	.	.	.	.
.	.	.	.	32gg	.	.	.	.	.	.	.	.	.	.	.	.	.
.	.	.	.	32ff#	.	.	.	.	.	.	.	.	.	.	.	.	.
.	.	.	.	32ee	.	.	.	.	.	.	.	.	.	.	.	.	.
8GG	8G	.	8B	8..dd	.	.	.	.	.	8G'y	8B'	.	.	.	.	.	.
8BB	8B	.	8d	.	.	.	.	.	.	8B'y	8d'	.	.	.	.	.	.
.	.	.	.	32ee	.	.	.	.	.	.	.	.	.	.	.	.	.
=4	=4	=4	=4	=4	=4	=4	=4	=4	=4	=4	=4	=4	=4	=4	=4	=4	=4
8FF#	8F#	2r	8A 8d	16.cc	2r	2r	2r	2r	2r	8F#'y	8A'	2r	2r	2r	2r	2r	2r
.	.	.	.	32dd	.	.	.	.	.	.	.	.	.	.	.	.	.
8GG	8G	.	8B 8d	16.b	.	.	.	.	.	8G'y	8B'	.	.	.	.	.	.
.	.	.	.	32cc	.	.	.	.	.	.	.	.	.	.	.	.	.
8C	8c	.	8e	16.a	.	.	.	.	.	8c'y	8e'	.	.	.	.	.	.
.	.	.	.	32b	.	.	.	.	.	.	.	.	.	.	.	.	.
8C#	8c#	.	8e	16.g	.	.	.	.	.	8c#'y	8e'	.	.	.	.	.	.
.	.	.	.	32a	.	.	.	.	.	.	.	.	.	.	.	.	.
=5	=5	=5	=5	=5	=5	=5	=5	=5	=5	=5	=5	=5	=5	=5	=5	=5	=5
8D	8d	2r	4d	8.f#	2r	2r	2r	2r	2r	8d	8d	2r	2r	2r	2r	2r	2r
8DD	8D	.	.	.	.	.	.	.	.	8D	8D	.	.	.	.	.	.
.	.	.	.	16g'	.	.	.	.	.	.	.	.	.	.	.	.	.
4r	4r	.	4r	16a	.	.	.	.	.	4ryy	4r	.	.	.	.	.	.
.	.	.	.	16b	.	.	.	.	.	.	.	.	.	.	.	.	.
.	.	.	.	16cc	.	.	.	.	.	.	.	.	.	.	.	.	.
.	.	.	.	16cc#	.	.	.	.	.	.	.	.	.	.	.	.	.
=6	=6	=6	=6	=6	=6	=6	=6	=6	=6	=6	=6	=6	=6	=6	=6	=6	=6
8GGG	8GG	2r	8B	8..dd	2r	2r	2r	2r	2r	8G	8B	2r	2r	2r	2r	2r	2r
8BB	8B	.	8d	.	.	.	.	.	.	8B	8d	.	.	.	.	.	.
.	.	.	.	32b	.	.	.	.	.	.	.	.	.	.	.	.	.
8GG	8G	.	8B	8gg'	.	.	.	.	.	8G	8B	.	.	.	.	.	.
8BB	8B	.	8d	8gg'	.	.	.	.	.	8B	8d	.	.	.	.	.	.
=7	=7	=7	=7	=7	=7	=7	=7	=7	=7	=7	=7	=7	=7	=7	=7	=7	=7
.	.	.	.	8ggq	.	.	.	.	.	.	.	.	.	.	.	.	.
8GG	8G	2r	8B	8bb'	2r	2r	2r	2r	2r	8G	8B	2r	2r	2r	2r	2r	2r
8BB	8B	.	8d	32aa	.	.	.	.	.	8B	8d	.	.	.	.	.	.
.	.	.	.	32gg	.	.	.	.	.	.	.	.	.	.	.	.	.
.	.	.	.	32ff#	.	.	.	.	.	.	.	.	.	.	.	.	.
.	.	.	.	32ee	.	.	.	.	.	.	.	.	.	.	.	.	.
8GG	8G	.	8B	8dd'	.	.	.	.	.	8G	8B	.	.	.	.	.	.
8BB	8B	.	8d	8r	.	.	.	.	.	8B	8d	.	.	.	.	.	.
=8	=8	=8	=8	=8	=8	=8	=8	=8	=8	=8	=8	=8	=8	=8	=8	=8	=8
*staff:5	*staff:5	*	*staff:6	*staff:7	*	*	*	*	*	*staff:8	*staff:8	*	*	*	*	*	*
.	.	.	.	8ddq	.	.	.	.	.	.	.	.	.	.	.	.	.
8FF#	8F#	2ryy	8A 8d	16ccc'	2ryy	2ryy	2ryy	2ryy	2ryy	8F#	8A	2ryy	2ryy	2ryy	2ryy	2ryy	2ryy
.	.	.	.	32bb	.	.	.	.	.	.	.	.	.	.	.	.	.
.	.	.	.	32aa	.	.	.	.	.	.	.	.	.	.	.	.	.
8AA	8A	.	8A 8d	32gg	.	.	.	.	.	8A	8c	.	.	.	.	.	.
.	.	.	.	32ff#	.	.	.	.	.	.	.	.	.	.	.	.	.
.	.	.	.	32ee	.	.	.	.	.	.	.	.	.	.	.	.	.
.	.	.	.	32dd	.	.	.	.	.	.	.	.	.	.	.	.	.
8FF#	8F#	.	8A 8d	8cc	.	.	.	.	.	8F#	8A	.	.	.	.	.	.
8GG	8G	.	8B 8d	8b	.	.	.	.	.	8G	8B	.	.	.	.	.	.
=9	=9	=9	=9	=9	=9	=9	=9	=9	=9	=9	=9	=9	=9	=9	=9	=9	=9
4CC	4C	2ryy	4c 4e	16.a	2ryy	2ryy	2ryy	2ryy	2ryy	4c	4e	2ryy	2ryy	2ryy	2ryy	2ryy	2ryy
.	.	.	.	32b	.	.	.	.	.	.	.	.	.	.	.	.	.
.	.	.	.	16.cc	.	.	.	.	.	.	.	.	.	.	.	.	.
.	.	.	.	32b	.	.	.	.	.	.	.	.	.	.	.	.	.
8r	8r	.	8r	16.dd	.	.	.	.	.	8ryy	8r	.	.	.	.	.	.
.	.	.	.	32cc	.	.	.	.	.	.	.	.	.	.	.	.	.
8DD	8D	.	8c	16.ee	.	.	.	.	.	8D	8A	.	.	.	.	.	.
.	.	.	.	32f#	.	.	.	.	.	.	.	.	.	.	.	.	.
=10	=10	=10	=10	=10	=10	=10	=10	=10	=10	=10	=10	=10	=10	=10	=10	=10	=10
*>1. ending	*>1. ending	*>1. ending	*>1. ending	*>1. ending	*>1. ending	*>1. ending	*>1. ending	*>1. ending	*>1. ending	*>1. ending	*>1. ending	*>1. ending	*>1. ending	*>1. ending	*>1. ending	*>1. ending	*>1. ending
4GG	4G	2ryy	4B	16.g	2ryy	2ryy	2ryy	2ryy	2ryy	8G	8B	2ryy	2ryy	2ryy	2ryy	2ryy	2ryy
.	.	.	.	32a	.	.	.	.	.	.	.	.	.	.	.	.	.
.	.	.	.	16.b	.	.	.	.	.	8ryy	8r	.	.	.	.	.	.
.	.	.	.	32dd	.	.	.	.	.	.	.	.	.	.	.	.	.
4r	4r	.	4r	8g	.	.	.	.	.	16.ryy	16.r	.	.	.	.	.	.
.	.	.	.	.	.	.	.	.	.	32GG	32GG	.	.	.	.	.	.
.	.	.	.	8r	.	.	.	.	.	16.BB	16.BB	.	.	.	.	.	.
.	.	.	.	.	.	.	.	.	.	32D	32D	.	.	.	.	.	.
=11:|	=11:|	=11:|	=11:|	=11:|	=11:|	=11:|	=11:|	=11:|	=11:|	=11:|	=11:|	=11:|	=11:|	=11:|	=11:|	=11:|	=11:|
*>2. ending	*>2. ending	*>2. ending	*>2. ending	*>2. ending	*>2. ending	*>2. ending	*>2. ending	*>2. ending	*>2. ending	*>2. ending	*>2. ending	*>2. ending	*>2. ending	*>2. ending	*>2. ending	*>2. ending	*>2. ending
4GG	4G	2ryy	4B	16.g	2ryy	2ryy	2ryy	2ryy	2ryy	8G	8B	2ryy	2ryy	2ryy	2ryy	2ryy	2ryy
.	.	.	.	32a	.	.	.	.	.	.	.	.	.	.	.	.	.
.	.	.	.	16.b	.	.	.	.	.	8ryy	8r	.	.	.	.	.	.
.	.	.	.	32dd	.	.	.	.	.	.	.	.	.	.	.	.	.
4r	4r	.	4r	8g	.	.	.	.	.	16.ryy	16.r	.	.	.	.	.	.
.	.	.	.	.	.	.	.	.	.	32d	32d	.	.	.	.	.	.
.	.	.	.	8r	.	.	.	.	.	16.B	16.B	.	.	.	.	.	.
.	.	.	.	.	.	.	.	.	.	32G	32G	.	.	.	.	.	.
=12|:	=12|:	=12|:	=12|:	=12|:	=12|:	=12|:	=12|:	=12|:	=12|:	=12|:	=12|:	=12|:	=12|:	=12|:	=12|:	=12|:	=12|:
*>B	*>B	*>B	*>B	*>B	*>B	*>B	*>B	*>B	*>B	*>B	*>B	*>B	*>B	*>B	*>B	*>B	*>B
4r	4r	2ryy	8f#'	16.a'	2ryy	2ryy	2ryy	2ryy	2ryy	8D	8D	2ryy	2ryy	2ryy	2ryy	2ryy	2ryy
.	.	.	.	32b'	.	.	.	.	.	.	.	.	.	.	.	.	.
.	.	.	8d'	16.cc'	.	.	.	.	.	8ryy	8r	.	.	.	.	.	.
.	.	.	.	32dd'	.	.	.	.	.	.	.	.	.	.	.	.	.
8BB'	8B'	.	4r	16.g'	.	.	.	.	.	4ryy	4r	.	.	.	.	.	.
.	.	.	.	32a'	.	.	.	.	.	.	.	.	.	.	.	.	.
8DD'	8D'	.	.	16.b'	.	.	.	.	.	.	.	.	.	.	.	.	.
.	.	.	.	32dd'	.	.	.	.	.	.	.	.	.	.	.	.	.
=13	=13	=13	=13	=13	=13	=13	=13	=13	=13	=13	=13	=13	=13	=13	=13	=13	=13
4r	4r	2ryy	8f#'	16.a'	2ryy	2ryy	2ryy	2ryy	2ryy	2r	2r	2ryy	2ryy	2ryy	2ryy	2ryy	2ryy
.	.	.	.	32b'	.	.	.	.	.	.	.	.	.	.	.	.	.
.	.	.	8d'	16.cc'	.	.	.	.	.	.	.	.	.	.	.	.	.
.	.	.	.	32dd'	.	.	.	.	.	.	.	.	.	.	.	.	.
8BB'	8B'	.	4r	16.g'	.	.	.	.	.	.	.	.	.	.	.	.	.
.	.	.	.	32a'	.	.	.	.	.	.	.	.	.	.	.	.	.
8DD'	8D'	.	.	16.b'	.	.	.	.	.	.	.	.	.	.	.	.	.
.	.	.	.	32dd'	.	.	.	.	.	.	.	.	.	.	.	.	.
=14	=14	=14	=14	=14	=14	=14	=14	=14	=14	=14	=14	=14	=14	=14	=14	=14	=14
*staff:1	*staff:1	*	*staff:2	*staff:3	*	*	*	*	*	*	*	*	*	*staff:4	*staff:4	*	*
4r	4r	2ryy	8g'	16.cc#	2ryy	2ryy	2ryy	2ryy	2ryy	2ryy	2ryy	2ryy	2ryy	2r	2r	2ryy	2ryy
.	.	.	.	32dd	.	.	.	.	.	.	.	.	.	.	.	.	.
.	.	.	8A'	16.ee	.	.	.	.	.	.	.	.	.	.	.	.	.
.	.	.	.	32ff#	.	.	.	.	.	.	.	.	.	.	.	.	.
8EE'	8E'	.	4r	16.gg	.	.	.	.	.	.	.	.	.	.	.	.	.
.	.	.	.	32aa	.	.	.	.	.	.	.	.	.	.	.	.	.
8AAA'	8AA'	.	.	16.bb	.	.	.	.	.	.	.	.	.	.	.	.	.
.	.	.	.	32ccc#X	.	.	.	.	.	.	.	.	.	.	.	.	.
=15	=15	=15	=15	=15	=15	=15	=15	=15	=15	=15	=15	=15	=15	=15	=15	=15	=15
4DD	4D	2ryy	16ddz	16dddz	2ryy	2ryy	2ryy	2ryy	2ryy	2ryy	2ryy	2ryy	2ryy	2r	2r	2ryy	2ryy
.	.	.	32cc#	32ccc#	.	.	.	.	.	.	.	.	.	.	.	.	.
.	.	.	32b	32bb	.	.	.	.	.	.	.	.	.	.	.	.	.
.	.	.	32a	32aa	.	.	.	.	.	.	.	.	.	.	.	.	.
.	.	.	32g	32gg	.	.	.	.	.	.	.	.	.	.	.	.	.
.	.	.	32f#	32ff#	.	.	.	.	.	.	.	.	.	.	.	.	.
.	.	.	32e	32ee	.	.	.	.	.	.	.	.	.	.	.	.	.
4r	4r	.	8d	16dd	.	.	.	.	.	.	.	.	.	.	.	.	.
.	.	.	.	32cc#X	.	.	.	.	.	.	.	.	.	.	.	.	.
.	.	.	.	32b	.	.	.	.	.	.	.	.	.	.	.	.	.
.	.	.	8r	32a	.	.	.	.	.	.	.	.	.	.	.	.	.
.	.	.	.	32g	.	.	.	.	.	.	.	.	.	.	.	.	.
.	.	.	.	32f#	.	.	.	.	.	.	.	.	.	.	.	.	.
.	.	.	.	32e	.	.	.	.	.	.	.	.	.	.	.	.	.
=16	=16	=16	=16	=16	=16	=16	=16	=16	=16	=16	=16	=16	=16	=16	=16	=16	=16
8DDD	8DD	2ryy	4d	4d	2ryy	2ryy	2ryy	2ryy	2ryy	2ryy	2ryy	2ryy	2ryy	2r	2r	2ryy	2ryy
8DD	8D	.	.	.	.	.	.	.	.	.	.	.	.	.	.	.	.
8EE	8E	.	8c#	8c#	.	.	.	.	.	.	.	.	.	.	.	.	.
8FF#	8F#	.	8cn	8cn	.	.	.	.	.	.	.	.	.	.	.	.	.
=17	=17	=17	=17	=17	=17	=17	=17	=17	=17	=17	=17	=17	=17	=17	=17	=17	=17
8GG'	8G'	2ryy	8..B	8..B	2ryy	2ryy	2ryy	2ryy	2ryy	2ryy	2ryy	2ryy	2ryy	2ryy	[2dd	2ryy	2ryy
8DD'	8D'	.	.	.	.	.	.	.	.	.	.	.	.	.	.	.	.
.	.	.	32c	32c	.	.	.	.	.	.	.	.	.	.	.	.	.
8FF#'	8F#'	.	8A'	8A'	.	.	.	.	.	.	.	.	.	.	.	.	.
8DD'	8D'	.	8A'	8A'	.	.	.	.	.	.	.	.	.	.	.	.	.
=18	=18	=18	=18	=18	=18	=18	=18	=18	=18	=18	=18	=18	=18	=18	=18	=18	=18
8AA'	8A'	2ryy	8..c	8..c	2ryy	2ryy	2ryy	2ryy	2ryy	2ryy	2ryy	2ryy	2ryy	2ryy	2dd_	2ryy	2ryy
8DD'	8D'	.	.	.	.	.	.	.	.	.	.	.	.	.	.	.	.
.	.	.	32d	32d	.	.	.	.	.	.	.	.	.	.	.	.	.
8GG'	8G'	.	8B'	8B'	.	.	.	.	.	.	.	.	.	.	.	.	.
8DD'	8D'	.	8B'	8B'	.	.	.	.	.	.	.	.	.	.	.	.	.
=19	=19	=19	=19	=19	=19	=19	=19	=19	=19	=19	=19	=19	=19	=19	=19	=19	=19
8BB'	8B'	2ryy	8..g	8..g	2ryy	2ryy	2ryy	2ryy	2ryy	2ryy	2ryy	2ryy	2ryy	2ryy	2dd_	2ryy	2ryy
8DD'	8D'	.	.	.	.	.	.	.	.	.	.	.	.	.	.	.	.
.	.	.	32a	32a	.	.	.	.	.	.	.	.	.	.	.	.	.
8AA'	8A'	.	8f#'	8f#'	.	.	.	.	.	.	.	.	.	.	.	.	.
8DD'	8D'	.	8f#'	8f#'	.	.	.	.	.	.	.	.	.	.	.	.	.
=20	=20	=20	=20	=20	=20	=20	=20	=20	=20	=20	=20	=20	=20	=20	=20	=20	=20
8C'	8c'	2ryy	8..a	8..a	2ryy	2ryy	2ryy	2ryy	2ryy	2ryy	2ryy	2ryy	2ryy	2ryy	2dd]	2ryy	2ryy
8DD'	8D'	.	.	.	.	.	.	.	.	.	.	.	.	.	.	.	.
.	.	.	32b	32b	.	.	.	.	.	.	.	.	.	.	.	.	.
8BB'	8B'	.	8g'	8g'	.	.	.	.	.	.	.	.	.	.	.	.	.
8DD'	8D'	.	8g'	8g'	.	.	.	.	.	.	.	.	.	.	.	.	.
=21	=21	=21	=21	=21	=21	=21	=21	=21	=21	=21	=21	=21	=21	=21	=21	=21	=21
.	.	.	8dd#q	8dd#q	.	.	.	.	.	.	.	.	.	.	8dd#q	.	.
8C'	8c'	2ryy	8ee	8ee	2ryy	2ryy	2ryy	2ryy	2ryy	2ryy	2ryy	2ryy	2ryy	2ryy	8ee	2ryy	2ryy
8DD'	8D'	.	32ddn	32ddn	.	.	.	.	.	.	.	.	.	.	32ddn	.	.
.	.	.	32cc	32cc	.	.	.	.	.	.	.	.	.	.	32cc	.	.
.	.	.	32b	32b	.	.	.	.	.	.	.	.	.	.	32b	.	.
.	.	.	32a	32a	.	.	.	.	.	.	.	.	.	.	32a	.	.
8C'	8c'	.	16g#'	16g#'	.	.	.	.	.	.	.	.	.	.	16g#'	.	.
.	.	.	16a'	16a'	.	.	.	.	.	.	.	.	.	.	16a'	.	.
8DD'	8D'	.	16b'	16b'	.	.	.	.	.	.	.	.	.	.	16b'	.	.
.	.	.	16cc'	16cc'	.	.	.	.	.	.	.	.	.	.	16cc'	.	.
=22	=22	=22	=22	=22	=22	=22	=22	=22	=22	=22	=22	=22	=22	=22	=22	=22	=22
*staff:8	*staff:8	*staff:9	*staff:10	*staff:11	*	*	*	*	*	*staff:12	*staff:12	*	*	*	*staff:13	*staff:14	*staff:14
8BB'	8B'	2r	16cc#'	16cc#'	2ryy	2ryy	2ryy	2ryy	2ryy	2r	2r	2ryy	2ryy	2ryy	16cc#'	2r	2r
.	.	.	16dd'	16dd'	.	.	.	.	.	.	.	.	.	.	16dd'	.	.
8DD'	8D'	.	16ee'	16ee'	.	.	.	.	.	.	.	.	.	.	16ee'	.	.
.	.	.	16dd'	16dd'	.	.	.	.	.	.	.	.	.	.	16dd'	.	.
8BB'	8B'	.	16aa'	16aa'	.	.	.	.	.	.	.	.	.	.	16aa'	.	.
.	.	.	16gg'	16gg'	.	.	.	.	.	.	.	.	.	.	16gg'	.	.
8DD'	8D'	.	16ff#'	16ff#'	.	.	.	.	.	.	.	.	.	.	16ff#'	.	.
.	.	.	16ee'	16ee'	.	.	.	.	.	.	.	.	.	.	16ee'	.	.
=23	=23	=23	=23	=23	=23	=23	=23	=23	=23	=23	=23	=23	=23	=23	=23	=23	=23
8AA'	8A'	2r	16dd	16dd	2ryy	2ryy	2ryy	2ryy	2ryy	2r	2r	2ryy	2ryy	2ryy	16dd	2r	2r
.	.	.	16cc#	16cc#	.	.	.	.	.	.	.	.	.	.	16cc#	.	.
8FF#'	8F#'	.	16ccn'	16ccn'	.	.	.	.	.	.	.	.	.	.	16ccn'	.	.
.	.	.	16cc'	16cc'	.	.	.	.	.	.	.	.	.	.	16cc'	.	.
8GG'	8G'	.	16cc	16cc	.	.	.	.	.	.	.	.	.	.	16cc	.	.
.	.	.	16b	16b	.	.	.	.	.	.	.	.	.	.	16b	.	.
8CC#'	8C#'	.	16b-'	16b-'	.	.	.	.	.	.	.	.	.	.	16b-'	.	.
.	.	.	16b-'	16b-'	.	.	.	.	.	.	.	.	.	.	16b-'	.	.
=24	=24	=24	=24	=24	=24	=24	=24	=24	=24	=24	=24	=24	=24	=24	=24	=24	=24
4DD	4D	2r	8a	16a'	2ryy	2ryy	2ryy	2ryy	2ryy	2r	2r	2ryy	2ryy	2ryy	8a	2ryy	16r
.	.	.	.	16d'	.	.	.	.	.	.	.	.	.	.	.	.	16d'
.	.	.	8r	16e'	.	.	.	.	.	.	.	.	.	.	8r	.	16e'
.	.	.	.	16f#'	.	.	.	.	.	.	.	.	.	.	.	.	16f#'
4r	4r	.	4r	16g'	.	.	.	.	.	.	.	.	.	.	4r	.	16g'
.	.	.	.	16a'	.	.	.	.	.	.	.	.	.	.	.	.	16a'
.	.	.	.	16bn'	.	.	.	.	.	.	.	.	.	.	.	.	16b'
.	.	.	.	16cc'	.	.	.	.	.	.	.	.	.	.	.	.	16cc'
=25	=25	=25	=25	=25	=25	=25	=25	=25	=25	=25	=25	=25	=25	=25	=25	=25	=25
*	*	*	*	*	*	*	*	*	*	*	*	*	*	*staff:13	*	*	*
8GGG	8GG	4G 4d 4b	8B	16dd'	2ryy	2ryy	2ryy	2ryy	2ryy	8G'y	8B'	2ryy	2ryy	2r	2r	2ryy	16dd
.	.	.	.	16cc#'	.	.	.	.	.	.	.	.	.	.	.	.	16cc#
8BB	8B	.	8d	16dd'	.	.	.	.	.	8B'y	8d'	.	.	.	.	.	16dd
.	.	.	.	16cc#'	.	.	.	.	.	.	.	.	.	.	.	.	16cc#
8GG	8G	4r	8B	16dd'	.	.	.	.	.	8G'y	8B'	.	.	.	.	.	16dd
.	.	.	.	16cc#'	.	.	.	.	.	.	.	.	.	.	.	.	16cc#
8BB	8B	.	8d	16dd'	.	.	.	.	.	8B'y	8d'	.	.	.	.	.	16dd
.	.	.	.	16cc#'	.	.	.	.	.	.	.	.	.	.	.	.	16cc#
=26	=26	=26	=26	=26	=26	=26	=26	=26	=26	=26	=26	=26	=26	=26	=26	=26	=26
8GG	8G	4G 4d 4b	8B	8..dd	2ryy	2ryy	2ryy	2ryy	2ryy	8G'y	8B'	2ryy	2ryy	2r	2r	2ryy	8..dd
8BB	8B	.	8d	.	.	.	.	.	.	8B'y	8d'	.	.	.	.	.	.
.	.	.	.	32b	.	.	.	.	.	.	.	.	.	.	.	.	32b
8GG	8G	4r	8B	8gg'	.	.	.	.	.	8G'y	8B'	.	.	.	.	.	8gg'
8BB	8B	.	8d	8gg'	.	.	.	.	.	8B'y	8d'	.	.	.	.	.	8gg'
=27	=27	=27	=27	=27	=27	=27	=27	=27	=27	=27	=27	=27	=27	=27	=27	=27	=27
.	.	.	.	8ggq	.	.	.	.	.	.	.	.	.	.	.	.	8ggq
8GG	8G	4G 4d 4b	8B	8bb'	2ryy	2ryy	2ryy	2ryy	2ryy	8G'y	8B'	2ryy	2ryy	2r	2r	2ryy	8bb'
8BB	8B	.	8d	32aa	.	.	.	.	.	8B'y	8d'	.	.	.	.	.	32aa
.	.	.	.	32gg	.	.	.	.	.	.	.	.	.	.	.	.	32gg
.	.	.	.	32ff#	.	.	.	.	.	.	.	.	.	.	.	.	32ff#
.	.	.	.	32ee	.	.	.	.	.	.	.	.	.	.	.	.	32ee
8GG	8G	4r	8B	8..dd	.	.	.	.	.	8G'y	8B'	.	.	.	.	.	8..dd
8BB	8B	.	8d	.	.	.	.	.	.	8B'y	8d'	.	.	.	.	.	.
.	.	.	.	32ee	.	.	.	.	.	.	.	.	.	.	.	.	32ee
=28	=28	=28	=28	=28	=28	=28	=28	=28	=28	=28	=28	=28	=28	=28	=28	=28	=28
8FF#	8F#	8cc	8A 8d	16.cc	2ryy	2ryy	2ryy	2ryy	2ryy	8F#'y	8A'	2ryy	2ryy	2r	2r	2ryy	16.cc
.	.	.	.	32dd	.	.	.	.	.	.	.	.	.	.	.	.	32dd
8GG	8G	8b	8B 8d	16.b	.	.	.	.	.	8G'y	8B'	.	.	.	.	.	16.b
.	.	.	.	32cc	.	.	.	.	.	.	.	.	.	.	.	.	32cc
8C	8c	8a	8e	16.a	.	.	.	.	.	8c'y	8e'	.	.	.	.	.	16.a
.	.	.	.	32b	.	.	.	.	.	.	.	.	.	.	.	.	32b
8C#	8c#	8g	8e	16.g	.	.	.	.	.	8c#'y	8e'	.	.	.	.	.	16.g
.	.	.	.	32a	.	.	.	.	.	.	.	.	.	.	.	.	32a
=29	=29	=29	=29	=29	=29	=29	=29	=29	=29	=29	=29	=29	=29	=29	=29	=29	=29
8D	8d	4f#	4d	8.f#	2ryy	2ryy	2ryy	2ryy	2ryy	8d'y	8d'	2ryy	2ryy	2r	2r	2ryy	8.f#
8DD	8D	.	.	.	.	.	.	.	.	8D'y	8D'	.	.	.	.	.	.
.	.	.	.	16g	.	.	.	.	.	.	.	.	.	.	.	.	16g
4r	4r	4r	4r	16g#	.	.	.	.	.	4ryy	4r	.	.	.	.	.	16g#
.	.	.	.	16a	.	.	.	.	.	.	.	.	.	.	.	.	16a
.	.	.	.	16b-	.	.	.	.	.	.	.	.	.	.	.	.	16b-
.	.	.	.	16bn	.	.	.	.	.	.	.	.	.	.	.	.	16bn
=30	=30	=30	=30	=30	=30	=30	=30	=30	=30	=30	=30	=30	=30	=30	=30	=30	=30
*staff:1	*staff:1	*staff:2	*staff:3	*staff:4	*	*	*	*	*	*staff:5	*staff:5	*	*	*staff:6	*staff:6	*	*staff:7
8DD	8D	4d 4f# 4a	8f#	8..cc	2ryy	2ryy	2ryy	2ryy	2ryy	8A'y	8cn'	2ryy	2ryy	2r	2r	2ryy	8..cc
8FF#	8F#	.	8a	.	.	.	.	.	.	8F#'y	8A'	.	.	.	.	.	.
.	.	.	.	32a	.	.	.	.	.	.	.	.	.	.	.	.	32a
8DD	8D	4r	8f#	8ccc'	.	.	.	.	.	8D'y	8F#'	.	.	.	.	.	8ccc'
8FF#	8F#	.	8a	8ccc'	.	.	.	.	.	8F#'y	8A'	.	.	.	.	.	8ccc'
=31	=31	=31	=31	=31	=31	=31	=31	=31	=31	=31	=31	=31	=31	=31	=31	=31	=31
8DD	8D	4d 4f# 4a	8f#	32ccc	2ryy	2ryy	2ryy	2ryy	2ryy	8D'y	8F#'	2ryy	2ryy	2r	2r	2ryy	32ccc
.	.	.	.	32bb	.	.	.	.	.	.	.	.	.	.	.	.	32bb
.	.	.	.	32ccc	.	.	.	.	.	.	.	.	.	.	.	.	32ccc
.	.	.	.	32ddd	.	.	.	.	.	.	.	.	.	.	.	.	32ddd
8FF#	8F#	.	8a	32ccc	.	.	.	.	.	8F#'y	8A'	.	.	.	.	.	32ccc
.	.	.	.	32bb	.	.	.	.	.	.	.	.	.	.	.	.	32bb
.	.	.	.	32aa	.	.	.	.	.	.	.	.	.	.	.	.	32aa
.	.	.	.	32gg	.	.	.	.	.	.	.	.	.	.	.	.	32gg
8AA	8A	4r	8cc	8ff#	.	.	.	.	.	8A'y	8c'	.	.	.	.	.	8ff#
8C	8c	.	8f#	8r	.	.	.	.	.	8ryy	8r	.	.	.	.	.	8r
=32	=32	=32	=32	=32	=32	=32	=32	=32	=32	=32	=32	=32	=32	=32	=32	=32	=32
4BB	4B	8b'	8dd'	16.gg	2ryy	2ryy	2ryy	2ryy	2ryy	2r	2r	2ryy	2ryy	8b'	8dd'y	2ryy	16.gg
.	.	.	.	32aa	.	.	.	.	.	.	.	.	.	.	.	.	32aa
.	.	8a'	8cc'	16.ff#	.	.	.	.	.	.	.	.	.	8a'	8cc'y	.	16.ff#
.	.	.	.	32gg	.	.	.	.	.	.	.	.	.	.	.	.	32gg
4r	4r	8g'	8b'	8ee'	.	.	.	.	.	.	.	.	.	8g'	8b'y	.	8ee'
.	.	8f#'	8a'	8dd'	.	.	.	.	.	.	.	.	.	8f#'	8a'y	.	8dd'
*	*	*	*	*	*	*	*	*	*	*clefC4	*clefC4	*	*	*	*	*	*
=33	=33	=33	=33	=33	=33	=33	=33	=33	=33	=33	=33	=33	=33	=33	=33	=33	=33
2r	2r	8e'	8g'	16.cc	2ryy	2ryy	2ryy	2ryy	2ryy	8e'y	8g'	2ryy	2ryy	2r	2r	2ryy	16.cc
.	.	.	.	32dd	.	.	.	.	.	.	.	.	.	.	.	.	32dd
.	.	8d'	8f#'	16.b	.	.	.	.	.	8d'y	8f#'	.	.	.	.	.	16.b
.	.	.	.	32cc	.	.	.	.	.	.	.	.	.	.	.	.	32cc
.	.	8c'	8e'	8a'	.	.	.	.	.	8c'y	8e'	.	.	.	.	.	8a'
.	.	8B'	8d'	8g'	.	.	.	.	.	8B'y	8d'	.	.	.	.	.	8g'
=34	=34	=34	=34	=34	=34	=34	=34	=34	=34	=34	=34	=34	=34	=34	=34	=34	=34
8CC	8C	8c	8e	16.a	2ryy	2ryy	2ryy	2ryy	2ryy	4c	4e	2ryy	2ryy	2r	2r	2ryy	16.a
.	.	.	.	32b	.	.	.	.	.	.	.	.	.	.	.	.	32b
8r	8r	8r	8r	16.cc	.	.	.	.	.	.	.	.	.	.	.	.	16.cc
.	.	.	.	32a	.	.	.	.	.	.	.	.	.	.	.	.	32a
8DD	8D	8F#	8c	16.d	.	.	.	.	.	4ryy	4r	.	.	.	.	.	16.d
.	.	.	.	32e	.	.	.	.	.	.	.	.	.	.	.	.	32e
8r	8r	8r	8r	16.f#	.	.	.	.	.	.	.	.	.	.	.	.	16.f#
.	.	.	.	32d	.	.	.	.	.	.	.	.	.	.	.	.	32d
=35	=35	=35	=35	=35	=35	=35	=35	=35	=35	=35	=35	=35	=35	=35	=35	=35	=35
*>1. ending	*>1. ending	*>1. ending	*>1. ending	*>1. ending	*>1. ending	*>1. ending	*>1. ending	*>1. ending	*>1. ending	*>1. ending	*>1. ending	*>1. ending	*>1. ending	*>1. ending	*>1. ending	*>1. ending	*>1. ending
4GGG	4GG	4G	4B	16.g	2ryy	2ryy	2ryy	2ryy	2ryy	4r	4r	2ryy	2ryy	2r	2r	2ryy	16.g
.	.	.	.	32a	.	.	.	.	.	.	.	.	.	.	.	.	32a
.	.	.	.	16.b	.	.	.	.	.	.	.	.	.	.	.	.	16.b
.	.	.	.	32dd	.	.	.	.	.	.	.	.	.	.	.	.	32dd
*	*	*	*	*	*	*	*	*	*	*clefF4	*clefF4	*	*	*	*	*	*
4r	4r	4r	4r	8g	.	.	.	.	.	16.r	16.r	.	.	.	.	.	8g
.	.	.	.	.	.	.	.	.	.	32d	32d	.	.	.	.	.	.
.	.	.	.	8r	.	.	.	.	.	16.B	16.B	.	.	.	.	.	8r
.	.	.	.	.	.	.	.	.	.	32G	32G	.	.	.	.	.	.
=36:|	=36:|	=36:|	=36:|	=36:|	=36:|	=36:|	=36:|	=36:|	=36:|	=36:|	=36:|	=36:|	=36:|	=36:|	=36:|	=36:|	=36:|
*>1. ending	*>1. ending	*>1. ending	*>1. ending	*>1. ending	*>1. ending	*>1. ending	*>1. ending	*>1. ending	*>1. ending	*>1. ending	*>1. ending	*>1. ending	*>1. ending	*>1. ending	*>1. ending	*>1. ending	*>1. ending
*staff:11	*staff:11	*staff:12	*staff:13	*staff:14	*staff:15	*staff:16	*staff:16	*staff:17	*staff:17	*staff:18	*staff:18	*staff:19	*staff:19	*staff:20	*staff:20	*staff:21	*staff:21
*k[b-e-]	*k[b-e-]	*k[b-e-]	*k[b-e-]	*k[b-e-]	*	*	*	*	*	*k[b-e-]	*k[b-e-]	*	*	*k[b-e-]	*k[b-e-]	*k[b-e-]	*k[b-e-]
16.GG'	16.G'	4G	4B-X	4G 4g	4GG	2g	2g	2g	2g	16.G'	16.G'	2g	2g	[2gg	2b-	4.gg	4.gg
32AA'	32A'	.	.	.	.	.	.	.	.	32A'	32A'	.	.	.	.	.	.
16.FF'	16.Fn'	.	.	.	.	.	.	.	.	16.Fn'	16.Fn'	.	.	.	.	.	.
32GG'	32G'	.	.	.	.	.	.	.	.	32G'	32G'	.	.	.	.	.	.
16.EE-X'	16.E-X'	8g	4B-z [4gz	4gz 4b-Xz	4r	.	.	.	.	16.E-X'	16.E-X'	.	.	.	.	.	.
32FF'	32F'	.	.	.	.	.	.	.	.	32F'	32F'	.	.	.	.	.	.
16.DD'	16.D'	8fn	.	.	.	.	.	.	.	16.D'	16.D'	.	.	.	.	8ffn	8ffn
32EE-'	32E-'	.	.	.	.	.	.	.	.	32E-'	32E-'	.	.	.	.	.	.
=37	=37	=37	=37	=37	=37	=37	=37	=37	=37	=37	=37	=37	=37	=37	=37	=37	=37
*>C	*>C	*>C	*>C	*>C	*>C	*>C	*>C	*>C	*>C	*>C	*>C	*>C	*>C	*>C	*>C	*>C	*>C
16.CC'	16.C'	8e-	16.A 16.g]	8a	4r	4cc	4cc	4.a	4.a	16.C'	16.C'	4a	4a	4.gg]	8a	8ee-X	8ee-X
32DD'	32D'	.	32g	.	.	.	.	.	.	32D'	32D'	.	.	.	.	.	.
16.BBB-'	16.BB-'	8d	16.g	8b-	.	.	.	.	.	16.BB-'	16.BB-'	.	.	.	8b-	8dd	8dd
32CC'	32C'	.	32g	.	.	.	.	.	.	32C'	32C'	.	.	.	.	.	.
16.AAA'	16.AA'	16.c'	8g	16.cc'	8r	8r	8r	.	.	16.AA'	16.AA'	4dd	4dd	.	16.cc'	16.cc'	16.cc'
32EE-'	32E-'	32e-'	.	32cc'	.	.	.	.	.	32E-'	32E-'	.	.	.	32cc'	32ee-'	32ee-'
16.DD'	16.D'	16.d'	8f#	16.b-'	8D	8dd	8dd	8d	8dd	16.D'	16.D'	.	.	8ff#	16.b-'	16.dd'	16.dd'
32CC'	32C'	32c'	.	32a'	.	.	.	.	.	32C'	32C'	.	.	.	32a'	32cc'	32cc'
=38	=38	=38	=38	=38	=38	=38	=38	=38	=38	=38	=38	=38	=38	=38	=38	=38	=38
16.BBB-'	16.BB-'	8B-	8g	16.dd'	4GG	4g	4dd	4g	4dd	16.BB-'	16.BB-'	4g	4g	8gg	16.dd'	8b-'	8b-'
32CC'	32C'	.	.	32ee-'	.	.	.	.	.	32C'	32C'	.	.	.	32ee-'	.	.
16.AAA'	16.AA'	8f#	8a	16.cc'	.	.	.	.	.	16.AA'	16.AA'	.	.	8aa	16.cc'	8ff#'	8ff#'
32BBB-'	32BB-'	.	.	32dd'	.	.	.	.	.	32BB-'	32BB-'	.	.	.	32dd'	.	.
8GGG	8GG	8g	16.b-'	16.b-'	4r	4ryy	4r	4ryy	4r	8GG	8GG	4r	4r	8bb-	8b-	16.gg'	16.gg'
.	.	.	32b-'	32dd'	.	.	.	.	.	.	.	.	.	.	.	32ff#'	32ff#'
8r	8r	16.b-'	16.dd'	16.gg'	.	.	.	.	.	8r	8r	.	.	8dd	8r	16.gg'	16.gg'
.	.	32a'	32cc'	32aa'	.	.	.	.	.	.	.	.	.	.	.	32aa'	32aa'
=39	=39	=39	=39	=39	=39	=39	=39	=39	=39	=39	=39	=39	=39	=39	=39	=39	=39
8GG	8G	8g	4b-	16.bb-'	4GG	4g	4dd	4g	4dd	8G'	8G'	[2g	[2g	2dd	8r	16.bb-'	16.bb-'
.	.	.	.	32ccc'	.	.	.	.	.	.	.	.	.	.	.	32ccc'	32ccc'
8AA'	8A'	8f#'	.	16.aa'	.	.	.	.	.	8A'	8A'	.	.	.	8ff#	16.aa'	16.aa'
.	.	.	.	32bb-'	.	.	.	.	.	.	.	.	.	.	.	32bb-'	32bb-'
8BB-'	8B-'	8g'	16.r	16.gg'	4r	4ryy	4r	4ryy	4r	8B-'	8B-'	.	.	.	8gg	16.gg'	16.gg'
.	.	.	32g'	32aa'	.	.	.	.	.	.	.	.	.	.	.	32aa'	32aa'
8BB'	8Bn'	8d'	16.gg'	16.ffn'	.	.	.	.	.	8Bn'	8Bn'	.	.	.	8gg	16.ffn'	16.ffn'
.	.	.	32gg'	32gg'	.	.	.	.	.	.	.	.	.	.	.	32gg'	32gg'
=40	=40	=40	=40	=40	=40	=40	=40	=40	=40	=40	=40	=40	=40	=40	=40	=40	=40
8C'	8c'	8e-'	8gg	16.ee-'	2r	2cc	2cc	2g	2g	8c'	8c'	4g]	4g]	4g	8gg	16.ee-'	16.ee-'
.	.	.	.	32ff'	.	.	.	.	.	.	.	.	.	.	.	32ff'	32ff'
8D'	8d'	8fn'	8bn	16.dd'	.	.	.	.	.	8d'	8d'	.	.	.	8bn	16.dd'	16.dd'
.	.	.	.	32ee-'	.	.	.	.	.	.	.	.	.	.	.	32ee-'	32ee-'
8E-'	8e-'	8g'	16.cc'	8cc	.	.	.	.	.	8e-'	8e-'	4r	4r	8r	8cc	16.cc'	16.cc'
.	.	.	32cc'	.	.	.	.	.	.	.	.	.	.	.	.	32cc'	32cc'
8EE-'	8E-'	8g'	16.ccc'	8r	.	.	.	.	.	8E-'	8E-'	.	.	8cc	8r	16.ccc'	16.ccc'
.	.	.	32bb-'	.	.	.	.	.	.	.	.	.	.	.	.	32bb-'	32bb-'
=41	=41	=41	=41	=41	=41	=41	=41	=41	=41	=41	=41	=41	=41	=41	=41	=41	=41
8FF'	8F'	8c'	16.aa'	4r	2r	2cc	2cc	2a	2a	8F'	8F'	2r	2r	2cc	8r	16.aa'	16.aa'
.	.	.	32bb-'	.	.	.	.	.	.	.	.	.	.	.	.	32bb-'	32bb-'
8GG'	8G'	8en'	16.gg'	.	.	.	.	.	.	8G'	8G'	.	.	.	8een	16.gg'	16.gg'
.	.	.	32aa'	.	.	.	.	.	.	.	.	.	.	.	.	32aa'	32aa'
8AA'	8A'	8f'	16.ff'	16.r	.	.	.	.	.	8A'	8A'	.	.	.	8ff	8ff	8ff
.	.	.	32gg'	32f	.	.	.	.	.	.	.	.	.	.	.	.	.
8AAA'	8AA'	8c'	16.ee-'	16.ff'	.	.	.	.	.	8AA'	8AA'	.	.	.	8ff	8fff	8fff
.	.	.	32ff'	32ff'	.	.	.	.	.	.	.	.	.	.	.	.	.
*	*	*	*	*	*	*	*	*	*	*clefC4	*clefC4	*	*	*	*	*	*
=42	=42	=42	=42	=42	=42	=42	=42	=42	=42	=42	=42	=42	=42	=42	=42	=42	=42
*staff:1	*staff:1	*staff:2	*staff:3	*staff:4	*	*staff:5	*staff:5	*staff:6	*staff:6	*staff:7	*staff:7	*staff:8	*staff:8	*staff:9	*staff:9	*staff:10	*staff:10
8BBB-'	8BB-'	8d'	8dd'	32ff	2ryy	2dd	2dd	2r	2r	16ryy	16r	2dd	2dd	16ryy	16r	[2fff	2fff
.	.	.	.	32gg	.	.	.	.	.	.	.	.	.	.	.	.	.
.	.	.	.	32ff'	.	.	.	.	.	16B-	16d	.	.	16dd	16ff	.	.
.	.	.	.	32een'	.	.	.	.	.	.	.	.	.	.	.	.	.
8D'	8d'	8f'	8B-'	32ff	.	.	.	.	.	16ryy	16r	.	.	16ryy	16r	.	.
.	.	.	.	32gg	.	.	.	.	.	.	.	.	.	.	.	.	.
.	.	.	.	32ff'	.	.	.	.	.	16B-	16d	.	.	16dd	16ff	.	.
.	.	.	.	32ee'	.	.	.	.	.	.	.	.	.	.	.	.	.
8BBB-'	8BB-'	8b-'	8dd'	32ff	.	.	.	.	.	16ryy	16r	.	.	16ryy	16r	.	.
.	.	.	.	32gg	.	.	.	.	.	.	.	.	.	.	.	.	.
.	.	.	.	32ff'	.	.	.	.	.	16B-	16d	.	.	16dd	16ff	.	.
.	.	.	.	32ee'	.	.	.	.	.	.	.	.	.	.	.	.	.
8D'	8d'	8dd'	8B-'	32ff	.	.	.	.	.	16ryy	16r	.	.	16ryy	16r	.	.
.	.	.	.	32ddd	.	.	.	.	.	.	.	.	.	.	.	.	.
.	.	.	.	32ccc'	.	.	.	.	.	16B-	16d	.	.	16dd	16ff	.	.
.	.	.	.	32bb-'	.	.	.	.	.	.	.	.	.	.	.	.	.
=43	=43	=43	=43	=43	=43	=43	=43	=43	=43	=43	=43	=43	=43	=43	=43	=43	=43
8FFF	8FF	32cc	32ee-	8aa	2ryy	2cc	2cc	2a	2a	16ryy	16r	4cc	4cc	16ryy	16r	2fff]	2ryy
.	.	32dd	32ff	.	.	.	.	.	.	.	.	.	.	.	.	.	.
.	.	32cc'	32ee-'	.	.	.	.	.	.	16A	16c	.	.	16ee-	16ff	.	.
.	.	32bn'	32dd'	.	.	.	.	.	.	.	.	.	.	.	.	.	.
8AA	8A	32cc	32ee-	8ccc'	.	.	.	.	.	16ryy	16r	.	.	16ryy	16r	.	.
.	.	32dd	32ff	.	.	.	.	.	.	.	.	.	.	.	.	.	.
.	.	32cc'	32ee-'	.	.	.	.	.	.	16A	16c	.	.	16ee-	16ff	.	.
.	.	32b'	32dd'	.	.	.	.	.	.	.	.	.	.	.	.	.	.
8AAA	8AA	32cc	32ee-	8eee-X'	.	.	.	.	.	16ryy	16r	4r	4r	16ryy	16r	.	.
.	.	32dd	32ff	.	.	.	.	.	.	.	.	.	.	.	.	.	.
.	.	32cc'	32ee-'	.	.	.	.	.	.	16A	16c	.	.	16ee-	16ff	.	.
.	.	32b'	32dd'	.	.	.	.	.	.	.	.	.	.	.	.	.	.
8FF	8F	32cc	32ee-	8aa'	.	.	.	.	.	16ryy	16r	.	.	16ryy	16r	.	.
.	.	32ee-	32gg	.	.	.	.	.	.	.	.	.	.	.	.	.	.
.	.	32dd'	32ff'	.	.	.	.	.	.	16A	16c	.	.	16ee-	16ff	.	.
.	.	32cc'	32ee-'	.	.	.	.	.	.	.	.	.	.	.	.	.	.
=44	=44	=44	=44	=44	=44	=44	=44	=44	=44	=44	=44	=44	=44	=44	=44	=44	=44
8BB-	8B-	8b-X'	8dd'	32ff	2ryy	2dd	2dd	2r	2r	16ryy	16r	2dd	2dd	16ryy	16r	8fff	8fff
.	.	.	.	32gg	.	.	.	.	.	.	.	.	.	.	.	.	.
.	.	.	.	32ff'	.	.	.	.	.	16B-	16d	.	.	16dd	16ff	.	.
.	.	.	.	32een'	.	.	.	.	.	.	.	.	.	.	.	.	.
8D	8d	8dd'	8B-'	32ff	.	.	.	.	.	16ryy	16r	.	.	16ryy	16r	8ddd'	8ddd'
.	.	.	.	32gg	.	.	.	.	.	.	.	.	.	.	.	.	.
.	.	.	.	32ff'	.	.	.	.	.	16B-	16d	.	.	16dd	16ff	.	.
.	.	.	.	32ee'	.	.	.	.	.	.	.	.	.	.	.	.	.
8BBB-	8BB-	8B-'	8dd'	32ff	.	.	.	.	.	16ryy	16r	.	.	16ryy	16r	8fff'	8fff'
.	.	.	.	32gg	.	.	.	.	.	.	.	.	.	.	.	.	.
.	.	.	.	32ff'	.	.	.	.	.	16B-	16d	.	.	16dd	16ff	.	.
.	.	.	.	32ee'	.	.	.	.	.	.	.	.	.	.	.	.	.
8D	8d	8dd'	8B-'	32ff	.	.	.	.	.	16ryy	16r	.	.	16ryy	16r	8ddd'	8ddd'
.	.	.	.	32ddd	.	.	.	.	.	.	.	.	.	.	.	.	.
.	.	.	.	32ccc'	.	.	.	.	.	16B-	16d	.	.	16dd	16ff	.	.
.	.	.	.	32bb-'	.	.	.	.	.	.	.	.	.	.	.	.	.
=45	=45	=45	=45	=45	=45	=45	=45	=45	=45	=45	=45	=45	=45	=45	=45	=45	=45
8FFF	8FF	32cc	32ee-	8aa'	2ryy	2cc	2cc	2a	2a	16ryy	16r	4cc	4cc	16ryy	16r	8eee-'	8eee-'
.	.	32dd	32ff	.	.	.	.	.	.	.	.	.	.	.	.	.	.
.	.	32cc'	32ee-'	.	.	.	.	.	.	16A	16c	.	.	16ee-	16ff	.	.
.	.	32bn'	32dd'	.	.	.	.	.	.	.	.	.	.	.	.	.	.
8AA	8A	32cc	32ee-	8ccc'	.	.	.	.	.	16ryy	16r	.	.	16ryy	16r	8ccc'	8ccc'
.	.	32dd	32ff	.	.	.	.	.	.	.	.	.	.	.	.	.	.
.	.	32cc'	32ee-'	.	.	.	.	.	.	16A	16c	.	.	16ee-	16ff	.	.
.	.	32b'	32dd'	.	.	.	.	.	.	.	.	.	.	.	.	.	.
8AAA	8AA	32cc	32ee-	8eee-X'	.	.	.	.	.	16ryy	16r	4r	4r	16ryy	16r	8eee-'	8eee-'
.	.	32dd	32ff	.	.	.	.	.	.	.	.	.	.	.	.	.	.
.	.	32cc'	32ee-'	.	.	.	.	.	.	16A	16c	.	.	16ee-	16ff	.	.
.	.	32b'	32dd'	.	.	.	.	.	.	.	.	.	.	.	.	.	.
8FF	8F	32cc	32ee-	8aa'	.	.	.	.	.	16ryy	16r	.	.	16ryy	16r	8ccc'	8ccc'
.	.	32ee-	32gg	.	.	.	.	.	.	.	.	.	.	.	.	.	.
.	.	32dd'	32ff'	.	.	.	.	.	.	16A	16c	.	.	16ee-	16ff	.	.
.	.	32cc'	32ee-'	.	.	.	.	.	.	.	.	.	.	.	.	.	.
*	*	*	*	*	*	*	*	*	*	*clefF4	*clefF4	*	*	*	*	*	*
=46	=46	=46	=46	=46	=46	=46	=46	=46	=46	=46	=46	=46	=46	=46	=46	=46	=46
*staff:10	*staff:10	*staff:11	*staff:12	*staff:13	*	*staff:14	*staff:14	*staff:15	*staff:15	*staff:16	*staff:16	*	*	*staff:17	*staff:17	*staff:18	*staff:18
8BBB-	8BB-	8b-X'	8dd	32bb-	2ryy	4dd	4dd	2r	2r	[2B-	[2B-	2ryy	2ryy	4b-	8bb-	[2bb-	[2bb-
.	.	.	.	32ddd	.	.	.	.	.	.	.	.	.	.	.	.	.
.	.	.	.	32ccc'	.	.	.	.	.	.	.	.	.	.	.	.	.
.	.	.	.	32bb-'	.	.	.	.	.	.	.	.	.	.	.	.	.
8BB-	8B-	8B-'	8d	32aa	.	.	.	.	.	.	.	.	.	.	8aa	.	.
.	.	.	.	32ccc	.	.	.	.	.	.	.	.	.	.	.	.	.
.	.	.	.	32bb-'	.	.	.	.	.	.	.	.	.	.	.	.	.
.	.	.	.	32aa'	.	.	.	.	.	.	.	.	.	.	.	.	.
8BBB-	8BB-	8b-'	8e-	32gg	.	4r	4r	.	.	.	.	.	.	8ee-	8gg	.	.
.	.	.	.	32bb-	.	.	.	.	.	.	.	.	.	.	.	.	.
.	.	.	.	32aa'	.	.	.	.	.	.	.	.	.	.	.	.	.
.	.	.	.	32gg'	.	.	.	.	.	.	.	.	.	.	.	.	.
8BB-	8B-	8B-'	8d	32ff	.	.	.	.	.	.	.	.	.	8dd	8ff	.	.
.	.	.	.	32bb-	.	.	.	.	.	.	.	.	.	.	.	.	.
.	.	.	.	32ff'	.	.	.	.	.	.	.	.	.	.	.	.	.
.	.	.	.	32dd'	.	.	.	.	.	.	.	.	.	.	.	.	.
=47	=47	=47	=47	=47	=47	=47	=47	=47	=47	=47	=47	=47	=47	=47	=47	=47	=47
8BBB-	8BB-	8b-'	8e-	32gg	2ryy	2r	2r	2r	2r	2B-]	2B-]	2ryy	2ryy	8ee-	8gg	2bb-]	2bb-]
.	.	.	.	32bb-	.	.	.	.	.	.	.	.	.	.	.	.	.
.	.	.	.	32aa'	.	.	.	.	.	.	.	.	.	.	.	.	.
.	.	.	.	32gg'	.	.	.	.	.	.	.	.	.	.	.	.	.
8BB-	8B-	8B-'	8d	32ff	.	.	.	.	.	.	.	.	.	8dd	8ff	.	.
.	.	.	.	32bb-	.	.	.	.	.	.	.	.	.	.	.	.	.
.	.	.	.	32ff'	.	.	.	.	.	.	.	.	.	.	.	.	.
.	.	.	.	32dd'	.	.	.	.	.	.	.	.	.	.	.	.	.
8BBB-	8BB-	8b-'	8g	32ee-	.	.	.	.	.	.	.	.	.	8gg	8ee-	.	.
.	.	.	.	32gg	.	.	.	.	.	.	.	.	.	.	.	.	.
.	.	.	.	32ff'	.	.	.	.	.	.	.	.	.	.	.	.	.
.	.	.	.	32ee-'	.	.	.	.	.	.	.	.	.	.	.	.	.
8BB-	8B-	8B-'	8f	32dd	.	.	.	.	.	.	.	.	.	8ff	8dd	.	.
.	.	.	.	32ff	.	.	.	.	.	.	.	.	.	.	.	.	.
.	.	.	.	32ee-'	.	.	.	.	.	.	.	.	.	.	.	.	.
.	.	.	.	32dd'	.	.	.	.	.	.	.	.	.	.	.	.	.
=48	=48	=48	=48	=48	=48	=48	=48	=48	=48	=48	=48	=48	=48	=48	=48	=48	=48
4EE-z	4E-z	4b-z	4B-z 4gz	32cc	2ryy	2cc	2cc	2g	2g	4E-z	4E-z	2ryy	2ryy	4gg	4ccz	2bb-z	2bb-z
.	.	.	.	32dd	.	.	.	.	.	.	.	.	.	.	.	.	.
.	.	.	.	32cc'	.	.	.	.	.	.	.	.	.	.	.	.	.
.	.	.	.	32bn'	.	.	.	.	.	.	.	.	.	.	.	.	.
.	.	.	.	32cc	.	.	.	.	.	.	.	.	.	.	.	.	.
.	.	.	.	32gg	.	.	.	.	.	.	.	.	.	.	.	.	.
.	.	.	.	32ee-'	.	.	.	.	.	.	.	.	.	.	.	.	.
.	.	.	.	32cc'	.	.	.	.	.	.	.	.	.	.	.	.	.
4EEz	4Enz	4gz	4d-z	32b-	.	.	.	.	.	4En	4En	.	.	4g	4dd-z	.	.
.	.	.	.	32cc	.	.	.	.	.	.	.	.	.	.	.	.	.
.	.	.	.	32b-'	.	.	.	.	.	.	.	.	.	.	.	.	.
.	.	.	.	32a'	.	.	.	.	.	.	.	.	.	.	.	.	.
.	.	.	.	32b-	.	.	.	.	.	.	.	.	.	.	.	.	.
.	.	.	.	32gg	.	.	.	.	.	.	.	.	.	.	.	.	.
.	.	.	.	32een'	.	.	.	.	.	.	.	.	.	.	.	.	.
.	.	.	.	32b-'	.	.	.	.	.	.	.	.	.	.	.	.	.
=49	=49	=49	=49	=49	=49	=49	=49	=49	=49	=49	=49	=49	=49	=49	=49	=49	=49
16FF'	16F'	16B-'y 16d'	16B- 16dn'	32f	2ryy	2r	2r	2r	2r	2F	2F	2ryy	2ryy	4b-	4ddn	4ddd	4ddd
.	.	.	.	32g	.	.	.	.	.	.	.	.	.	.	.	.	.
16FF'	16F'	16B-'y 16d'	16B-' 16d'y	32f'	.	.	.	.	.	.	.	.	.	.	.	.	.
.	.	.	.	32en'	.	.	.	.	.	.	.	.	.	.	.	.	.
16FF'	16F'	16B-'y 16d'	16B-' 16d'y	32f	.	.	.	.	.	.	.	.	.	.	.	.	.
.	.	.	.	32dd	.	.	.	.	.	.	.	.	.	.	.	.	.
16FF'	16F'	16B-'y 16d'	16B-' 16d'y	32cc'	.	.	.	.	.	.	.	.	.	.	.	.	.
.	.	.	.	32b-'	.	.	.	.	.	.	.	.	.	.	.	.	.
16FF'	16F'	16c'y 16e-'	16c' 16e-'y	32a	.	.	.	.	.	.	.	.	.	8a	8ee-	8ccc	8ccc
.	.	.	.	32b-	.	.	.	.	.	.	.	.	.	.	.	.	.
16FF'	16F'	16c'y 16e-'	16c' 16e-'y	32cc'	.	.	.	.	.	.	.	.	.	.	.	.	.
.	.	.	.	32dd'	.	.	.	.	.	.	.	.	.	.	.	.	.
16FF'	16F'	16c'y 16e-'	16c' 16e-'y	32ee-	.	.	.	.	.	.	.	.	.	8cc	8aa	[8fff	[8fff
.	.	.	.	32ff	.	.	.	.	.	.	.	.	.	.	.	.	.
16FF'	16F'	16c'y 16e-'	16c' 16e-'y	32gg'	.	.	.	.	.	.	.	.	.	.	.	.	.
.	.	.	.	32aa'	.	.	.	.	.	.	.	.	.	.	.	.	.
=50	=50	=50	=50	=50	=50	=50	=50	=50	=50	=50	=50	=50	=50	=50	=50	=50	=50
*staff:1	*staff:1	*staff:2	*staff:3	*staff:4	*	*staff:5	*staff:5	*	*	*staff:6	*staff:6	*staff:7	*staff:7	*staff:8	*staff:8	*staff:9	*staff:9
16DD	16D	16f	32b-	32bb-	2ryy	2r	2r	2ryy	2ryy	8D	8D	2r	2r	4b-	8bb-	8fff]	8fff]
.	.	.	32cc	32ccc	.	.	.	.	.	.	.	.	.	.	.	.	.
16DD	16D	16f	32dd	32ddd	.	.	.	.	.	.	.	.	.	.	.	.	.
.	.	.	32b-	32bb-	.	.	.	.	.	.	.	.	.	.	.	.	.
16EE-X	16E-X	16B-	32g	32gg	.	.	.	.	.	8E-X	8E-X	.	.	.	8gg	8eee-	8eee-
.	.	.	32a	32aa	.	.	.	.	.	.	.	.	.	.	.	.	.
16EE-	16E-	16B-	32b-	32bb-	.	.	.	.	.	.	.	.	.	.	.	.	.
.	.	.	32g	32gg	.	.	.	.	.	.	.	.	.	.	.	.	.
16FF	16F	16d	32f	32ff	.	.	.	.	.	4F	4F	.	.	8dd	8ff	8ddd	8ddd
.	.	.	32e-	32ee-	.	.	.	.	.	.	.	.	.	.	.	.	.
16FF	16F	16d	32d	32dd	.	.	.	.	.	.	.	.	.	.	.	.	.
.	.	.	32f	32ff	.	.	.	.	.	.	.	.	.	.	.	.	.
16FF	16F	16c	32e-	32ee-	.	.	.	.	.	.	.	.	.	8cc	8a	16ccc	16ccc
.	.	.	32c	32cc	.	.	.	.	.	.	.	.	.	.	.	.	.
16FF	16F	16c	32B-	32b-	.	.	.	.	.	.	.	.	.	.	.	16fff	16fff
.	.	.	32A	32a	.	.	.	.	.	.	.	.	.	.	.	.	.
=51	=51	=51	=51	=51	=51	=51	=51	=51	=51	=51	=51	=51	=51	=51	=51	=51	=51
16DD	16D	16f	32b-	32bb-	2ryy	2r	2r	2ryy	2ryy	8D	8D	2r	2r	4b-	8bb-	8fff	8fff
.	.	.	32cc	32ccc	.	.	.	.	.	.	.	.	.	.	.	.	.
16DD	16D	16f	32dd	32ddd	.	.	.	.	.	.	.	.	.	.	.	.	.
.	.	.	32b-	32bb-	.	.	.	.	.	.	.	.	.	.	.	.	.
16EE-	16E-	16B-	32g	32gg	.	.	.	.	.	8E-	8E-	.	.	.	8gg	8eee-	8eee-
.	.	.	32a	32aa	.	.	.	.	.	.	.	.	.	.	.	.	.
16EE-	16E-	16B-	32b-	32bb-	.	.	.	.	.	.	.	.	.	.	.	.	.
.	.	.	32g	32gg	.	.	.	.	.	.	.	.	.	.	.	.	.
16FF	16F	16d	32f	32ff	.	.	.	.	.	8F	8F	.	.	8dd	8ff	8ddd	8ddd
.	.	.	32e-	32ee-	.	.	.	.	.	.	.	.	.	.	.	.	.
16FF	16F	16d	32d	32dd	.	.	.	.	.	.	.	.	.	.	.	.	.
.	.	.	32f	32ff	.	.	.	.	.	.	.	.	.	.	.	.	.
16FF	16F	16c	32e-	32ee-	.	.	.	.	.	8F	8F	.	.	8cc	8a	8ccc	8ccc
.	.	.	32c	32cc	.	.	.	.	.	.	.	.	.	.	.	.	.
16FF	16F	16c	32B-	32b-	.	.	.	.	.	.	.	.	.	.	.	.	.
.	.	.	32A	32a	.	.	.	.	.	.	.	.	.	.	.	.	.
=52	=52	=52	=52	=52	=52	=52	=52	=52	=52	=52	=52	=52	=52	=52	=52	=52	=52
8BBB-'	8BB-'	32B-	32B-	8b-	2ryy	[2dd	[2dd	2ryy	2ryy	16.B-	16.B-	16.dd	16.dd	16.dd	16.bb-	16.bb-	16.bb-
.	.	32A	32A	.	.	.	.	.	.	.	.	.	.	.	.	.	.
.	.	32B-'	32B-'	.	.	.	.	.	.	.	.	.	.	.	.	.	.
.	.	32c'	32c'	.	.	.	.	.	.	32B-	32B-	32dd	32dd	32dd	32bb-	32ff	32ff
8DD'	8D'	32B-	32B-	[8bb-z	.	.	.	.	.	16.B-	16.B-	16.dd	16.dd	16.dd	16.bb-	16.ff	16.ff
.	.	32A	32A	.	.	.	.	.	.	.	.	.	.	.	.	.	.
.	.	32B-'	32B-'	.	.	.	.	.	.	.	.	.	.	.	.	.	.
.	.	32c'	32c'	.	.	.	.	.	.	32B-	32B-	32dd	32dd	32dd	32bb-	32ff	32ff
8FF'	8F'	32B-	32B-	16bb-]	.	.	.	.	.	16.B-	16.B-	16.dd	16.dd	16.dd	16.bb-	16.ff	16.ff
.	.	32A	32A	.	.	.	.	.	.	.	.	.	.	.	.	.	.
.	.	32B-'	32B-'	32ff	.	.	.	.	.	.	.	.	.	.	.	.	.
.	.	32c'	32c'	32dd	.	.	.	.	.	32B-	32B-	32dd	32dd	32dd	32bb-	32ff	32ff
8DD'	8D'	32B-	32B-	16b-	.	.	.	.	.	16.B-	16.B-	16.dd	16.dd	16.dd	16.bb-	16.ff	16.ff
.	.	32A	32A	.	.	.	.	.	.	.	.	.	.	.	.	.	.
.	.	32B-'	32B-'	16r	.	.	.	.	.	.	.	.	.	.	.	.	.
.	.	32c'	32c'	.	.	.	.	.	.	32B-	32B-	32dd	32dd	32dd	32bb-	32ff	32ff
=53	=53	=53	=53	=53	=53	=53	=53	=53	=53	=53	=53	=53	=53	=53	=53	=53	=53
8BBB-'	8BB-'	32A-	32A-	8r	2ryy	2dd]	2dd]	2ryy	2ryy	16.B-	16.B-	16.dd	16.dd	16.dd	16.aa-	16.ff	16.ff
.	.	32G	32G	.	.	.	.	.	.	.	.	.	.	.	.	.	.
.	.	32A-'	32A-'	.	.	.	.	.	.	.	.	.	.	.	.	.	.
.	.	32B-'	32B-'	.	.	.	.	.	.	32B-	32B-	32dd	32dd	32dd	32aa-	32ff	32ff
8DD'	8D'	32A-	32A-	[8aa-z	.	.	.	.	.	16.B-	16.B-	16.dd	16.dd	16.dd	16.aa-	16.ff	16.ff
.	.	32G	32G	.	.	.	.	.	.	.	.	.	.	.	.	.	.
.	.	32A-'	32A-'	.	.	.	.	.	.	.	.	.	.	.	.	.	.
.	.	32B-'	32B-'	.	.	.	.	.	.	32B-	32B-	32dd	32dd	32dd	32aa-	32ff	32ff
8FF'	8F'	32A-	32A-	16aa-]	.	.	.	.	.	16.B-	16.B-	8dd	8dd	16.dd	16.aa-	16.ff	16.ff
.	.	32G	32G	.	.	.	.	.	.	.	.	.	.	.	.	.	.
.	.	32A-'	32A-'	32ff	.	.	.	.	.	.	.	.	.	.	.	.	.
.	.	32B-'	32B-'	32dd	.	.	.	.	.	32B-	32B-	.	.	32dd	32aa-	32ff	32ff
8CC'	8C'	32A-	32A-	16a-X	.	.	.	.	.	16.c	16.c	8r	8r	16.ee-	16.aa-	16.ee-	16.ee-
.	.	32G	32G	.	.	.	.	.	.	.	.	.	.	.	.	.	.
.	.	32A-'	32A-'	16r	.	.	.	.	.	.	.	.	.	.	.	.	.
.	.	32B-'	32B-'	.	.	.	.	.	.	32c	32c	.	.	32ee-	32aa-	32ee-	32ee-
=54	=54	=54	=54	=54	=54	=54	=54	=54	=54	=54	=54	=54	=54	=54	=54	=54	=54
*staff:12	*staff:12	*staff:13	*staff:14	*staff:15	*staff:16	*staff:17	*staff:17	*staff:18	*staff:18	*staff:19	*staff:19	*staff:20	*staff:20	*staff:21	*staff:21	*staff:22	*staff:22
8BBB'	8BBn'	32G'	32G'	8r	4GG	2g	2dd	2g	2b	16.Bn	16.Bn	16.dd	16.dd	16.dd	16.gg	8dd	8dd
.	.	32g	32g	.	.	.	.	.	.	.	.	.	.	.	.	.	.
.	.	32f#	32f#	.	.	.	.	.	.	.	.	.	.	.	.	.	.
.	.	32g	32g	.	.	.	.	.	.	32B	32B	32dd	32dd	32dd	32gg	.	.
8DD'	8D'	32f#	32f#	[8ggz	.	.	.	.	.	16.B	16.B	16.dd	16.dd	16.dd	16.gg	8r	8r
.	.	32g	32g	.	.	.	.	.	.	.	.	.	.	.	.	.	.
.	.	32f#	32f#	.	.	.	.	.	.	.	.	.	.	.	.	.	.
.	.	32g	32g	.	.	.	.	.	.	32B	32B	32dd	32dd	32dd	32gg	.	.
8GG'	8G'	32G'	32G'	16gg]	4r	.	.	.	.	16.B	16.B	16.dd	16.dd	16.dd	16.ff	4r	4r
.	.	32fn	32fn	.	.	.	.	.	.	.	.	.	.	.	.	.	.
.	.	32en	32en	32dd	.	.	.	.	.	.	.	.	.	.	.	.	.
.	.	32f	32f	32bn	.	.	.	.	.	32B	32B	32dd	32dd	32dd	32ff	.	.
8BBB'	8BB'	32e	32e	16g	.	.	.	.	.	16.B	16.B	16.dd	16.dd	16.dd	16.ff	.	.
.	.	32f	32f	.	.	.	.	.	.	.	.	.	.	.	.	.	.
.	.	32e	32e	16r	.	.	.	.	.	.	.	.	.	.	.	.	.
.	.	32f	32f	.	.	.	.	.	.	32B	32B	32dd	32dd	32dd	32ff	.	.
=55	=55	=55	=55	=55	=55	=55	=55	=55	=55	=55	=55	=55	=55	=55	=55	=55	=55
8CC'	8C'	32c	8e-X	32c	4GG	2cc	2cc	2g	2g	16.c	16.c	16.g	16.g	16.ee-	16.ee-	16.cc	16.cc
.	.	32Bn	.	32Bn	.	.	.	.	.	.	.	.	.	.	.	.	.
.	.	32c'	.	32c'	.	.	.	.	.	.	.	.	.	.	.	.	.
.	.	32d'	.	32d'	.	.	.	.	.	32c	32c	32g	32g	32ee-	32ccc	32gg	32gg
8EE-'	8E-'	32c	[8cccz	32c	.	.	.	.	.	16.c	16.c	16.g	16.g	16.ee-	16.ccc	16.gg	16.gg
.	.	32B	.	32B	.	.	.	.	.	.	.	.	.	.	.	.	.
.	.	32c'	.	32c'	.	.	.	.	.	.	.	.	.	.	.	.	.
.	.	32d'	.	32d'	.	.	.	.	.	32c	32c	32g	32g	32ee-	32ccc	32gg	32gg
8GG'	8G'	32c	16ccc]	32c	4r	.	.	.	.	16.c	16.c	16.g	16.g	16.ee-	16.ccc	16.gg	16.gg
.	.	32B	.	32B	.	.	.	.	.	.	.	.	.	.	.	.	.
.	.	32c'	32gg	32c'	.	.	.	.	.	.	.	.	.	.	.	.	.
.	.	32d'	32ee-X	32d'	.	.	.	.	.	32c	32c	32g	32g	32ee-	32ccc	32gg	32gg
8EE-'	8E-'	32c	16cc	32c	.	.	.	.	.	16.c	16.c	16.g	16.g	16.ee-	16.ccc	16.gg	16.gg
.	.	32B	.	32B	.	.	.	.	.	.	.	.	.	.	.	.	.
.	.	32c'	16r	32c'	.	.	.	.	.	.	.	.	.	.	.	.	.
.	.	32d'	.	32d'	.	.	.	.	.	32c	32c	32g	32g	32ee-	32ccc	32gg	32gg
=56	=56	=56	=56	=56	=56	=56	=56	=56	=56	=56	=56	=56	=56	=56	=56	=56	=56
8CC'	8C'	32B-X	8r	32B-X	2r	2ee	2ee	2g	2g	16.c#	16.c#	16.g	16.g	16.een	16.bb-X	16.gg	16.gg
.	.	32A	.	32A	.	.	.	.	.	.	.	.	.	.	.	.	.
.	.	32B-'	.	32B-'	.	.	.	.	.	.	.	.	.	.	.	.	.
.	.	32c'	.	32c'	.	.	.	.	.	32c#	32c#	32g	32g	32ee	32bb-	32gg	32gg
8EE'	8En'	32B-	[8bb-	32B-	.	.	.	.	.	16.c#	16.c#	16.g	16.g	16.ee	16.bb-	16.gg	16.gg
.	.	32A	.	32A	.	.	.	.	.	.	.	.	.	.	.	.	.
.	.	32B-'	.	32B-'	.	.	.	.	.	.	.	.	.	.	.	.	.
.	.	32c'	.	32c'	.	.	.	.	.	32c#	32c#	32g	32g	32ee	32bb-	32gg	32gg
8GG'	8G'	32B-	16bb-]	32B-	.	.	.	.	.	16.c#	16.c#	16.g	16.g	16.ee	16.bb-	16.gg	16.gg
.	.	32A	.	32A	.	.	.	.	.	.	.	.	.	.	.	.	.
.	.	32B-'	32gg	32B-'	.	.	.	.	.	.	.	.	.	.	.	.	.
.	.	32c'	32een	32c'	.	.	.	.	.	32c#	32c#	32g	32g	32ee	32bb-	32gg	32gg
8DD'	8D'	32B-	16b-	32B-	.	.	.	.	.	16.d	16.d	16.g	16.g	16.ff	16.bb-	16.ff	16.ff
.	.	32A	.	32A	.	.	.	.	.	.	.	.	.	.	.	.	.
.	.	32B-'	16r	32B-'	.	.	.	.	.	.	.	.	.	.	.	.	.
.	.	32c'	.	32c'	.	.	.	.	.	32d	32d	32g	32g	32ff	32bb-	32ff	32ff
=57	=57	=57	=57	=57	=57	=57	=57	=57	=57	=57	=57	=57	=57	=57	=57	=57	=57
8CC#'	8C#'	32A'	8r	32A	2r	2ee	2ee	2a	2a	16.c#	16.c#	16.a	16.a	16.een	16.aan	8een	8een
.	.	32a	.	32a	.	.	.	.	.	.	.	.	.	.	.	.	.
.	.	32g#	.	32g#	.	.	.	.	.	.	.	.	.	.	.	.	.
.	.	32a	.	32a	.	.	.	.	.	32c#	32c#	32a	32a	32ee	32aa	.	.
8EE'	8En'	32g#	[8aaz	32g#	.	.	.	.	.	16.c#	16.c#	16.a	16.a	16.ee	16.aa	8r	8r
.	.	32a	.	32a	.	.	.	.	.	.	.	.	.	.	.	.	.
.	.	32g#	.	32g#	.	.	.	.	.	.	.	.	.	.	.	.	.
.	.	32a	.	32a	.	.	.	.	.	32c#	32c#	32a	32a	32ee	32aa	.	.
8AA'	8A'	32A'	16aa]	32A	.	.	.	.	.	16.c#	16.c#	16.a	16.a	16.ee	16.gg	4r	4r
.	.	32gn	.	32gn	.	.	.	.	.	.	.	.	.	.	.	.	.
.	.	32f#	32een	32f#	.	.	.	.	.	.	.	.	.	.	.	.	.
.	.	32g	32cc#	32g	.	.	.	.	.	32c#	32c#	32a	32a	32ee	32gg	.	.
8CC#'	8C#'	32f#	16a	32f#	.	.	.	.	.	16.c#	16.c#	16.a	16.a	16.ee	16.gg	.	.
.	.	32g	.	32g	.	.	.	.	.	.	.	.	.	.	.	.	.
.	.	32f#	16r	32f#	.	.	.	.	.	.	.	.	.	.	.	.	.
.	.	32g	.	32g	.	.	.	.	.	32c#	32c#	32a	32a	32ee	32gg	.	.
=58	=58	=58	=58	=58	=58	=58	=58	=58	=58	=58	=58	=58	=58	=58	=58	=58	=58
*staff:1	*staff:1	*staff:2	*staff:3	*staff:4	*staff:5	*staff:6	*staff:6	*staff:7	*staff:7	*staff:8	*staff:8	*staff:9	*staff:9	*staff:10	*staff:10	*staff:11	*staff:11
16.DD	16.D	8f#	32f#'	8f#	4D	[2dd	[2dd	2d	2a	4d	4d	16.dd	16.dd	16.dd	16.ff#	16.ff#	16.ff#
.	.	.	32dd	.	.	.	.	.	.	.	.	.	.	.	.	.	.
.	.	.	32cc#	.	.	.	.	.	.	.	.	.	.	.	.	.	.
32DD	32D	.	32dd	.	.	.	.	.	.	.	.	32dd	32dd	32dd	32ff#	32ddd	32ddd
16.DD	16.D	8r	32ee-X	8r	.	.	.	.	.	.	.	16.dd	16.dd	16.dd	16.ff#	16.ddd	16.ddd
.	.	.	32dd	.	.	.	.	.	.	.	.	.	.	.	.	.	.
.	.	.	32cc#	.	.	.	.	.	.	.	.	.	.	.	.	.	.
32DD	32D	.	32dd	.	.	.	.	.	.	.	.	32dd	32dd	32dd	32ff#	32ddd	32ddd
16.DD	16.D	8d 8f# 8a	32ee-	8d 8cc 8ff#X	4r	.	.	.	.	4f#	4f#	16.dd	16.dd	16.ff#X	16.aa	16.ccc	16.ccc
.	.	.	32dd	.	.	.	.	.	.	.	.	.	.	.	.	.	.
.	.	.	32cc#	.	.	.	.	.	.	.	.	.	.	.	.	.	.
32DD	32D	.	32dd	.	.	.	.	.	.	.	.	32dd	32dd	32ff#	32aa	32ccc	32ccc
16.DD	16.D	8r	32ccn	8r	.	.	.	.	.	.	.	16.dd	16.dd	16.ff#	16.aa	16.ccc	16.ccc
.	.	.	32ee-	.	.	.	.	.	.	.	.	.	.	.	.	.	.
.	.	.	32dd	.	.	.	.	.	.	.	.	.	.	.	.	.	.
32DD	32D	.	32cc	.	.	.	.	.	.	.	.	32dd	32dd	32ff#	32aa	32ccc	32ccc
=59	=59	=59	=59	=59	=59	=59	=59	=59	=59	=59	=59	=59	=59	=59	=59	=59	=59
16.DD	16.D	32d'	8b-	32b-	4D	2dd]	2dd]	2g	2g	4g	4g	16.dd	16.dd	16.gg	16.bb-	16.bb-	16.bb-
.	.	32b-	.	32gg	.	.	.	.	.	.	.	.	.	.	.	.	.
.	.	32a	.	32ff#	.	.	.	.	.	.	.	.	.	.	.	.	.
32DD	32D	32b-	.	32gg	.	.	.	.	.	.	.	32dd	32dd	32gg	32bb-	32bb-	32bb-
16.DD	16.D	32cc	8r	32aa	.	.	.	.	.	.	.	16.dd	16.dd	16.gg	16.bb-	16.bb-	16.bb-
.	.	32b-	.	32gg	.	.	.	.	.	.	.	.	.	.	.	.	.
.	.	32a	.	32ff#	.	.	.	.	.	.	.	.	.	.	.	.	.
32DD	32D	32b-	.	32gg	.	.	.	.	.	.	.	32dd	32dd	32gg	32bb-	32bb-	32bb-
16.DD	16.D	32a	8g 8cc#	32aa	4r	.	.	.	.	4c#	4c#	16.dd	16.dd	16.cc#	16.gg	16.bb-	16.bb-
.	.	32g	.	32gg	.	.	.	.	.	.	.	.	.	.	.	.	.
.	.	32f#	.	32ff#	.	.	.	.	.	.	.	.	.	.	.	.	.
32DD	32D	32g	.	32gg	.	.	.	.	.	.	.	32dd	32dd	32cc#	32gg	32bb-	32bb-
16.DD	16.D	32a	8r	32aa	.	.	.	.	.	.	.	16.dd	16.dd	16.cc#	16.gg	16.bb-	16.bb-
.	.	32b-	.	32bb-	.	.	.	.	.	.	.	.	.	.	.	.	.
.	.	32a	.	32aa	.	.	.	.	.	.	.	.	.	.	.	.	.
32DD	32D	32g	.	32gg	.	.	.	.	.	.	.	32dd	32dd	32cc#	32gg	32bb-	32bb-
=60	=60	=60	=60	=60	=60	=60	=60	=60	=60	=60	=60	=60	=60	=60	=60	=60	=60
16.DD	16.D	8f#	32d'	8ff#	16D	16.dd	16.dd	16.d	16.a	4d	4d	16.dd	16.dd	16.dd	16.ff#	16.aa	16.aa
.	.	.	32dd	.	.	.	.	.	.	.	.	.	.	.	.	.	.
.	.	.	32cc#	.	16D	.	.	.	.	.	.	.	.	.	.	.	.
32DD	32D	.	32dd	.	.	32dd	32dd	32d	32a	.	.	32dd	32dd	32dd	32ff#	32ddd	32ddd
16.DD	16.D	8r	32ee-X	8r	16D	16.dd	16.dd	16.d	16.a	.	.	16.dd	16.dd	16.dd	16.ff#	16.ddd	16.ddd
.	.	.	32dd	.	.	.	.	.	.	.	.	.	.	.	.	.	.
.	.	.	32cc#	.	16D	.	.	.	.	.	.	.	.	.	.	.	.
32DD	32D	.	32dd	.	.	32dd	32dd	32d	32a	.	.	32dd	32dd	32dd	32ff#	32ddd	32ddd
16.DD	16.D	8d 8f# 8a	32ee-	8d 8cc 8ff#	16D	16.dd	16.dd	16.d	16.a	4f#	4f#	16.dd	16.dd	16.ff#X	16.aa	16.ccc	16.ccc
.	.	.	32dd	.	.	.	.	.	.	.	.	.	.	.	.	.	.
.	.	.	32cc#	.	16D	.	.	.	.	.	.	.	.	.	.	.	.
32DD	32D	.	32dd	.	.	32dd	32dd	32d	32a	.	.	32dd	32dd	32ff#	32aa	32ccc	32ccc
16.DD	16.D	8r	32ccn	8r	16D	16.dd	16.dd	16.d	16.a	.	.	16.dd	16.dd	16.ff#	16.aa	16.ccc	16.ccc
.	.	.	32ee-	.	.	.	.	.	.	.	.	.	.	.	.	.	.
.	.	.	32dd	.	16D	.	.	.	.	.	.	.	.	.	.	.	.
32DD	32D	.	32cc	.	.	32dd	32dd	32d	32a	.	.	32dd	32dd	32ff#	32aa	32ccc	32ccc
=61	=61	=61	=61	=61	=61	=61	=61	=61	=61	=61	=61	=61	=61	=61	=61	=61	=61
16.DD	16.D	32d'	8b-	32b-'	16D	16.dd	16.dd	16.g	16.g	4g	4g	16.dd	16.dd	16.gg	16.bb-	16.bb-	16.bb-
.	.	32b-	.	32gg	.	.	.	.	.	.	.	.	.	.	.	.	.
.	.	32a	.	32ff#	16D	.	.	.	.	.	.	.	.	.	.	.	.
32DD	32D	32b-	.	32gg	.	32dd	32dd	32g	32g	.	.	32dd	32dd	32gg	32bb-	32bb-	32bb-
16.DD	16.D	32cc	8r	32aa	16D	16.dd	16.dd	16.g	16.g	.	.	16.dd	16.dd	16.gg	16.bb-	16.bb-	16.bb-
.	.	32b-	.	32gg	.	.	.	.	.	.	.	.	.	.	.	.	.
.	.	32a	.	32ff#	16D	.	.	.	.	.	.	.	.	.	.	.	.
32DD	32D	32b-	.	32gg	.	32dd	32dd	32g	32g	.	.	32dd	32dd	32gg	32bb-	32bb-	32bb-
16.DD	16.D	32a	8g 8cc#	32aa	16D	16.dd	16.dd	16.g	16.g	4c#	4c#	16.dd	16.dd	16.cc#	16.gg	16.bb-	16.bb-
.	.	32g	.	32gg	.	.	.	.	.	.	.	.	.	.	.	.	.
.	.	32f#	.	32ff#	16D	.	.	.	.	.	.	.	.	.	.	.	.
32DD	32D	32g	.	32gg	.	32dd	32dd	32g	32g	.	.	32dd	32dd	32cc#	32gg	32bb-	32bb-
16.DD	16.D	32a	8r	32aa	16D	16.dd	16.dd	16.g	16.g	.	.	16.dd	16.dd	16.cc#	16.gg	16.bb-	16.bb-
.	.	32b-	.	32bb-	.	.	.	.	.	.	.	.	.	.	.	.	.
.	.	32a	.	32aa	16D	.	.	.	.	.	.	.	.	.	.	.	.
32DD	32D	32g	.	32gg	.	32dd	32dd	32g	32g	.	.	32dd	32dd	32cc#	32gg	32bb-	32bb-
=62	=62	=62	=62	=62	=62	=62	=62	=62	=62	=62	=62	=62	=62	=62	=62	=62	=62
*staff:9	*staff:9	*staff:10	*staff:11	*staff:12	*staff:13	*staff:14	*staff:14	*staff:15	*staff:15	*staff:16	*staff:16	*staff:17	*staff:17	*staff:18	*staff:18	*staff:19	*staff:19
8DD	8D	8f#	8f# 8dd	16ff#'	8D	8dd	8dd	8d	8a	8d	8d	8dd	8dd	8dd	8ff#	8aa	8aa
.	.	.	.	32dd	.	.	.	.	.	.	.	.	.	.	.	.	.
.	.	.	.	32cc#	.	.	.	.	.	.	.	.	.	.	.	.	.
16r	16r	8r	16r	32dd	16r	16r	16r	16ryy	16r	16r	16r	8r	8r	16ryy	16r	16r	16r
.	.	.	.	32cc#	.	.	.	.	.	.	.	.	.	.	.	.	.
16DD	16D	.	16g 16b-	32dd	16GG	16dd	16dd	16g	16g	16D	16D	.	.	16gg	16bb-	16ddd	16ddd
.	.	.	.	32cc#	.	.	.	.	.	.	.	.	.	.	.	.	.
8D	8d	8d	8f# 8a	16dd'	8D	8dd	8dd	8d	8a	8d	8d	8dd	8dd	8ff#X	8aa	8dd	8dd
.	.	.	.	32dd	.	.	.	.	.	.	.	.	.	.	.	.	.
.	.	.	.	32cc#	.	.	.	.	.	.	.	.	.	.	.	.	.
16r	16r	8r	16r	32dd	16r	16r	16r	16ryy	16r	16r	16r	8r	8r	16ryy	16r	16r	16r
.	.	.	.	32cc#	.	.	.	.	.	.	.	.	.	.	.	.	.
16DD	16D	.	16g 16b-	32dd	16GG	16dd	16dd	16g	16g	16D	16D	.	.	16gg	16bb-	16ddd	16ddd
.	.	.	.	32cc#	.	.	.	.	.	.	.	.	.	.	.	.	.
=63	=63	=63	=63	=63	=63	=63	=63	=63	=63	=63	=63	=63	=63	=63	=63	=63	=63
8D	8d	8d	8f# 8a	16dd'	8D	8dd	8dd	8d	8a	8d	8d	8dd	8dd	8ff#	8aa	8dd	8dd
.	.	.	.	16cc#'	.	.	.	.	.	.	.	.	.	.	.	.	.
8r	8r	8r	8r	16dd'	8r	8r	8r	8ryy	8r	8r	8r	8r	8r	8ryy	8r	8r	8r
.	.	.	.	16cc#'	.	.	.	.	.	.	.	.	.	.	.	.	.
4r	4r	4r	4r	16dd'	4r	4r	4r	4ryy	4r	4r	4r	4r	4r	4ryy	4r	4r	4r
.	.	.	.	16cc#'	.	.	.	.	.	.	.	.	.	.	.	.	.
.	.	.	.	16dd'	.	.	.	.	.	.	.	.	.	.	.	.	.
.	.	.	.	16cc#'	.	.	.	.	.	.	.	.	.	.	.	.	.
=64	=64	=64	=64	=64	=64	=64	=64	=64	=64	=64	=64	=64	=64	=64	=64	=64	=64
2r	2r	2r	2r	16dd'	2r	2r	2r	2r	2r	2r	2r	2r	2r	2r	2r	2r	2r
.	.	.	.	16cc#'	.	.	.	.	.	.	.	.	.	.	.	.	.
.	.	.	.	16dd'	.	.	.	.	.	.	.	.	.	.	.	.	.
.	.	.	.	16cc#'	.	.	.	.	.	.	.	.	.	.	.	.	.
.	.	.	.	16dd'	.	.	.	.	.	.	.	.	.	.	.	.	.
.	.	.	.	16cc#'	.	.	.	.	.	.	.	.	.	.	.	.	.
.	.	.	.	16dd'	.	.	.	.	.	.	.	.	.	.	.	.	.
.	.	.	.	16cc#'	.	.	.	.	.	.	.	.	.	.	.	.	.
=65||	=65||	=65||	=65||	=65||	=65||	=65||	=65||	=65||	=65||	=65||	=65||	=65||	=65||	=65||	=65||	=65||	=65||
*k[]	*k[]	*k[]	*k[]	*k[]	*	*	*	*	*	*	*k[]	*	*	*k[]	*k[]	*	*k[]
*k[f#]	*k[f#]	*k[f#]	*k[f#]	*k[f#]	*	*	*	*	*	*	*k[f#]	*	*	*k[f#]	*k[f#]	*	*k[f#]
2r	2r	2r	2r	16dd'	2r	2r	2r	2r	2r	2ryy	8G'	2r	2r	2r	2r	2ryy	8bbn'
.	.	.	.	16cc#'	.	.	.	.	.	.	.	.	.	.	.	.	.
.	.	.	.	16dd'	.	.	.	.	.	.	8B'	.	.	.	.	.	8ddd'
.	.	.	.	16cc#'	.	.	.	.	.	.	.	.	.	.	.	.	.
.	.	.	.	16dd'	.	.	.	.	.	.	8G'	.	.	.	.	.	8bb'
.	.	.	.	16cc#'	.	.	.	.	.	.	.	.	.	.	.	.	.
.	.	.	.	16dd'	.	.	.	.	.	.	8B'	.	.	.	.	.	8ddd'
.	.	.	.	16cc#'	.	.	.	.	.	.	.	.	.	.	.	.	.
=66	=66	=66	=66	=66	=66	=66	=66	=66	=66	=66	=66	=66	=66	=66	=66	=66	=66
2r	2r	2r	2r	8..dd	2r	2r	2r	2r	2r	2ryy	8G'	2r	2r	2r	2r	2ryy	8bb'
.	.	.	.	.	.	.	.	.	.	.	8B'	.	.	.	.	.	8ddd'
.	.	.	.	32bn	.	.	.	.	.	.	.	.	.	.	.	.	.
.	.	.	.	8gg'	.	.	.	.	.	.	8G'	.	.	.	.	.	8bb'
.	.	.	.	8gg'	.	.	.	.	.	.	8B'	.	.	.	.	.	8ddd'
=67	=67	=67	=67	=67	=67	=67	=67	=67	=67	=67	=67	=67	=67	=67	=67	=67	=67
.	.	.	.	8ggq	.	.	.	.	.	.	.	.	.	.	.	.	.
2r	2r	2r	2r	8bb'	2r	2r	2r	2r	2r	2ryy	8G'	2r	2r	2r	2r	2ryy	8bb'
.	.	.	.	32aa	.	.	.	.	.	.	8B'	.	.	.	.	.	8ddd'
.	.	.	.	32gg	.	.	.	.	.	.	.	.	.	.	.	.	.
.	.	.	.	32ff#	.	.	.	.	.	.	.	.	.	.	.	.	.
.	.	.	.	32ee	.	.	.	.	.	.	.	.	.	.	.	.	.
.	.	.	.	8..dd	.	.	.	.	.	.	8G'	.	.	.	.	.	8bb'
.	.	.	.	.	.	.	.	.	.	.	8B'	.	.	.	.	.	8ddd'
.	.	.	.	32ee	.	.	.	.	.	.	.	.	.	.	.	.	.
=68	=68	=68	=68	=68	=68	=68	=68	=68	=68	=68	=68	=68	=68	=68	=68	=68	=68
2r	2r	2r	2r	16.cc	2r	2r	2r	2r	2r	2ryy	[2D	2r	2r	2ryy	8ff#X	2ryy	8aa
.	.	.	.	32dd	.	.	.	.	.	.	.	.	.	.	.	.	.
.	.	.	.	16.b	.	.	.	.	.	.	.	.	.	.	8gg	.	8bb
.	.	.	.	32cc	.	.	.	.	.	.	.	.	.	.	.	.	.
.	.	.	.	16.a	.	.	.	.	.	.	.	.	.	.	8aa	.	8ccc
.	.	.	.	32b	.	.	.	.	.	.	.	.	.	.	.	.	.
.	.	.	.	16.g	.	.	.	.	.	.	.	.	.	.	8bb-	.	8ccc#
.	.	.	.	32a	.	.	.	.	.	.	.	.	.	.	.	.	.
=69	=69	=69	=69	=69	=69	=69	=69	=69	=69	=69	=69	=69	=69	=69	=69	=69	=69
*	*	*	*	*staff:5	*	*	*	*	*	*	*staff:6	*	*	*	*staff:7	*	*staff:8
2ryy	2ryy	2ryy	2ryy	8.f#	2ryy	2ryy	2ryy	2ryy	2ryy	2ryy	4D]	2ryy	2ryy	2ryy	4aa	2ryy	16ddd
.	.	.	.	.	.	.	.	.	.	.	.	.	.	.	.	.	16ccc#
.	.	.	.	.	.	.	.	.	.	.	.	.	.	.	.	.	16eee
.	.	.	.	16g	.	.	.	.	.	.	.	.	.	.	.	.	16ddd
.	.	.	.	16a	.	.	.	.	.	.	4r	.	.	.	4r	.	8cccn
.	.	.	.	16b	.	.	.	.	.	.	.	.	.	.	.	.	.
.	.	.	.	16cc	.	.	.	.	.	.	.	.	.	.	.	.	8aa
.	.	.	.	16cc#	.	.	.	.	.	.	.	.	.	.	.	.	.
=70	=70	=70	=70	=70	=70	=70	=70	=70	=70	=70	=70	=70	=70	=70	=70	=70	=70
*	*	*	*	*	*	*	*	*	*	*	*	*	*	*staff:7	*	*	*
2ryy	2ryy	2ryy	2ryy	8..dd	2ryy	2ryy	2ryy	2ryy	2ryy	2ryy	8G'	2ryy	2ryy	2r	2r	2ryy	8bb'
.	.	.	.	.	.	.	.	.	.	.	8B'	.	.	.	.	.	8ddd'
.	.	.	.	32b	.	.	.	.	.	.	.	.	.	.	.	.	.
.	.	.	.	8gg'	.	.	.	.	.	.	8G'	.	.	.	.	.	8bb'
.	.	.	.	8gg'	.	.	.	.	.	.	8B'	.	.	.	.	.	8ddd'
=71	=71	=71	=71	=71	=71	=71	=71	=71	=71	=71	=71	=71	=71	=71	=71	=71	=71
.	.	.	.	8ggq	.	.	.	.	.	.	.	.	.	.	.	.	.
2ryy	2ryy	2ryy	2ryy	8bb'	2ryy	2ryy	2ryy	2ryy	2ryy	2ryy	8G'	2ryy	2ryy	2r	2r	2ryy	8bb'
.	.	.	.	32aa	.	.	.	.	.	.	8B'	.	.	.	.	.	8ddd'
.	.	.	.	32gg	.	.	.	.	.	.	.	.	.	.	.	.	.
.	.	.	.	32ff#	.	.	.	.	.	.	.	.	.	.	.	.	.
.	.	.	.	32ee	.	.	.	.	.	.	.	.	.	.	.	.	.
.	.	.	.	8dd	.	.	.	.	.	.	8G'	.	.	.	.	.	8bb'
.	.	.	.	8r	.	.	.	.	.	.	8B'	.	.	.	.	.	8ddd'
=72	=72	=72	=72	=72	=72	=72	=72	=72	=72	=72	=72	=72	=72	=72	=72	=72	=72
.	.	.	.	8ddq	.	.	.	.	.	.	.	.	.	.	.	.	.
2ryy	2ryy	2ryy	2ryy	16ccc'	2ryy	2ryy	2ryy	2ryy	2ryy	2ryy	8F#	2ryy	2ryy	2r	2r	2ryy	8aa
.	.	.	.	32bb	.	.	.	.	.	.	.	.	.	.	.	.	.
.	.	.	.	32aa	.	.	.	.	.	.	.	.	.	.	.	.	.
.	.	.	.	32gg	.	.	.	.	.	.	8d	.	.	.	.	.	8ccc
.	.	.	.	32ff#	.	.	.	.	.	.	.	.	.	.	.	.	.
.	.	.	.	32ee	.	.	.	.	.	.	.	.	.	.	.	.	.
.	.	.	.	32dd	.	.	.	.	.	.	.	.	.	.	.	.	.
.	.	.	.	8cc	.	.	.	.	.	.	8G	.	.	.	.	.	8aa
.	.	.	.	8b	.	.	.	.	.	.	8d	.	.	.	.	.	8gg
=73	=73	=73	=73	=73	=73	=73	=73	=73	=73	=73	=73	=73	=73	=73	=73	=73	=73
2ryy	2ryy	2ryy	2ryy	16.a	2ryy	2ryy	2ryy	2ryy	2ryy	2ryy	4c	2ryy	2ryy	2r	2r	2ryy	4eee
.	.	.	.	32b	.	.	.	.	.	.	.	.	.	.	.	.	.
.	.	.	.	16.cc	.	.	.	.	.	.	.	.	.	.	.	.	.
.	.	.	.	32b	.	.	.	.	.	.	.	.	.	.	.	.	.
.	.	.	.	16.dd	.	.	.	.	.	.	4D	.	.	.	.	.	16.ff#
.	.	.	.	32cc	.	.	.	.	.	.	.	.	.	.	.	.	32aa
.	.	.	.	16.ee	.	.	.	.	.	.	.	.	.	.	.	.	16.ccc
.	.	.	.	32f#	.	.	.	.	.	.	.	.	.	.	.	.	32aa
=74	=74	=74	=74	=74	=74	=74	=74	=74	=74	=74	=74	=74	=74	=74	=74	=74	=74
2ryy	2ryy	2ryy	2ryy	16.g	2ryy	2ryy	2ryy	2ryy	2ryy	2ryy	4G	2ryy	2ryy	2r	2r	2ryy	16.gg
.	.	.	.	32a	.	.	.	.	.	.	.	.	.	.	.	.	32aa
.	.	.	.	16.b	.	.	.	.	.	.	.	.	.	.	.	.	16.bb
.	.	.	.	32dd	.	.	.	.	.	.	.	.	.	.	.	.	32ddd
.	.	.	.	8g	.	.	.	.	.	.	16.r	.	.	.	.	.	8gg
.	.	.	.	.	.	.	.	.	.	.	32d	.	.	.	.	.	.
.	.	.	.	8r	.	.	.	.	.	.	16.B	.	.	.	.	.	8r
.	.	.	.	.	.	.	.	.	.	.	32G	.	.	.	.	.	.
=75	=75	=75	=75	=75	=75	=75	=75	=75	=75	=75	=75	=75	=75	=75	=75	=75	=75
2ryy	2ryy	2ryy	2ryy	16.a'	2ryy	2ryy	2ryy	2ryy	2ryy	2ryy	8F#'	2ryy	2ryy	2r	2r	2ryy	8..ccc
.	.	.	.	32b'	.	.	.	.	.	.	.	.	.	.	.	.	.
.	.	.	.	16.cc'	.	.	.	.	.	.	8D'	.	.	.	.	.	.
.	.	.	.	32dd'	.	.	.	.	.	.	.	.	.	.	.	.	32aa
.	.	.	.	16.g'	.	.	.	.	.	.	8G'	.	.	.	.	.	8..bb
.	.	.	.	32a'	.	.	.	.	.	.	.	.	.	.	.	.	.
.	.	.	.	16.b'	.	.	.	.	.	.	8D'	.	.	.	.	.	.
.	.	.	.	32dd'	.	.	.	.	.	.	.	.	.	.	.	.	32gg
=76	=76	=76	=76	=76	=76	=76	=76	=76	=76	=76	=76	=76	=76	=76	=76	=76	=76
*	*	*	*	*staff:1	*	*	*	*	*	*	*staff:2	*	*	*staff:3	*staff:3	*	*staff:4
2ryy	2ryy	2ryy	2ryy	16.a'	2ryy	2ryy	2ryy	2ryy	2ryy	2ryy	8F#'	2ryy	2ryy	2r	2r	2ryy	8..ccc
.	.	.	.	32b'	.	.	.	.	.	.	.	.	.	.	.	.	.
.	.	.	.	16.cc'	.	.	.	.	.	.	8D'	.	.	.	.	.	.
.	.	.	.	32dd'	.	.	.	.	.	.	.	.	.	.	.	.	32aa
.	.	.	.	16.g'	.	.	.	.	.	.	8G'	.	.	.	.	.	8..bb
.	.	.	.	32a'	.	.	.	.	.	.	.	.	.	.	.	.	.
.	.	.	.	16.b'	.	.	.	.	.	.	8G'	.	.	.	.	.	.
.	.	.	.	32dd'	.	.	.	.	.	.	.	.	.	.	.	.	32gg
=77	=77	=77	=77	=77	=77	=77	=77	=77	=77	=77	=77	=77	=77	=77	=77	=77	=77
2ryy	2ryy	2ryy	2ryy	16.cc#'	2ryy	2ryy	2ryy	2ryy	2ryy	2ryy	2AA	2ryy	2ryy	2ryy	8..gg	2ryy	8..eee
.	.	.	.	32dd'	.	.	.	.	.	.	.	.	.	.	.	.	.
.	.	.	.	16.ee'	.	.	.	.	.	.	.	.	.	.	.	.	.
.	.	.	.	32ff#'	.	.	.	.	.	.	.	.	.	.	32ff#	.	32ddd
.	.	.	.	16.gg'	.	.	.	.	.	.	.	.	.	.	16.ee'	.	16.ccc#'
.	.	.	.	32aa'	.	.	.	.	.	.	.	.	.	.	32dd'	.	32bb'
.	.	.	.	16.bb'	.	.	.	.	.	.	.	.	.	.	16.cc#'	.	16.aa'
.	.	.	.	32ccc#X'	.	.	.	.	.	.	.	.	.	.	32ee'	.	32gg'
=78	=78	=78	=78	=78	=78	=78	=78	=78	=78	=78	=78	=78	=78	=78	=78	=78	=78
2ryy	2ryy	2ryy	2ryy	16ddd	2ryy	2ryy	2ryy	2ryy	2ryy	2ryy	4D	2ryy	2ryy	2ryy	4dd	2ryy	8ff#
.	.	.	.	32ccc#	.	.	.	.	.	.	.	.	.	.	.	.	.
.	.	.	.	32bb	.	.	.	.	.	.	.	.	.	.	.	.	.
.	.	.	.	32aa	.	.	.	.	.	.	.	.	.	.	.	.	8aa
.	.	.	.	32gg	.	.	.	.	.	.	.	.	.	.	.	.	.
.	.	.	.	32ff#	.	.	.	.	.	.	.	.	.	.	.	.	.
.	.	.	.	32ee	.	.	.	.	.	.	.	.	.	.	.	.	.
.	.	.	.	16dd	.	.	.	.	.	.	4r	.	.	.	4r	.	8ddd'
.	.	.	.	32cc#X	.	.	.	.	.	.	.	.	.	.	.	.	.
.	.	.	.	32b	.	.	.	.	.	.	.	.	.	.	.	.	.
.	.	.	.	32a	.	.	.	.	.	.	.	.	.	.	.	.	8ddd'
.	.	.	.	32g	.	.	.	.	.	.	.	.	.	.	.	.	.
.	.	.	.	32f#	.	.	.	.	.	.	.	.	.	.	.	.	.
.	.	.	.	32e	.	.	.	.	.	.	.	.	.	.	.	.	.
=79	=79	=79	=79	=79	=79	=79	=79	=79	=79	=79	=79	=79	=79	=79	=79	=79	=79
.	.	.	.	8dq	.	.	.	.	.	.	.	.	.	.	.	.	.
2ryy	2ryy	2ryy	2ryy	4dd	2ryy	2ryy	2ryy	2ryy	2ryy	2ryy	8DD	2ryy	2ryy	2r	2r	2ryy	2ddd
.	.	.	.	.	.	.	.	.	.	.	8D	.	.	.	.	.	.
.	.	.	.	8cc#	.	.	.	.	.	.	8E	.	.	.	.	.	.
.	.	.	.	8ccn	.	.	.	.	.	.	8F#	.	.	.	.	.	.
=80	=80	=80	=80	=80	=80	=80	=80	=80	=80	=80	=80	=80	=80	=80	=80	=80	=80
2ryy	2ryy	2ryy	2ryy	8..b	2ryy	2ryy	2ryy	2ryy	2ryy	2ryy	8G'	2ryy	2ryy	2r	2r	2ryy	16.ddd
.	.	.	.	.	.	.	.	.	.	.	.	.	.	.	.	.	32ccc#
.	.	.	.	.	.	.	.	.	.	.	8D'	.	.	.	.	.	16.ddd
.	.	.	.	32cc	.	.	.	.	.	.	.	.	.	.	.	.	32ccc#
.	.	.	.	8a'	.	.	.	.	.	.	8F#'	.	.	.	.	.	16.ddd
.	.	.	.	.	.	.	.	.	.	.	.	.	.	.	.	.	32ccc#
.	.	.	.	8a'	.	.	.	.	.	.	8D'	.	.	.	.	.	16.ddd
.	.	.	.	.	.	.	.	.	.	.	.	.	.	.	.	.	32ccc#
=81	=81	=81	=81	=81	=81	=81	=81	=81	=81	=81	=81	=81	=81	=81	=81	=81	=81
2ryy	2ryy	2ryy	2ryy	8..cc	2ryy	2ryy	2ryy	2ryy	2ryy	2ryy	8A'	2ryy	2ryy	2r	2r	2ryy	16.ddd
.	.	.	.	.	.	.	.	.	.	.	.	.	.	.	.	.	32ccc#
.	.	.	.	.	.	.	.	.	.	.	8D'	.	.	.	.	.	16.ddd
.	.	.	.	32dd	.	.	.	.	.	.	.	.	.	.	.	.	32ccc#
.	.	.	.	8b'	.	.	.	.	.	.	8G'	.	.	.	.	.	16.ddd
.	.	.	.	.	.	.	.	.	.	.	.	.	.	.	.	.	32ccc#
.	.	.	.	8b'	.	.	.	.	.	.	8D'	.	.	.	.	.	16.ddd
.	.	.	.	.	.	.	.	.	.	.	.	.	.	.	.	.	32ccc#
=82	=82	=82	=82	=82	=82	=82	=82	=82	=82	=82	=82	=82	=82	=82	=82	=82	=82
*	*	*	*	*staff:11	*	*	*	*	*	*	*staff:12	*	*	*	*staff:13	*	*staff:14
2ryy	2ryy	2ryy	2ryy	8..g	2ryy	2ryy	2ryy	2ryy	2ryy	2ryy	[2d	2ryy	2ryy	2ryy	8..b	2ryy	32ddd
.	.	.	.	.	.	.	.	.	.	.	.	.	.	.	.	.	32ccc#
.	.	.	.	.	.	.	.	.	.	.	.	.	.	.	.	.	32ddd
.	.	.	.	.	.	.	.	.	.	.	.	.	.	.	.	.	32ccc#
.	.	.	.	.	.	.	.	.	.	.	.	.	.	.	.	.	32ddd
.	.	.	.	.	.	.	.	.	.	.	.	.	.	.	.	.	32ccc#
.	.	.	.	.	.	.	.	.	.	.	.	.	.	.	.	.	32ddd
.	.	.	.	32a	.	.	.	.	.	.	.	.	.	.	32cc	.	32ccc#
.	.	.	.	8f#'	.	.	.	.	.	.	.	.	.	.	8a'	.	32ddd
.	.	.	.	.	.	.	.	.	.	.	.	.	.	.	.	.	32ccc#
.	.	.	.	.	.	.	.	.	.	.	.	.	.	.	.	.	32ddd
.	.	.	.	.	.	.	.	.	.	.	.	.	.	.	.	.	32ccc#
.	.	.	.	8f#'	.	.	.	.	.	.	.	.	.	.	8a'	.	32ddd
.	.	.	.	.	.	.	.	.	.	.	.	.	.	.	.	.	32ccc#
.	.	.	.	.	.	.	.	.	.	.	.	.	.	.	.	.	32ddd
.	.	.	.	.	.	.	.	.	.	.	.	.	.	.	.	.	32ccc#
=83	=83	=83	=83	=83	=83	=83	=83	=83	=83	=83	=83	=83	=83	=83	=83	=83	=83
2ryy	2ryy	2ryy	2ryy	8..a	2ryy	2ryy	2ryy	2ryy	2ryy	2ryy	2d]	2ryy	2ryy	2ryy	8..cc	2ryy	32ddd
.	.	.	.	.	.	.	.	.	.	.	.	.	.	.	.	.	32eee
.	.	.	.	.	.	.	.	.	.	.	.	.	.	.	.	.	32ddd
.	.	.	.	.	.	.	.	.	.	.	.	.	.	.	.	.	32ccc#
.	.	.	.	.	.	.	.	.	.	.	.	.	.	.	.	.	32ddd
.	.	.	.	.	.	.	.	.	.	.	.	.	.	.	.	.	32eee
.	.	.	.	.	.	.	.	.	.	.	.	.	.	.	.	.	32ddd
.	.	.	.	32b	.	.	.	.	.	.	.	.	.	.	32dd	.	32ccc#
.	.	.	.	8g'	.	.	.	.	.	.	.	.	.	.	8b'	.	32ddd
.	.	.	.	.	.	.	.	.	.	.	.	.	.	.	.	.	32eee
.	.	.	.	.	.	.	.	.	.	.	.	.	.	.	.	.	32ddd
.	.	.	.	.	.	.	.	.	.	.	.	.	.	.	.	.	32ccc#
.	.	.	.	8g'	.	.	.	.	.	.	.	.	.	.	8b'	.	32ddd
.	.	.	.	.	.	.	.	.	.	.	.	.	.	.	.	.	32eee
.	.	.	.	.	.	.	.	.	.	.	.	.	.	.	.	.	32ddd
.	.	.	.	.	.	.	.	.	.	.	.	.	.	.	.	.	32cccn
=84	=84	=84	=84	=84	=84	=84	=84	=84	=84	=84	=84	=84	=84	=84	=84	=84	=84
.	.	.	.	8dd#q	.	.	.	.	.	.	.	.	.	.	.	.	.
2ryy	2ryy	2ryy	2ryy	8ee'	2ryy	2ryy	2ryy	2ryy	2ryy	2ryy	16D	2ryy	2ryy	2ryy	4gg#	2ryy	4bb
.	.	.	.	.	.	.	.	.	.	.	16d	.	.	.	.	.	.
.	.	.	.	32ddn	.	.	.	.	.	.	16D	.	.	.	.	.	.
.	.	.	.	32cc	.	.	.	.	.	.	.	.	.	.	.	.	.
.	.	.	.	32b	.	.	.	.	.	.	16d	.	.	.	.	.	.
.	.	.	.	32a	.	.	.	.	.	.	.	.	.	.	.	.	.
.	.	.	.	16g#'	.	.	.	.	.	.	16D	.	.	.	4aa	.	4ccc
.	.	.	.	16a'	.	.	.	.	.	.	16d	.	.	.	.	.	.
.	.	.	.	16b'	.	.	.	.	.	.	16D	.	.	.	.	.	.
.	.	.	.	16cc'	.	.	.	.	.	.	16d	.	.	.	.	.	.
=85	=85	=85	=85	=85	=85	=85	=85	=85	=85	=85	=85	=85	=85	=85	=85	=85	=85
2ryy	2ryy	2ryy	2ryy	16cc#'	2ryy	2ryy	2ryy	2ryy	2ryy	2ryy	16D	2ryy	2ryy	2ryy	4ff#	2ryy	4aa
.	.	.	.	16dd'	.	.	.	.	.	.	16d	.	.	.	.	.	.
.	.	.	.	16ee'	.	.	.	.	.	.	16D	.	.	.	.	.	.
.	.	.	.	16dd'	.	.	.	.	.	.	16d	.	.	.	.	.	.
.	.	.	.	16aa'	.	.	.	.	.	.	16D	.	.	.	4ggn	.	4bb
.	.	.	.	16gg'	.	.	.	.	.	.	16d	.	.	.	.	.	.
.	.	.	.	16ff#'	.	.	.	.	.	.	16D	.	.	.	.	.	.
.	.	.	.	16ee'	.	.	.	.	.	.	16d	.	.	.	.	.	.
=86	=86	=86	=86	=86	=86	=86	=86	=86	=86	=86	=86	=86	=86	=86	=86	=86	=86
*	*	*	*	*	*	*	*	*	*	*	*	*	*	*staff:13	*	*	*
2ryy	2ryy	2ryy	2ryy	16dd	2ryy	2ryy	2ryy	2ryy	2ryy	2ryy	16D	2ryy	2ryy	8r	8ee	2ryy	8gg
.	.	.	.	16cc#	.	.	.	.	.	.	16d	.	.	.	.	.	.
.	.	.	.	16ccn'	.	.	.	.	.	.	16D	.	.	4dd	8ff#	.	8aa
.	.	.	.	16cc'	.	.	.	.	.	.	16d	.	.	.	.	.	.
.	.	.	.	16cc	.	.	.	.	.	.	16D	.	.	.	8gg	.	8bb
.	.	.	.	16b	.	.	.	.	.	.	16d	.	.	.	.	.	.
.	.	.	.	16b-'	.	.	.	.	.	.	16D	.	.	8ee	8gg'	.	8ccc#
.	.	.	.	16b-'	.	.	.	.	.	.	16d	.	.	.	.	.	.
=87	=87	=87	=87	=87	=87	=87	=87	=87	=87	=87	=87	=87	=87	=87	=87	=87	=87
2ryy	2ryy	2ryy	2ryy	16a'	2ryy	2ryy	2ryy	2ryy	2ryy	2ryy	4D	2ryy	2ryy	4dd	4ff#	2ryy	4.ddd
.	.	.	.	16d'	.	.	.	.	.	.	.	.	.	.	.	.	.
.	.	.	.	16e'	.	.	.	.	.	.	.	.	.	.	.	.	.
.	.	.	.	16f#'	.	.	.	.	.	.	.	.	.	.	.	.	.
.	.	.	.	16g'	.	.	.	.	.	.	4r	.	.	4ryy	4r	.	.
.	.	.	.	16a'	.	.	.	.	.	.	.	.	.	.	.	.	.
.	.	.	.	16bn'	.	.	.	.	.	.	.	.	.	.	.	.	8cccn
.	.	.	.	16cc'	.	.	.	.	.	.	.	.	.	.	.	.	.
=88	=88	=88	=88	=88	=88	=88	=88	=88	=88	=88	=88	=88	=88	=88	=88	=88	=88
*	*	*	*	*staff:7	*	*	*	*	*	*	*staff:8	*	*	*staff:9	*staff:9	*	*staff:10
2ryy	2ryy	2ryy	2ryy	16dd'	2ryy	2ryy	2ryy	2ryy	2ryy	2ryy	8GG'	2ryy	2ryy	2r	2r	2ryy	8bb'
.	.	.	.	16cc#'	.	.	.	.	.	.	.	.	.	.	.	.	.
.	.	.	.	16dd'	.	.	.	.	.	.	8B'	.	.	.	.	.	8ddd'
.	.	.	.	16cc#'	.	.	.	.	.	.	.	.	.	.	.	.	.
.	.	.	.	16dd'	.	.	.	.	.	.	8G'	.	.	.	.	.	8bb'
.	.	.	.	16cc#'	.	.	.	.	.	.	.	.	.	.	.	.	.
.	.	.	.	16dd'	.	.	.	.	.	.	8B'	.	.	.	.	.	8ddd'
.	.	.	.	16cc#'	.	.	.	.	.	.	.	.	.	.	.	.	.
=89	=89	=89	=89	=89	=89	=89	=89	=89	=89	=89	=89	=89	=89	=89	=89	=89	=89
2ryy	2ryy	2ryy	2ryy	8..dd	2ryy	2ryy	2ryy	2ryy	2ryy	2ryy	8G'	2ryy	2ryy	2r	2r	2ryy	8bb'
.	.	.	.	.	.	.	.	.	.	.	8B'	.	.	.	.	.	8ddd'
.	.	.	.	32b	.	.	.	.	.	.	.	.	.	.	.	.	.
.	.	.	.	8gg'	.	.	.	.	.	.	8G'	.	.	.	.	.	8bb'
.	.	.	.	8gg'	.	.	.	.	.	.	8B'	.	.	.	.	.	8ddd'
=90	=90	=90	=90	=90	=90	=90	=90	=90	=90	=90	=90	=90	=90	=90	=90	=90	=90
.	.	.	.	8ggq	.	.	.	.	.	.	.	.	.	.	.	.	.
2ryy	2ryy	2ryy	2ryy	8bb'	2ryy	2ryy	2ryy	2ryy	2ryy	2ryy	8G'	2ryy	2ryy	2ryy	4r	2ryy	8bb'
.	.	.	.	32aa	.	.	.	.	.	.	8B'	.	.	.	.	.	8ddd'
.	.	.	.	32gg	.	.	.	.	.	.	.	.	.	.	.	.	.
.	.	.	.	32ff#	.	.	.	.	.	.	.	.	.	.	.	.	.
.	.	.	.	32ee	.	.	.	.	.	.	.	.	.	.	.	.	.
.	.	.	.	8dd	.	.	.	.	.	.	8G'	.	.	.	8r	.	8bb'
.	.	.	.	16.r	.	.	.	.	.	.	8B'	.	.	.	8gg	.	8ddd'
.	.	.	.	32ee'	.	.	.	.	.	.	.	.	.	.	.	.	.
=91	=91	=91	=91	=91	=91	=91	=91	=91	=91	=91	=91	=91	=91	=91	=91	=91	=91
2ryy	2ryy	2ryy	2ryy	16.cc	2ryy	2ryy	2ryy	2ryy	2ryy	2ryy	[2D	2ryy	2ryy	2ryy	8ff#	2ryy	8aa
.	.	.	.	32dd	.	.	.	.	.	.	.	.	.	.	.	.	.
.	.	.	.	16.b	.	.	.	.	.	.	.	.	.	.	8gg	.	8bb
.	.	.	.	32cc	.	.	.	.	.	.	.	.	.	.	.	.	.
.	.	.	.	16.a	.	.	.	.	.	.	.	.	.	.	8aa	.	8ccc
.	.	.	.	32b	.	.	.	.	.	.	.	.	.	.	.	.	.
.	.	.	.	16.g	.	.	.	.	.	.	.	.	.	.	8bb-	.	8ccc#
.	.	.	.	32a	.	.	.	.	.	.	.	.	.	.	.	.	.
=92	=92	=92	=92	=92	=92	=92	=92	=92	=92	=92	=92	=92	=92	=92	=92	=92	=92
2ryy	2ryy	2ryy	2ryy	8.f#	2ryy	2ryy	2ryy	2ryy	2ryy	2ryy	8D']	2ryy	2ryy	2ryy	8aa	2ryy	16ddd
.	.	.	.	.	.	.	.	.	.	.	.	.	.	.	.	.	16ccc#
.	.	.	.	.	.	.	.	.	.	.	8DD'	.	.	.	8r	.	16eee
.	.	.	.	16g	.	.	.	.	.	.	.	.	.	.	.	.	16ddd
.	.	.	.	16g#	.	.	.	.	.	.	4r	.	.	.	4r	.	16cccn
.	.	.	.	16a	.	.	.	.	.	.	.	.	.	.	.	.	16bb
.	.	.	.	16b-	.	.	.	.	.	.	.	.	.	.	.	.	16aa
.	.	.	.	16bn	.	.	.	.	.	.	.	.	.	.	.	.	16gg
=93	=93	=93	=93	=93	=93	=93	=93	=93	=93	=93	=93	=93	=93	=93	=93	=93	=93
2ryy	2ryy	2ryy	2ryy	8..cc	2ryy	2ryy	2ryy	2ryy	2ryy	2ryy	8D'	2ryy	2ryy	2ryy	8r	2ryy	16ff#
.	.	.	.	.	.	.	.	.	.	.	.	.	.	.	.	.	16gg
.	.	.	.	.	.	.	.	.	.	.	8F#'	.	.	.	8d	.	16aa
.	.	.	.	.	.	.	.	.	.	.	.	.	.	.	.	.	16gg
.	.	.	.	32a	.	.	.	.	.	.	.	.	.	.	.	.	.
.	.	.	.	8ccc'	.	.	.	.	.	.	8A'	.	.	.	8aa'	.	8ff#'
.	.	.	.	8ccc'	.	.	.	.	.	.	8F#'	.	.	.	8aa'	.	8ff#'
=94	=94	=94	=94	=94	=94	=94	=94	=94	=94	=94	=94	=94	=94	=94	=94	=94	=94
2ryy	2ryy	2ryy	2ryy	32ccc	2ryy	2ryy	2ryy	2ryy	2ryy	2ryy	8D'	2ryy	2ryy	2ryy	8aa	2ryy	8ff#
.	.	.	.	32bb	.	.	.	.	.	.	.	.	.	.	.	.	.
.	.	.	.	32ccc	.	.	.	.	.	.	.	.	.	.	.	.	.
.	.	.	.	32ddd	.	.	.	.	.	.	.	.	.	.	.	.	.
.	.	.	.	32ccc	.	.	.	.	.	.	8F#'	.	.	.	8r	.	8r
.	.	.	.	32bb	.	.	.	.	.	.	.	.	.	.	.	.	.
.	.	.	.	32aa	.	.	.	.	.	.	.	.	.	.	.	.	.
.	.	.	.	32gg	.	.	.	.	.	.	.	.	.	.	.	.	.
.	.	.	.	8ff#	.	.	.	.	.	.	8A'	.	.	.	4r	.	4r
.	.	.	.	8r	.	.	.	.	.	.	8c'	.	.	.	.	.	.
=95	=95	=95	=95	=95	=95	=95	=95	=95	=95	=95	=95	=95	=95	=95	=95	=95	=95
*	*	*	*	*	*	*	*	*	*	*staff:8	*	*	*	*	*	*	*
*	*	*	*	*	*	*	*	*	*	*k[f#]	*	*	*	*	*	*	*
2ryy	2ryy	2ryy	2ryy	16.gg	2ryy	2ryy	2ryy	2ryy	2ryy	2r	2r	2ryy	2ryy	2ryy	8bb	2ryy	8eee
.	.	.	.	32aa	.	.	.	.	.	.	.	.	.	.	.	.	.
.	.	.	.	16.ff#	.	.	.	.	.	.	.	.	.	.	8aa	.	8ddd
.	.	.	.	32gg	.	.	.	.	.	.	.	.	.	.	.	.	.
.	.	.	.	8ee'	.	.	.	.	.	.	.	.	.	.	8ccc#'	.	8ggg'
.	.	.	.	8dd'	.	.	.	.	.	.	.	.	.	.	8ddd'	.	8fff#'
=96	=96	=96	=96	=96	=96	=96	=96	=96	=96	=96	=96	=96	=96	=96	=96	=96	=96
*staff:1	*staff:1	*	*staff:2	*staff:3	*	*	*	*	*	*staff:4	*staff:4	*	*	*	*staff:5	*	*staff:6
2r	2r	2ryy	2r	16.cc	2ryy	2ryy	2ryy	2ryy	2ryy	2r	2r	2ryy	2ryy	2ryy	8ee	2ryy	8aa
.	.	.	.	32dd	.	.	.	.	.	.	.	.	.	.	.	.	.
.	.	.	.	16.b	.	.	.	.	.	.	.	.	.	.	8dd	.	8gg
.	.	.	.	32cc	.	.	.	.	.	.	.	.	.	.	.	.	.
.	.	.	.	8a'	.	.	.	.	.	.	.	.	.	.	8ff#'	.	8cccn'
.	.	.	.	8g'	.	.	.	.	.	.	.	.	.	.	8gg'	.	8bb'
=97	=97	=97	=97	=97	=97	=97	=97	=97	=97	=97	=97	=97	=97	=97	=97	=97	=97
2r	2r	2ryy	2r	16.a	2ryy	2ryy	2ryy	2ryy	2ryy	2ryy	4c	2ryy	2ryy	2ryy	4ee	2ryy	4eee
.	.	.	.	32b	.	.	.	.	.	.	.	.	.	.	.	.	.
.	.	.	.	16.cc	.	.	.	.	.	.	.	.	.	.	.	.	.
.	.	.	.	32a	.	.	.	.	.	.	.	.	.	.	.	.	.
.	.	.	.	16.d	.	.	.	.	.	.	4d	.	.	.	4ccn	.	16.ff#
.	.	.	.	32e	.	.	.	.	.	.	.	.	.	.	.	.	32gg
.	.	.	.	16.f#	.	.	.	.	.	.	.	.	.	.	.	.	16.aa
.	.	.	.	32d	.	.	.	.	.	.	.	.	.	.	.	.	32ff#
=98	=98	=98	=98	=98	=98	=98	=98	=98	=98	=98	=98	=98	=98	=98	=98	=98	=98
2r	2r	2ryy	2r	16.g	2ryy	2ryy	2ryy	2ryy	2ryy	2ryy	4G	2ryy	2ryy	2ryy	8b	2ryy	16.gg
.	.	.	.	32a	.	.	.	.	.	.	.	.	.	.	.	.	32aa
.	.	.	.	16.b	.	.	.	.	.	.	.	.	.	.	8r	.	16.bb
.	.	.	.	32dd	.	.	.	.	.	.	.	.	.	.	.	.	32ddd
.	.	.	.	8g	.	.	.	.	.	.	4r	.	.	.	4r	.	8gg
.	.	.	.	8r	.	.	.	.	.	.	.	.	.	.	.	.	8r
=99	=99	=99	=99	=99	=99	=99	=99	=99	=99	=99	=99	=99	=99	=99	=99	=99	=99
*	*	*	*	*	*	*	*	*	*	*	*	*	*	*staff:5	*	*	*
2r	2r	2ryy	2r	2r	2ryy	2ryy	2ryy	2ryy	2ryy	2r	2r	2ryy	2ryy	2r	2r	2ryy	2r
=100	=100	=100	=100	=100	=100	=100	=100	=100	=100	=100	=100	=100	=100	=100	=100	=100	=100
2r	2r	2ryy	8G'	2r	2ryy	2ryy	2ryy	2ryy	2ryy	2r	2r	2ryy	2ryy	2r	2r	2ryy	2r
.	.	.	8B-'	.	.	.	.	.	.	.	.	.	.	.	.	.	.
.	.	.	8G'	.	.	.	.	.	.	.	.	.	.	.	.	.	.
.	.	.	8B-'	.	.	.	.	.	.	.	.	.	.	.	.	.	.
=101	=101	=101	=101	=101	=101	=101	=101	=101	=101	=101	=101	=101	=101	=101	=101	=101	=101
8EE-'	8E-'	2ryy	8G	8..b-	2ryy	2ryy	2ryy	2ryy	2ryy	2r	2r	2ryy	2ryy	2r	2r	2ryy	2r
8GG'	8G'	.	8B-	.	.	.	.	.	.	.	.	.	.	.	.	.	.
.	.	.	.	32g	.	.	.	.	.	.	.	.	.	.	.	.	.
8EE-'	8E-'	.	8G	8ee-'	.	.	.	.	.	.	.	.	.	.	.	.	.
8GG'	8G'	.	8B-	8ee-'	.	.	.	.	.	.	.	.	.	.	.	.	.
=102	=102	=102	=102	=102	=102	=102	=102	=102	=102	=102	=102	=102	=102	=102	=102	=102	=102
.	.	.	.	8ee-q	.	.	.	.	.	.	.	.	.	.	.	.	.
8EE-	8E-	2ryy	8G	8gg'	2ryy	2ryy	2ryy	2ryy	2ryy	2r	2r	2ryy	2ryy	2r	2r	2ryy	2r
8GG	8G	.	8B-	32ffn	.	.	.	.	.	.	.	.	.	.	.	.	.
.	.	.	.	32ee-X	.	.	.	.	.	.	.	.	.	.	.	.	.
.	.	.	.	32dd	.	.	.	.	.	.	.	.	.	.	.	.	.
.	.	.	.	32cc	.	.	.	.	.	.	.	.	.	.	.	.	.
8EE-	8E-	.	8G	8b-'	.	.	.	.	.	.	.	.	.	.	.	.	.
8GG	8G	.	8B-	8r	.	.	.	.	.	.	.	.	.	.	.	.	.
=103	=103	=103	=103	=103	=103	=103	=103	=103	=103	=103	=103	=103	=103	=103	=103	=103	=103
.	.	.	.	8b-q	.	.	.	.	.	.	.	.	.	.	.	.	.
8DD	8D	2ryy	8fn	16.aa-'	2ryy	2ryy	2ryy	2ryy	2ryy	2r	2r	2ryy	2ryy	2r	2r	2ryy	2r
.	.	.	.	32gg	.	.	.	.	.	.	.	.	.	.	.	.	.
8BB-	8B-	.	8d	32ffn	.	.	.	.	.	.	.	.	.	.	.	.	.
.	.	.	.	32ee-	.	.	.	.	.	.	.	.	.	.	.	.	.
.	.	.	.	32dd	.	.	.	.	.	.	.	.	.	.	.	.	.
.	.	.	.	32cc	.	.	.	.	.	.	.	.	.	.	.	.	.
8DD	8D	.	8f	8b-X'	.	.	.	.	.	.	.	.	.	.	.	.	.
8BB-	8B-	.	8A-	8r	.	.	.	.	.	.	.	.	.	.	.	.	.
=104	=104	=104	=104	=104	=104	=104	=104	=104	=104	=104	=104	=104	=104	=104	=104	=104	=104
*staff:10	*staff:10	*staff:11	*staff:12	*staff:13	*	*	*	*staff:14	*staff:14	*staff:15	*staff:15	*staff:16	*staff:16	*staff:17	*staff:17	*	*staff:18
.	.	.	.	8b-q	.	.	.	.	.	.	.	.	.	.	.	.	.
8EE-	8E-	8G'	8G	8gg'	2ryy	2ryy	2ryy	2r	2r	2e-	2e-	2r	2r	2b-	2gg	2ryy	4r
8GG	8G	8E-'	8B-	32ffn	.	.	.	.	.	.	.	.	.	.	.	.	.
.	.	.	.	32ee-	.	.	.	.	.	.	.	.	.	.	.	.	.
.	.	.	.	32dd	.	.	.	.	.	.	.	.	.	.	.	.	.
.	.	.	.	32cc	.	.	.	.	.	.	.	.	.	.	.	.	.
8EE-	8E-	8G'	8G	8b-X'	.	.	.	.	.	.	.	.	.	.	.	.	32bb-
.	.	.	.	.	.	.	.	.	.	.	.	.	.	.	.	.	32aan
.	.	.	.	.	.	.	.	.	.	.	.	.	.	.	.	.	32bb-
.	.	.	.	.	.	.	.	.	.	.	.	.	.	.	.	.	32aa
8GG	8G	8E-'	8B-	8r	.	.	.	.	.	.	.	.	.	.	.	.	32bb-
.	.	.	.	.	.	.	.	.	.	.	.	.	.	.	.	.	32aa
.	.	.	.	.	.	.	.	.	.	.	.	.	.	.	.	.	32bb-
.	.	.	.	.	.	.	.	.	.	.	.	.	.	.	.	.	32aa
=105	=105	=105	=105	=105	=105	=105	=105	=105	=105	=105	=105	=105	=105	=105	=105	=105	=105
8DD	8D	8B-	8fn	32aa-	2ryy	2ryy	2ryy	2r	2r	2d	2d	2r	2r	2ffn	2aa-	2ryy	8bb-
.	.	.	.	32bb-	.	.	.	.	.	.	.	.	.	.	.	.	.
.	.	.	.	32aa-	.	.	.	.	.	.	.	.	.	.	.	.	.
.	.	.	.	32gg	.	.	.	.	.	.	.	.	.	.	.	.	.
8BB-	8B-	8D	8A-	32ffn	.	.	.	.	.	.	.	.	.	.	.	.	8r
.	.	.	.	32ee-	.	.	.	.	.	.	.	.	.	.	.	.	.
.	.	.	.	32dd	.	.	.	.	.	.	.	.	.	.	.	.	.
.	.	.	.	32cc	.	.	.	.	.	.	.	.	.	.	.	.	.
8DD	8D	8B-	8f	8b-X	.	.	.	.	.	.	.	.	.	.	.	.	32bb-
.	.	.	.	.	.	.	.	.	.	.	.	.	.	.	.	.	32aa
.	.	.	.	.	.	.	.	.	.	.	.	.	.	.	.	.	32bb-
.	.	.	.	.	.	.	.	.	.	.	.	.	.	.	.	.	32aa
8BB-	8B-	8D	8A-	8r	.	.	.	.	.	.	.	.	.	.	.	.	32bb-
.	.	.	.	.	.	.	.	.	.	.	.	.	.	.	.	.	32aa
.	.	.	.	.	.	.	.	.	.	.	.	.	.	.	.	.	32bb-
.	.	.	.	.	.	.	.	.	.	.	.	.	.	.	.	.	32aa
=106	=106	=106	=106	=106	=106	=106	=106	=106	=106	=106	=106	=106	=106	=106	=106	=106	=106
8EE-	8E-	8E-	8G	32gg	2ryy	2ryy	2ryy	2r	2r	2e-	2e-	2r	2r	2gg	2gg	2ryy	8bb-
.	.	.	.	32aa-	.	.	.	.	.	.	.	.	.	.	.	.	.
.	.	.	.	32bb-	.	.	.	.	.	.	.	.	.	.	.	.	.
.	.	.	.	32aa-	.	.	.	.	.	.	.	.	.	.	.	.	.
8GG	8G	8g	8e-	32gg	.	.	.	.	.	.	.	.	.	.	.	.	8r
.	.	.	.	32ffn	.	.	.	.	.	.	.	.	.	.	.	.	.
.	.	.	.	32ee-	.	.	.	.	.	.	.	.	.	.	.	.	.
.	.	.	.	32dd	.	.	.	.	.	.	.	.	.	.	.	.	.
8EE-	8E-	8e-X	8g	8ee-	.	.	.	.	.	.	.	.	.	.	.	.	16gg
.	.	.	.	.	.	.	.	.	.	.	.	.	.	.	.	.	32aa-
.	.	.	.	.	.	.	.	.	.	.	.	.	.	.	.	.	32bb-X
8EE-	8E-	8e-	8g	8dd	.	.	.	.	.	.	.	.	.	.	.	.	32ccc
.	.	.	.	.	.	.	.	.	.	.	.	.	.	.	.	.	32ddd
.	.	.	.	.	.	.	.	.	.	.	.	.	.	.	.	.	32eee-
.	.	.	.	.	.	.	.	.	.	.	.	.	.	.	.	.	32fffn
=107	=107	=107	=107	=107	=107	=107	=107	=107	=107	=107	=107	=107	=107	=107	=107	=107	=107
16.EE-	16.E-	16.e-	32g	16.cc#	2ryy	2ryy	2ryy	2G	2g	2E-	2E-	2g	2g	2cc#	4.bb-	2ryy	4.ggg
.	.	.	32f#	.	.	.	.	.	.	.	.	.	.	.	.	.	.
.	.	.	32g	.	.	.	.	.	.	.	.	.	.	.	.	.	.
32EE-	32E-	32e-	32an	32ccc#X	.	.	.	.	.	.	.	.	.	.	.	.	.
16.EE-	16.E-	16.e-	32b-	16.ccc#	.	.	.	.	.	.	.	.	.	.	.	.	.
.	.	.	32a	.	.	.	.	.	.	.	.	.	.	.	.	.	.
.	.	.	32b-	.	.	.	.	.	.	.	.	.	.	.	.	.	.
32EE-	32E-	32e-	32a	32ccc#	.	.	.	.	.	.	.	.	.	.	.	.	.
16.EE-	16.E-	16.e-	32g	16.ccc#	.	.	.	.	.	.	.	.	.	.	.	.	.
.	.	.	32f#	.	.	.	.	.	.	.	.	.	.	.	.	.	.
.	.	.	32g	.	.	.	.	.	.	.	.	.	.	.	.	.	.
32EE-	32E-	32e-	32a	32ccc#	.	.	.	.	.	.	.	.	.	.	.	.	.
16.EE-	16.E-	16.e-	32b-	16.ccc#	.	.	.	.	.	.	.	.	.	.	8gg	.	8ccc#
.	.	.	32a	.	.	.	.	.	.	.	.	.	.	.	.	.	.
.	.	.	32b-	.	.	.	.	.	.	.	.	.	.	.	.	.	.
32EE-	32E-	32e-	32g	32ccc#	.	.	.	.	.	.	.	.	.	.	.	.	.
=108	=108	=108	=108	=108	=108	=108	=108	=108	=108	=108	=108	=108	=108	=108	=108	=108	=108
*staff:1	*staff:1	*staff:2	*staff:3	*staff:4	*	*	*	*staff:5	*staff:5	*staff:6	*staff:6	*staff:7	*staff:7	*staff:8	*staff:8	*staff:9	*staff:9
*	*	*	*	*	*	*	*	*	*	*	*	*	*	*	*	*k[f#]	*
8DD	8D	8d	16dd	16ddd	2ryy	2ryy	2ryy	2D	[2d	8D	8D	2d	[2dd	4dd	4ddd	16d	4ddd
.	.	.	32cc#	32ccc#	.	.	.	.	.	.	.	.	.	.	.	32en	.
.	.	.	32bn	32bbn	.	.	.	.	.	.	.	.	.	.	.	32f#X	.
8r	8r	8r	32a	32aa	.	.	.	.	.	8r	8r	.	.	.	.	32g	.
.	.	.	32g	32gg	.	.	.	.	.	.	.	.	.	.	.	32a	.
.	.	.	32f#X	32ff#X	.	.	.	.	.	.	.	.	.	.	.	32bn	.
.	.	.	32en	32een	.	.	.	.	.	.	.	.	.	.	.	32cc#	.
16D	16d	16dd	16dd	16dd	.	.	.	.	.	16d	16d	.	.	16d	16d	96ryy	16d
.	.	.	.	.	.	.	.	.	.	.	.	.	.	.	.	96ryy	.
.	.	.	.	.	.	.	.	.	.	.	.	.	.	.	.	96ryy	.
.	.	.	.	.	.	.	.	.	.	.	.	.	.	.	.	96ryy	.
.	.	.	.	.	.	.	.	.	.	.	.	.	.	.	.	96ryy	.
.	.	.	.	.	.	.	.	.	.	.	.	.	.	.	.	96ryy	.
32C#	32c#	32cc#	32cc#	32cc#X	.	.	.	.	.	32c#	32c#	.	.	32en	32en	96ryy	32en
.	.	.	.	.	.	.	.	.	.	.	.	.	.	.	.	96ryy	.
.	.	.	.	.	.	.	.	.	.	.	.	.	.	.	.	96ryy	.
32BB	32Bn	32bn	32b	32bn	.	.	.	.	.	32Bn	32Bn	.	.	32f#X	32f#X	96ryy	32f#X
.	.	.	.	.	.	.	.	.	.	.	.	.	.	.	.	96ryy	.
.	.	.	.	.	.	.	.	.	.	.	.	.	.	.	.	96ryy	.
32AA	32A	32a	32a	32a	.	.	.	.	.	32A	32A	.	.	32g	32g	96ryy	32g
.	.	.	.	.	.	.	.	.	.	.	.	.	.	.	.	96ryy	.
.	.	.	.	.	.	.	.	.	.	.	.	.	.	.	.	96ryy	.
32GG	32G	32g	32g	32g	.	.	.	.	.	32G	32G	.	.	32a	32a	96ryy	32a
.	.	.	.	.	.	.	.	.	.	.	.	.	.	.	.	96ryy	.
.	.	.	.	.	.	.	.	.	.	.	.	.	.	.	.	96ryy	.
32FF#X	32F#X	32f#X	32f#	32f#X	.	.	.	.	.	32F#X	32F#X	.	.	32bn	32bn	96ryy	32bn
.	.	.	.	.	.	.	.	.	.	.	.	.	.	.	.	96ryy	.
.	.	.	.	.	.	.	.	.	.	.	.	.	.	.	.	96ryy	.
32EE	32E	32en	32e	32en	.	.	.	.	.	32En	32En	.	.	32cc#	32cc#	96ryy	32cc#
.	.	.	.	.	.	.	.	.	.	.	.	.	.	.	.	96ryy	.
.	.	.	.	.	.	.	.	.	.	.	.	.	.	.	.	96ryy	.
!!WARNING: This measure contained too few data records
=109	=109	=109	=109	=109	=109	=109	=109	=109	=109	=109	=109	=109	=109	=109	=109	=109	=109
16DD'	16D'	16d'	16d'	16d'	2ryy	2ryy	2ryy	4D	4d]	16D'	16D'	16d	16dd]	16dd	16dd	16dd'	16dd'
16CC#'	16C#'	16c#'	16c#'	16c#'	.	.	.	.	.	16C#'	16C#'	16c#'y	16cc#'	16cc#	16cc#	16cc#'	16cc#'
16DD'	16D'	16d'	16d'	16d'	.	.	.	.	.	16D'	16D'	16d'y	16dd'	16dd	16dd	16dd'	16dd'
16CC#'	16C#'	16c#'	16c#'	16c#'	.	.	.	.	.	16C#'	16C#'	16c#'y	16cc#'	16cc#	16cc#	16cc#'	16cc#'
16DD'	16D'	16d'	16d'	16d'	.	.	.	4ryy	4r	16D'	16D'	16d'y	16dd'	16dd'	16dd'	16dd'	16dd'
16CC#'	16C#'	16c#'	16c#'	16c#'	.	.	.	.	.	16C#'	16C#'	16c#'y	16cc#'	16cc#'	16cc#'	16cc#'	16cc#'
16DD'	16D'	16d'	16d'	16d'	.	.	.	.	.	16D'	16D'	16d'y	16dd'	16dd'	16dd'	16dd'	16dd'
16CC#'	16C#'	16c#'	16c#'	16c#'	.	.	.	.	.	16C#'	16C#'	16c#'y	16cc#'	16cc#'	16cc#'	16cc#'	16cc#'
=110	=110	=110	=110	=110	=110	=110	=110	=110	=110	=110	=110	=110	=110	=110	=110	=110	=110
8DD	8D	8d	8d	16d'	2ryy	2ryy	2ryy	2r	2r	8D	8D	8d	8dd	8dd	8dd	8dd	8dd
.	.	.	.	16c#'	.	.	.	.	.	.	.	.	.	.	.	.	.
8r	8r	8r	8r	16d'	.	.	.	.	.	8r	8r	8ryy	8r	8r	8r	8r	8r
.	.	.	.	16c#'	.	.	.	.	.	.	.	.	.	.	.	.	.
4r	4r	4r	4r	16d'	.	.	.	.	.	4r	4r	4ryy	4r	4r	4r	4r	4r
.	.	.	.	16c#'	.	.	.	.	.	.	.	.	.	.	.	.	.
.	.	.	.	16d'	.	.	.	.	.	.	.	.	.	.	.	.	.
.	.	.	.	16c#'	.	.	.	.	.	.	.	.	.	.	.	.	.
=111	=111	=111	=111	=111	=111	=111	=111	=111	=111	=111	=111	=111	=111	=111	=111	=111	=111
2r	2r	2r	2r	16d'	2ryy	2ryy	2ryy	2r	2r	2r	2r	2r	2r	2r	2r	2r	2r
.	.	.	.	16c#'	.	.	.	.	.	.	.	.	.	.	.	.	.
.	.	.	.	16en'	.	.	.	.	.	.	.	.	.	.	.	.	.
.	.	.	.	16d'	.	.	.	.	.	.	.	.	.	.	.	.	.
.	.	.	.	16f#X'	.	.	.	.	.	.	.	.	.	.	.	.	.
.	.	.	.	16e'	.	.	.	.	.	.	.	.	.	.	.	.	.
.	.	.	.	16g'	.	.	.	.	.	.	.	.	.	.	.	.	.
.	.	.	.	16f#'	.	.	.	.	.	.	.	.	.	.	.	.	.
=112	=112	=112	=112	=112	=112	=112	=112	=112	=112	=112	=112	=112	=112	=112	=112	=112	=112
2r	2r	2r	2r	16a'	2ryy	2ryy	2ryy	2r	2r	2r	2r	2r	2r	2r	2r	2r	2r
.	.	.	.	16g'	.	.	.	.	.	.	.	.	.	.	.	.	.
.	.	.	.	16bn'	.	.	.	.	.	.	.	.	.	.	.	.	.
.	.	.	.	16a'	.	.	.	.	.	.	.	.	.	.	.	.	.
.	.	.	.	16cc'	.	.	.	.	.	.	.	.	.	.	.	.	.
.	.	.	.	16b'	.	.	.	.	.	.	.	.	.	.	.	.	.
.	.	.	.	16dd'	.	.	.	.	.	.	.	.	.	.	.	.	.
.	.	.	.	16cc#'	.	.	.	.	.	.	.	.	.	.	.	.	.
=113	=113	=113	=113	=113	=113	=113	=113	=113	=113	=113	=113	=113	=113	=113	=113	=113	=113
.	.	.	.	8eeq	.	.	.	.	.	.	.	.	.	.	.	.	8eeeq
2r	2r	8G'	8B'	16dd'	2ryy	2ryy	2ryy	2r	2r	8G'y	8B'	2r	2r	2r	2r	2ryy	16ddd'
.	.	.	.	16cc#'	.	.	.	.	.	.	.	.	.	.	.	.	16ccc#'
.	.	8B'	8d'	16dd'	.	.	.	.	.	8B'y	8d'	.	.	.	.	.	16ddd'
.	.	.	.	16cc#'	.	.	.	.	.	.	.	.	.	.	.	.	16ccc#'
.	.	.	.	8eeq	.	.	.	.	.	.	.	.	.	.	.	.	8eeeq
.	.	8G'	8B'	16dd'	.	.	.	.	.	8G'y	8B'	.	.	.	.	.	16ddd'
.	.	.	.	16cc#'	.	.	.	.	.	.	.	.	.	.	.	.	16ccc#'
.	.	8B'	8d'	16dd'	.	.	.	.	.	8B'y	8d'	.	.	.	.	.	16ddd'
.	.	.	.	16cc#'	.	.	.	.	.	.	.	.	.	.	.	.	16ccc#'
=114	=114	=114	=114	=114	=114	=114	=114	=114	=114	=114	=114	=114	=114	=114	=114	=114	=114
*staff:12	*staff:12	*staff:13	*staff:14	*staff:15	*staff:16	*staff:17	*staff:17	*staff:18	*staff:18	*staff:19	*staff:19	*staff:20	*staff:20	*staff:21	*staff:21	*staff:22	*staff:22
8GG'	8G'	8B'	24G	8..dd	4GG	8dd'	8dd'	8g'y	8b'	8G'y	8B'	8b'	8b'	8b	8..dd	8..ddd	8..ddd
.	.	.	24B	.	.	.	.	.	.	.	.	.	.	.	.	.	.
.	.	.	24d	.	.	.	.	.	.	.	.	.	.	.	.	.	.
8BB'	8B'	8d'	24G	.	.	8g'	8g'	8b'y	8dd'	8B'y	8d'	8dd'	8dd'	8dd	.	.	.
.	.	.	24B	.	.	.	.	.	.	.	.	.	.	.	.	.	.
.	.	.	24d	.	.	.	.	.	.	.	.	.	.	.	.	.	.
.	.	.	.	32b	.	.	.	.	.	.	.	.	.	.	32b	32bb	32bb
8GG'	8G'	8B'	24G	8gg'	4r	8dd'	8dd'	8g'y	8b'	8G'y	8B'	8b'	8b'	8b	8gg	8gg	8gg
.	.	.	24B	.	.	.	.	.	.	.	.	.	.	.	.	.	.
.	.	.	24d	.	.	.	.	.	.	.	.	.	.	.	.	.	.
8BB'	8B'	8d'	24G	8gg'	.	8g'	8g'	8b'y	8dd'	8B'y	8d'	8dd'	8dd'	8dd	8gg	8gg	8gg
.	.	.	24B	.	.	.	.	.	.	.	.	.	.	.	.	.	.
.	.	.	24d	.	.	.	.	.	.	.	.	.	.	.	.	.	.
=115	=115	=115	=115	=115	=115	=115	=115	=115	=115	=115	=115	=115	=115	=115	=115	=115	=115
8GG	8G	8B	8B'	24aa#	4GG	8dd	8dd	8g	8b	8G	8B	8b	8b	8b	24aa#	24aa#	24aa#
.	.	.	.	24bb	.	.	.	.	.	.	.	.	.	.	24bb	24bb	24bb
.	.	.	.	24aan	.	.	.	.	.	.	.	.	.	.	24aan	24aan	24aan
8BB	8B	8d	8d'	24gg	.	8g	8g	8b	8dd	8B	8d	8dd	8dd	8dd	24gg	24gg	24gg
.	.	.	.	24ff#	.	.	.	.	.	.	.	.	.	.	24ff#	24ff#	24ff#
.	.	.	.	24ee	.	.	.	.	.	.	.	.	.	.	24ee	24ee	24ee
8GG	8G	8B	24dd	24dd	4r	8dd	8dd	8g	8b	8G	8B	8b	8b	8b	8dd	8dd	8dd
.	.	.	24bb	24bb	.	.	.	.	.	.	.	.	.	.	.	.	.
.	.	.	24aa	24aa	.	.	.	.	.	.	.	.	.	.	.	.	.
8BB	8B	8d	24gg	24gg	.	8g	8g	8b	8dd	8B	8d	8dd	8dd	8dd	16r	16r	16r
.	.	.	24ff#	24ff#	.	.	.	.	.	.	.	.	.	.	.	.	.
.	.	.	.	.	.	.	.	.	.	.	.	.	.	.	16dd	16dd	16dd
.	.	.	24ee	24ee	.	.	.	.	.	.	.	.	.	.	.	.	.
=116	=116	=116	=116	=116	=116	=116	=116	=116	=116	=116	=116	=116	=116	=116	=116	=116	=116
8FF#	8F#	8a	24dd	24dd	4D	8dd	8dd	8d	8a	8F#	8F#	8cc	8cc	8a	8cc	8ccc	8ccc
.	.	.	24cc	24cc	.	.	.	.	.	.	.	.	.	.	.	.	.
.	.	.	24ee'	24ee'	.	.	.	.	.	.	.	.	.	.	.	.	.
8GG	8G	8d	24cc	24cc	.	8dd	8dd	8g	8b	8G	8G	8b	8b	8b	8b	8bb	8bb
.	.	.	24b	24b	.	.	.	.	.	.	.	.	.	.	.	.	.
.	.	.	24dd'	24dd'	.	.	.	.	.	.	.	.	.	.	.	.	.
8CC	8C	8e	24b	24b	4r	8ee	8ee	8a	8cc	8C	8C	8a	8a	8cc	[8ee	8aa	8aa
.	.	.	24a	24a	.	.	.	.	.	.	.	.	.	.	.	.	.
.	.	.	24cc'	24cc'	.	.	.	.	.	.	.	.	.	.	.	.	.
8CC#	8C#	8E	24a	24a	.	8ee	8ee	8g	8b	8C#	8C#	8g	8g	8b	8ee]	8gg	8gg
.	.	.	24g	24g	.	.	.	.	.	.	.	.	.	.	.	.	.
.	.	.	24b'	24b'	.	.	.	.	.	.	.	.	.	.	.	.	.
=117	=117	=117	=117	=117	=117	=117	=117	=117	=117	=117	=117	=117	=117	=117	=117	=117	=117
8DD	8D	8D	24g	24g	4D	4dd	4dd	2d	2a	4D	4D	4dd	4dd	8a	4.dd	2ddd	2ddd
.	.	.	24f#	24f#	.	.	.	.	.	.	.	.	.	.	.	.	.
.	.	.	24a	24a	.	.	.	.	.	.	.	.	.	.	.	.	.
8D	8d	8d	24g	24g	.	.	.	.	.	.	.	.	.	4f#	.	.	.
.	.	.	24f#	24f#	.	.	.	.	.	.	.	.	.	.	.	.	.
.	.	.	24e	24e	.	.	.	.	.	.	.	.	.	.	.	.	.
4r	4r	4r	24d	24d	4r	4r	4r	.	.	4r	4r	4r	4r	.	.	.	.
.	.	.	24f#	24f#	.	.	.	.	.	.	.	.	.	.	.	.	.
.	.	.	24g	24g	.	.	.	.	.	.	.	.	.	.	.	.	.
.	.	.	24a	24a	.	.	.	.	.	.	.	.	.	8f#	8cc	.	.
.	.	.	24b	24b	.	.	.	.	.	.	.	.	.	.	.	.	.
.	.	.	24cc	24cc	.	.	.	.	.	.	.	.	.	.	.	.	.
=118	=118	=118	=118	=118	=118	=118	=118	=118	=118	=118	=118	=118	=118	=118	=118	=118	=118
8GG	8G	8B	24cc#	24cc#	8GG	8dd	8dd	8g	8b	8..dz	8..dz	8b	8b	8g	8b'	8..ddd	8..ddd
.	.	.	24dd	24dd	.	.	.	.	.	.	.	.	.	.	.	.	.
.	.	.	24b	24b	.	.	.	.	.	.	.	.	.	.	.	.	.
8BB	8B	8d	24cc#	24cc#	8GG	8g	8g	8b	8dd	.	.	8dd	8dd	8dd	8dd'	.	.
.	.	.	24dd	24dd	.	.	.	.	.	.	.	.	.	.	.	.	.
.	.	.	24b	24b	.	.	.	.	.	.	.	.	.	.	.	.	.
.	.	.	.	.	.	.	.	.	.	32B	32B	.	.	.	.	32bb	32bb
8GG	8G	8B	24ff#	24ff#	8GG	8dd	8dd	8g	8b	8g	8g	8b	8b	8b	8b'	8gg	8gg
.	.	.	24gg	24gg	.	.	.	.	.	.	.	.	.	.	.	.	.
.	.	.	24dd	24dd	.	.	.	.	.	.	.	.	.	.	.	.	.
8BB	8B	8d	24ff#	24ff#	8GG	8g	8g	8b	8dd	8g	8g	8dd	8dd	8dd	8dd'	8gg	8gg
.	.	.	24gg	24gg	.	.	.	.	.	.	.	.	.	.	.	.	.
.	.	.	24dd	24dd	.	.	.	.	.	.	.	.	.	.	.	.	.
=119	=119	=119	=119	=119	=119	=119	=119	=119	=119	=119	=119	=119	=119	=119	=119	=119	=119
*staff:1	*staff:1	*staff:2	*staff:3	*staff:4	*staff:5	*staff:6	*staff:6	*staff:7	*staff:7	*staff:8	*staff:8	*staff:9	*staff:9	*staff:10	*staff:10	*staff:11	*staff:11
8GG	8G	8B	24aa#	24aa#	8GG	8dd	8dd	8g	8b	8G	8G	8b	8b	8b	8b	24aa#	24aa#
.	.	.	24bb	24bb	.	.	.	.	.	.	.	.	.	.	.	24bb	24bb
.	.	.	24aan	24aan	.	.	.	.	.	.	.	.	.	.	.	24aan	24aan
8BB	8B	8d	24gg	24gg	8GG	8g	8g	8b	8dd	8B	8B	8dd	8dd	8dd	8dd	24gg	24gg
.	.	.	24ff#	24ff#	.	.	.	.	.	.	.	.	.	.	.	24ff#	24ff#
.	.	.	24ee	24ee	.	.	.	.	.	.	.	.	.	.	.	24ee	24ee
8GG	8G	8B	24dd	24dd	8GG	8dd	8dd	8g	8b	8G	8G	8b	8b	8b	8b	8dd	8dd
.	.	.	24ddd	24ddd	.	.	.	.	.	.	.	.	.	.	.	.	.
.	.	.	24ddd	24ddd	.	.	.	.	.	.	.	.	.	.	.	.	.
8BB	8B	8d	24ddd	24ddd	8GG	8g	8g	8b	8dd	8B	8B	8dd	8dd	8dd	8dd	8dd	8dd
.	.	.	24ddd	24ddd	.	.	.	.	.	.	.	.	.	.	.	.	.
.	.	.	24ddd	24ddd	.	.	.	.	.	.	.	.	.	.	.	.	.
=120	=120	=120	=120	=120	=120	=120	=120	=120	=120	=120	=120	=120	=120	=120	=120	=120	=120
8FF#	8F#	8A	24ddd	24ddd	8D	8dd	8dd	4d	4a	2d	2d	8a	8a	4aa	4ccc	4ccc	4ccc
.	.	.	24ccn	24ccn	.	.	.	.	.	.	.	.	.	.	.	.	.
.	.	.	24cc	24cc	.	.	.	.	.	.	.	.	.	.	.	.	.
8D	8d	8f#	24cc	24cc	8D	8dd	8dd	.	.	.	.	8dd	8dd	.	.	.	.
.	.	.	24cc	24cc	.	.	.	.	.	.	.	.	.	.	.	.	.
.	.	.	24cc	24cc	.	.	.	.	.	.	.	.	.	.	.	.	.
8GG	8G	8g	24cc	24cc	8GG	8dd	8dd	4g	4b	.	.	8b	8b	4gg	4bb	4bb	4bb
.	.	.	24B	24B	.	.	.	.	.	.	.	.	.	.	.	.	.
.	.	.	24B	24B	.	.	.	.	.	.	.	.	.	.	.	.	.
8D	8d	8G	24B	24B	8GG	8dd	8dd	.	.	.	.	8dd	8dd	.	.	.	.
.	.	.	24B	24B	.	.	.	.	.	.	.	.	.	.	.	.	.
.	.	.	24B	24B	.	.	.	.	.	.	.	.	.	.	.	.	.
=121	=121	=121	=121	=121	=121	=121	=121	=121	=121	=121	=121	=121	=121	=121	=121	=121	=121
8CC	8C	8e	24A	24A	4r	4cc	4ee	4a	4cc	4c	4c	8cc	8cc	4ee	4aa	4eee	4eee
.	.	.	24ee	24ee	.	.	.	.	.	.	.	.	.	.	.	.	.
.	.	.	24ee	24ee	.	.	.	.	.	.	.	.	.	.	.	.	.
8C	8c	8C	24ee	24ee	.	.	.	.	.	.	.	8ee	8ee	.	.	.	.
.	.	.	24ee	24ee	.	.	.	.	.	.	.	.	.	.	.	.	.
.	.	.	24ee	24ee	.	.	.	.	.	.	.	.	.	.	.	.	.
8r	8r	8r	24dd	24dd	8r	8ryy	8r	8ryy	8r	8r	8r	8cc	8cc	8ryy	8r	24ddd	24ddd
.	.	.	24cc	24cc	.	.	.	.	.	.	.	.	.	.	.	24ccc	24ccc
.	.	.	24b	24b	.	.	.	.	.	.	.	.	.	.	.	24bb	24bb
8DD	8D	8c	24a	24a	8D	8dd	8dd	8d	8a	8D	8D	8a	8a	8cc	8ff#	24aa	24aa
.	.	.	24g	24g	.	.	.	.	.	.	.	.	.	.	.	24gg	24gg
.	.	.	24f#	24f#	.	.	.	.	.	.	.	.	.	.	.	24ff#	24ff#
=122	=122	=122	=122	=122	=122	=122	=122	=122	=122	=122	=122	=122	=122	=122	=122	=122	=122
4GG	4G	8B	24g	24g	4GG	2g	2dd	2g	2b	8G	8G	4b	4b	4b	4gg	24gg	24gg
.	.	.	24dd	24dd	.	.	.	.	.	.	.	.	.	.	.	24ddd	24ddd
.	.	.	24b	24b	.	.	.	.	.	.	.	.	.	.	.	24bb	24bb
.	.	8r	24g	24g	.	.	.	.	.	8r	8r	.	.	.	.	24gg	24gg
.	.	.	24d	24d	.	.	.	.	.	.	.	.	.	.	.	24dd	24dd
.	.	.	24B	24B	.	.	.	.	.	.	.	.	.	.	.	24b	24b
4r	4r	24G	8G	8G	4r	.	.	.	.	24GG	24GG	4r	4r	4ryy	4r	8g	8g
.	.	24B	.	.	.	.	.	.	.	24BB	24BB	.	.	.	.	.	.
.	.	24d	.	.	.	.	.	.	.	24D	24D	.	.	.	.	.	.
.	.	24g	8r	8r	.	.	.	.	.	24G	24G	.	.	.	.	8r	8r
.	.	24b	.	.	.	.	.	.	.	24B	24B	.	.	.	.	.	.
.	.	24g	.	.	.	.	.	.	.	24G	24G	.	.	.	.	.	.
=123	=123	=123	=123	=123	=123	=123	=123	=123	=123	=123	=123	=123	=123	=123	=123	=123	=123
4r	4r	8f#'	24a	24a	4r	4ryy	4r	8d'y	8a'	8F#'	8F#'	8f#'	8f#'	8f#'	8..cc	8..ccc	8..ccc
.	.	.	24d	24d	.	.	.	.	.	.	.	.	.	.	.	.	.
.	.	.	24dd	24dd	.	.	.	.	.	.	.	.	.	.	.	.	.
.	.	8d'	24cc	24cc	.	.	.	8d'y	8a'	8d'	8d'	8d'	8d'	8d'	.	.	.
.	.	.	24a	24a	.	.	.	.	.	.	.	.	.	.	.	.	.
.	.	.	24dd	24dd	.	.	.	.	.	.	.	.	.	.	.	.	.
.	.	.	.	.	.	.	.	.	.	.	.	.	.	.	32a	32aa	32aa
8BB'	8B'	4r	24g	24g	8GG'	8g'y	8dd'	8g'y	8b'	4r	4r	4r	4r	4r	8..b	8..bb	8..bb
.	.	.	24d	24d	.	.	.	.	.	.	.	.	.	.	.	.	.
.	.	.	24dd	24dd	.	.	.	.	.	.	.	.	.	.	.	.	.
8DD'	8D'	.	24b	24b	8GG'	8g'y	8dd'	8g'y	8b'	.	.	.	.	.	.	.	.
.	.	.	24g	24g	.	.	.	.	.	.	.	.	.	.	.	.	.
.	.	.	24dd	24dd	.	.	.	.	.	.	.	.	.	.	.	.	.
.	.	.	.	.	.	.	.	.	.	.	.	.	.	.	32g	32gg	32gg
=124	=124	=124	=124	=124	=124	=124	=124	=124	=124	=124	=124	=124	=124	=124	=124	=124	=124
*staff:10	*staff:10	*staff:11	*staff:12	*staff:13	*staff:14	*staff:15	*staff:15	*staff:16	*staff:16	*staff:17	*staff:17	*staff:18	*staff:18	*staff:19	*staff:19	*staff:20	*staff:20
4r	4r	8f#'	24a	24a	4r	4ryy	4r	8d'y	8a'	8F#'	8F#'	8f#'	8f#'	8f#'	8..cc	8..ccc	8..ccc
.	.	.	24d	24d	.	.	.	.	.	.	.	.	.	.	.	.	.
.	.	.	24dd	24dd	.	.	.	.	.	.	.	.	.	.	.	.	.
.	.	8d'	24cc	24cc	.	.	.	8d'y	8a'	8d'	8d'	8d'	8d'	8d'	.	.	.
.	.	.	24a	24a	.	.	.	.	.	.	.	.	.	.	.	.	.
.	.	.	24dd	24dd	.	.	.	.	.	.	.	.	.	.	.	.	.
.	.	.	.	.	.	.	.	.	.	.	.	.	.	.	32a	32aa	32aa
8BB'	8B'	4r	24g	24g	8GG'	8g'y	8dd'	8g'y	8b'	4r	4r	4r	4r	4r	8..b	8..bb	8..bb
.	.	.	24d	24d	.	.	.	.	.	.	.	.	.	.	.	.	.
.	.	.	24dd	24dd	.	.	.	.	.	.	.	.	.	.	.	.	.
8DD'	8D'	.	24b	24b	8GG'	8g'y	8dd'	8g'y	8b'	.	.	.	.	.	.	.	.
.	.	.	24g	24g	.	.	.	.	.	.	.	.	.	.	.	.	.
.	.	.	24dd	24dd	.	.	.	.	.	.	.	.	.	.	.	.	.
.	.	.	.	.	.	.	.	.	.	.	.	.	.	.	32g	32gg	32gg
=125	=125	=125	=125	=125	=125	=125	=125	=125	=125	=125	=125	=125	=125	=125	=125	=125	=125
4r	4r	8g'	24cc#	24cc#	2r	4r	4r	2g	2g	8g'	8g'	8e'	8e'	8g'	8..cc#	4.eee	4.eee
.	.	.	24ee	24ee	.	.	.	.	.	.	.	.	.	.	.	.	.
.	.	.	24dd	24dd	.	.	.	.	.	.	.	.	.	.	.	.	.
.	.	8A'	24cc#	24cc#	.	.	.	.	.	8A'	8A'	8a'	8a'	8ee'	.	.	.
.	.	.	24ee	24ee	.	.	.	.	.	.	.	.	.	.	.	.	.
.	.	.	24dd	24dd	.	.	.	.	.	.	.	.	.	.	.	.	.
.	.	.	.	.	.	.	.	.	.	.	.	.	.	.	32ee	.	.
8EE'	8E'	4r	24cc#	24cc#	.	8ee'	8ee'	.	.	4r	4r	4r	4r	4r	8gg'	.	.
.	.	.	24gg	24gg	.	.	.	.	.	.	.	.	.	.	.	.	.
.	.	.	24ff#	24ff#	.	.	.	.	.	.	.	.	.	.	.	.	.
8AAA'	8AA'	.	24gg	24gg	.	8ee'	8ee'	.	.	.	.	.	.	.	8gg'	8ccc#	8ccc#
.	.	.	24ee	24ee	.	.	.	.	.	.	.	.	.	.	.	.	.
.	.	.	24ccc#X	24ccc#X	.	.	.	.	.	.	.	.	.	.	.	.	.
=126	=126	=126	=126	=126	=126	=126	=126	=126	=126	=126	=126	=126	=126	=126	=126	=126	=126
4DD	4D	8d'	24ddd	24ddd	4D	4dd	4dd	4d	4d	8D'	8D'	8d'	8d'	2dd	[2ff#	[2ddd	[2ddd
.	.	.	24ff#	24ff#	.	.	.	.	.	.	.	.	.	.	.	.	.
.	.	.	24aa	24aa	.	.	.	.	.	.	.	.	.	.	.	.	.
.	.	8D'	24dd	24dd	.	.	.	.	.	8DD'	8DD'	8dd'	8dd'	.	.	.	.
.	.	.	24ff#	24ff#	.	.	.	.	.	.	.	.	.	.	.	.	.
.	.	.	24a	24a	.	.	.	.	.	.	.	.	.	.	.	.	.
4r	4r	4r	24dd	24dd	4r	4r	4r	4r	4r	4r	4r	4r	4r	.	.	.	.
.	.	.	24f#	24f#	.	.	.	.	.	.	.	.	.	.	.	.	.
.	.	.	24a	24a	.	.	.	.	.	.	.	.	.	.	.	.	.
.	.	.	24d	24d	.	.	.	.	.	.	.	.	.	.	.	.	.
.	.	.	24a	24a	.	.	.	.	.	.	.	.	.	.	.	.	.
.	.	.	24f#	24f#	.	.	.	.	.	.	.	.	.	.	.	.	.
=127	=127	=127	=127	=127	=127	=127	=127	=127	=127	=127	=127	=127	=127	=127	=127	=127	=127
8DDD'	8DD'	4F#	24d	24d	2r	2r	2r	2D	[2d	8DD	8DD	2d	[2dd	4dd	4ff#]	4ddd]	4ddd]
.	.	.	24a	24a	.	.	.	.	.	.	.	.	.	.	.	.	.
.	.	.	24f#	24f#	.	.	.	.	.	.	.	.	.	.	.	.	.
8DD'	8D'	.	24d	24d	.	.	.	.	.	8D	8D	.	.	.	.	.	.
.	.	.	24e	24e	.	.	.	.	.	.	.	.	.	.	.	.	.
.	.	.	24d	24d	.	.	.	.	.	.	.	.	.	.	.	.	.
8EE'	8E'	8G	24c#	24c#	.	.	.	.	.	8E	8E	.	.	8cc#	8gg	8ccc#	8ccc#
.	.	.	24d	24d	.	.	.	.	.	.	.	.	.	.	.	.	.
.	.	.	24c#	24c#	.	.	.	.	.	.	.	.	.	.	.	.	.
8FF#'	8F#'	8A	24cn	24cn	.	.	.	.	.	8F#	8F#	.	.	8ccn	8aa	8cccn	8cccn
.	.	.	24d	24d	.	.	.	.	.	.	.	.	.	.	.	.	.
.	.	.	24c	24c	.	.	.	.	.	.	.	.	.	.	.	.	.
=128	=128	=128	=128	=128	=128	=128	=128	=128	=128	=128	=128	=128	=128	=128	=128	=128	=128
8GG'	8G'	8..B	24B	24B	2r	2r	2r	2D	2d_	8..G	8..G	2d	2dd_	8b	8bb	2ryy	8..bb
.	.	.	24d	24d	.	.	.	.	.	.	.	.	.	.	.	.	.
.	.	.	24f#	24f#	.	.	.	.	.	.	.	.	.	.	.	.	.
8DD'	8D'	.	24g'	24g'	.	.	.	.	.	.	.	.	.	4dd	8r	.	.
.	.	.	24d'	24d'	.	.	.	.	.	.	.	.	.	.	.	.	.
.	.	.	24B'	24B'	.	.	.	.	.	.	.	.	.	.	.	.	.
.	.	32c	.	.	.	.	.	.	.	32A	32A	.	.	.	.	.	32ccc
8FF#'	8F#'	8A'	24A'	24A'	.	.	.	.	.	8F#'	8F#'	.	.	.	4r	.	8aa'
.	.	.	24A'	24A'	.	.	.	.	.	.	.	.	.	.	.	.	.
.	.	.	24A'	24A'	.	.	.	.	.	.	.	.	.	.	.	.	.
8DD'	8D'	8r	24A	24A	.	.	.	.	.	8F#'	8F#'	.	.	8dd	.	.	8aa'
.	.	.	24B-	24B-	.	.	.	.	.	.	.	.	.	.	.	.	.
.	.	.	24Bn	24Bn	.	.	.	.	.	.	.	.	.	.	.	.	.
=129	=129	=129	=129	=129	=129	=129	=129	=129	=129	=129	=129	=129	=129	=129	=129	=129	=129
*staff:1	*staff:1	*staff:2	*staff:3	*staff:4	*	*	*	*staff:5	*staff:5	*staff:6	*staff:6	*staff:7	*staff:7	*staff:8	*staff:8	*	*staff:9
8AA'	8A'	8..c	24c	24c	2ryy	2ryy	2ryy	2D	2d_	8..A	8..A	2d	2dd_	[2dd	2r	2ryy	8..ccc
.	.	.	24d	24d	.	.	.	.	.	.	.	.	.	.	.	.	.
.	.	.	24f#	24f#	.	.	.	.	.	.	.	.	.	.	.	.	.
8DD'	8D'	.	24a'	24a'	.	.	.	.	.	.	.	.	.	.	.	.	.
.	.	.	24f#'	24f#'	.	.	.	.	.	.	.	.	.	.	.	.	.
.	.	.	24c'	24c'	.	.	.	.	.	.	.	.	.	.	.	.	.
.	.	32d	.	.	.	.	.	.	.	32B	32B	.	.	.	.	.	32ddd
8GG'	8G'	8B'	24B	24B	.	.	.	.	.	8G'	8G'	.	.	.	.	.	8bb'
.	.	.	24B	24B	.	.	.	.	.	.	.	.	.	.	.	.	.
.	.	.	24B	24B	.	.	.	.	.	.	.	.	.	.	.	.	.
8DD'	8D'	8r	24B	24B	.	.	.	.	.	8G'	8G'	.	.	.	.	.	8bb'
.	.	.	24B	24B	.	.	.	.	.	.	.	.	.	.	.	.	.
.	.	.	24B	24B	.	.	.	.	.	.	.	.	.	.	.	.	.
=130	=130	=130	=130	=130	=130	=130	=130	=130	=130	=130	=130	=130	=130	=130	=130	=130	=130
8BB	8B	8..g	24c#	24c#	2ryy	2ryy	2ryy	2D	2d_	8..B	8..B	2d	2dd_	4dd]	8..gg	2ryy	[2ddd
.	.	.	24d	24d	.	.	.	.	.	.	.	.	.	.	.	.	.
.	.	.	24f#	24f#	.	.	.	.	.	.	.	.	.	.	.	.	.
8DD	8D	.	24g'	24g'	.	.	.	.	.	.	.	.	.	.	.	.	.
.	.	.	24b'	24b'	.	.	.	.	.	.	.	.	.	.	.	.	.
.	.	.	24dd'	24dd'	.	.	.	.	.	.	.	.	.	.	.	.	.
.	.	32a	.	.	.	.	.	.	.	32c	32c	.	.	.	32aa	.	.
8AA	8A	8f#'	24g	24g	.	.	.	.	.	8A'	8A'	.	.	4r	8ff#'	.	.
.	.	.	24f#	24f#	.	.	.	.	.	.	.	.	.	.	.	.	.
.	.	.	24f#'	24f#'	.	.	.	.	.	.	.	.	.	.	.	.	.
8DD	8D	8r	24f#'	24f#'	.	.	.	.	.	8A'	8A'	.	.	.	8ff#'	.	.
.	.	.	24f#'	24f#'	.	.	.	.	.	.	.	.	.	.	.	.	.
.	.	.	24f#'	24f#'	.	.	.	.	.	.	.	.	.	.	.	.	.
=131	=131	=131	=131	=131	=131	=131	=131	=131	=131	=131	=131	=131	=131	=131	=131	=131	=131
8C	8c	8..a	24c#	24c#	2ryy	2ryy	2ryy	2D	2d]	8..c	8..c	2d	2dd]	2ryy	8..aa	2ryy	2ddd]
.	.	.	24d	24d	.	.	.	.	.	.	.	.	.	.	.	.	.
.	.	.	24g#	24g#	.	.	.	.	.	.	.	.	.	.	.	.	.
8DD	8D	.	24a'	24a'	.	.	.	.	.	.	.	.	.	.	.	.	.
.	.	.	24ccn'	24ccn'	.	.	.	.	.	.	.	.	.	.	.	.	.
.	.	.	24ee'	24ee'	.	.	.	.	.	.	.	.	.	.	.	.	.
.	.	32b	.	.	.	.	.	.	.	32d	32d	.	.	.	32bb	.	.
8BB	8B	8g'	24a	24a	.	.	.	.	.	8B'	8B'	.	.	.	8gg'	.	.
.	.	.	24gn	24gn	.	.	.	.	.	.	.	.	.	.	.	.	.
.	.	.	24g'	24g'	.	.	.	.	.	.	.	.	.	.	.	.	.
8DD	8D	8r	24g'	24g'	.	.	.	.	.	8B'	8B'	.	.	.	8gg'	.	.
.	.	.	24g'	24g'	.	.	.	.	.	.	.	.	.	.	.	.	.
.	.	.	24g'	24g'	.	.	.	.	.	.	.	.	.	.	.	.	.
=132	=132	=132	=132	=132	=132	=132	=132	=132	=132	=132	=132	=132	=132	=132	=132	=132	=132
8C	8c	2r	24dd#	24dd#	2ryy	2ryy	2ryy	2r	2r	2r	2r	2r	2r	2ryy	8r	2ryy	2eee
.	.	.	24ee	24ee	.	.	.	.	.	.	.	.	.	.	.	.	.
.	.	.	24ddn	24ddn	.	.	.	.	.	.	.	.	.	.	.	.	.
8DD	8D	.	24cc'	24cc'	.	.	.	.	.	.	.	.	.	.	8cc	.	.
.	.	.	24b'	24b'	.	.	.	.	.	.	.	.	.	.	.	.	.
.	.	.	24a'	24a'	.	.	.	.	.	.	.	.	.	.	.	.	.
8C	8c	.	24g#	24g#	.	.	.	.	.	.	.	.	.	.	8r	.	.
.	.	.	24a	24a	.	.	.	.	.	.	.	.	.	.	.	.	.
.	.	.	24b	24b	.	.	.	.	.	.	.	.	.	.	.	.	.
8DD	8D	.	24cc	24cc	.	.	.	.	.	.	.	.	.	.	8cc	.	.
.	.	.	24dd	24dd	.	.	.	.	.	.	.	.	.	.	.	.	.
.	.	.	24ee	24ee	.	.	.	.	.	.	.	.	.	.	.	.	.
=133	=133	=133	=133	=133	=133	=133	=133	=133	=133	=133	=133	=133	=133	=133	=133	=133	=133
*staff:12	*staff:12	*staff:13	*staff:14	*staff:15	*	*	*	*staff:16	*staff:16	*	*	*	*	*	*staff:17	*	*staff:18
8BB	8B	2r	24cc#	24cc#	2ryy	2ryy	2ryy	2r	2r	2ryy	2ryy	2ryy	2ryy	2ryy	8r	2ryy	2ddd
.	.	.	24dd	24dd	.	.	.	.	.	.	.	.	.	.	.	.	.
.	.	.	24ff#	24ff#	.	.	.	.	.	.	.	.	.	.	.	.	.
8DD	8D	.	24gg	24gg	.	.	.	.	.	.	.	.	.	.	8b	.	.
.	.	.	24bb	24bb	.	.	.	.	.	.	.	.	.	.	.	.	.
.	.	.	24aa	24aa	.	.	.	.	.	.	.	.	.	.	.	.	.
8BB	8B	.	24gg	24gg	.	.	.	.	.	.	.	.	.	.	8r	.	.
.	.	.	24bb	24bb	.	.	.	.	.	.	.	.	.	.	.	.	.
.	.	.	24aa	24aa	.	.	.	.	.	.	.	.	.	.	.	.	.
8DD	8D	.	24gg	24gg	.	.	.	.	.	.	.	.	.	.	8b	.	.
.	.	.	24ff#	24ff#	.	.	.	.	.	.	.	.	.	.	.	.	.
.	.	.	24ee	24ee	.	.	.	.	.	.	.	.	.	.	.	.	.
=134	=134	=134	=134	=134	=134	=134	=134	=134	=134	=134	=134	=134	=134	=134	=134	=134	=134
8AA	8A	2r	24dd	24dd	2ryy	2ryy	2ryy	2r	2r	2ryy	2ryy	2ryy	2ryy	2ryy	8r	2ryy	8ccc#
.	.	.	24cc#	24cc#	.	.	.	.	.	.	.	.	.	.	.	.	.
.	.	.	24ee	24ee	.	.	.	.	.	.	.	.	.	.	.	.	.
8FF#	8F#	.	24dd	24dd	.	.	.	.	.	.	.	.	.	.	8a	.	8cccn
.	.	.	24ccn	24ccn	.	.	.	.	.	.	.	.	.	.	.	.	.
.	.	.	24dd	24dd	.	.	.	.	.	.	.	.	.	.	.	.	.
8GG	8G	.	24cc	24cc	.	.	.	.	.	.	.	.	.	.	8r	.	8bb
.	.	.	24b	24b	.	.	.	.	.	.	.	.	.	.	.	.	.
.	.	.	24gg	24gg	.	.	.	.	.	.	.	.	.	.	.	.	.
8CC#	8C#	.	24b-	24b-	.	.	.	.	.	.	.	.	.	.	8g	.	8bb-
.	.	.	24a	24a	.	.	.	.	.	.	.	.	.	.	.	.	.
.	.	.	24g	24g	.	.	.	.	.	.	.	.	.	.	.	.	.
=135	=135	=135	=135	=135	=135	=135	=135	=135	=135	=135	=135	=135	=135	=135	=135	=135	=135
4DD	4D	2r	24f#	24f#	2ryy	2ryy	2ryy	2r	2r	2ryy	2ryy	2ryy	2ryy	2ryy	8f#	2ryy	24aa
.	.	.	24d	24d	.	.	.	.	.	.	.	.	.	.	.	.	24ff#
.	.	.	24c#	24c#	.	.	.	.	.	.	.	.	.	.	.	.	24cc#
.	.	.	24d	24d	.	.	.	.	.	.	.	.	.	.	8r	.	24dd
.	.	.	24e	24e	.	.	.	.	.	.	.	.	.	.	.	.	24ee
.	.	.	24f#	24f#	.	.	.	.	.	.	.	.	.	.	.	.	24ff#
4r	4r	.	24g	24g	.	.	.	.	.	.	.	.	.	.	4r	.	24gg
.	.	.	24a	24a	.	.	.	.	.	.	.	.	.	.	.	.	24aa
.	.	.	24b-	24b-	.	.	.	.	.	.	.	.	.	.	.	.	24bb-
.	.	.	24bn	24bn	.	.	.	.	.	.	.	.	.	.	.	.	24bbn
.	.	.	24ccn	24ccn	.	.	.	.	.	.	.	.	.	.	.	.	24cccn
.	.	.	24cc#	24cc#	.	.	.	.	.	.	.	.	.	.	.	.	24ccc#
=136	=136	=136	=136	=136	=136	=136	=136	=136	=136	=136	=136	=136	=136	=136	=136	=136	=136
*	*	*	*	*	*	*	*	*	*	*	*	*	*	*staff:17	*	*	*
8GGG	8GG	8B	24dd	24dd	2ryy	2ryy	2ryy	8g	8b	2ryy	2ryy	2ryy	2ryy	2r	2r	2ryy	24ddd
.	.	.	24cc#	24cc#	.	.	.	.	.	.	.	.	.	.	.	.	24ccc#
.	.	.	24ee	24ee	.	.	.	.	.	.	.	.	.	.	.	.	24eee
8BB	8B	8d	24dd	24dd	.	.	.	8b	8dd	.	.	.	.	.	.	.	24ddd
.	.	.	24cc#	24cc#	.	.	.	.	.	.	.	.	.	.	.	.	24ccc#
.	.	.	24ee	24ee	.	.	.	.	.	.	.	.	.	.	.	.	24eee
8GG	8G	8B	24dd	24dd	.	.	.	8g	8b	.	.	.	.	.	.	.	24ddd
.	.	.	24cc#	24cc#	.	.	.	.	.	.	.	.	.	.	.	.	24ccc#
.	.	.	24ee	24ee	.	.	.	.	.	.	.	.	.	.	.	.	24eee
8BB	8B	8d	24dd	24dd	.	.	.	8b	8dd	.	.	.	.	.	.	.	24ddd
.	.	.	24cc#	24cc#	.	.	.	.	.	.	.	.	.	.	.	.	24ccc#
.	.	.	24ee	24ee	.	.	.	.	.	.	.	.	.	.	.	.	24eee
=137	=137	=137	=137	=137	=137	=137	=137	=137	=137	=137	=137	=137	=137	=137	=137	=137	=137
*staff:1	*staff:1	*staff:2	*staff:3	*staff:4	*staff:5	*staff:6	*staff:6	*staff:7	*staff:7	*staff:8	*staff:8	*staff:9	*staff:9	*staff:10	*staff:10	*staff:11	*staff:11
8GG	8G	24G	8..ddz	8..ddz	24GG	8dd	8dd	8g	8b	24GG	24GG	8b	8b	8b	8..ddz	8..dddz	8..dddz
.	.	24B	.	.	24GG	.	.	.	.	24BB	24BB	.	.	.	.	.	.
.	.	24d	.	.	24GG	.	.	.	.	24D	24D	.	.	.	.	.	.
8BB	8B	24g	.	.	8GG	8g	8gg	8b	8dd	24G	24G	8dd	8dd	8dd	.	.	.
.	.	24d	.	.	.	.	.	.	.	24D	24D	.	.	.	.	.	.
.	.	24B	.	.	.	.	.	.	.	24BB	24BB	.	.	.	.	.	.
.	.	.	32b	32b	.	.	.	.	.	.	.	.	.	.	32b	32bb	32bb
8GG	8G	24G	8gg	8gg	24GG	8dd	8dd	8g	8b	24GG	24GG	8b	8b	8b	8gg	8gg	8gg
.	.	24B	.	.	24GG	.	.	.	.	24BB	24BB	.	.	.	.	.	.
.	.	24d	.	.	24GG	.	.	.	.	24D	24D	.	.	.	.	.	.
8BB	8B	24g	8gg	8gg	8GG	8g	8gg	8b	8dd	24G	24G	8dd	8dd	8dd	8gg	8gg	8gg
.	.	24d	.	.	.	.	.	.	.	24D	24D	.	.	.	.	.	.
.	.	24B	.	.	.	.	.	.	.	24BB	24BB	.	.	.	.	.	.
=138	=138	=138	=138	=138	=138	=138	=138	=138	=138	=138	=138	=138	=138	=138	=138	=138	=138
8GG	8G	8G	24aa#	24aa#	24GG	8dd	8dd	8g	8b	8GG	8GG	8b	8b	8b	24aa#	24aa#	24aa#
.	.	.	24bb	24bb	24GG	.	.	.	.	.	.	.	.	.	24bb	24bb	24bb
.	.	.	24aan	24aan	24GG	.	.	.	.	.	.	.	.	.	24aan	24aan	24aan
8BB	8B	8d	24gg	24gg	8GG	8g	8gg	8b	8dd	8B	8d	8dd	8dd	8dd	24gg	24gg	24gg
.	.	.	24ff#	24ff#	.	.	.	.	.	.	.	.	.	.	24ff#	24ff#	24ff#
.	.	.	24ee	24ee	.	.	.	.	.	.	.	.	.	.	24ee	24ee	24ee
8GG	8G	8B	24dd	24dd	24GG	8dd	8dd	8g	8b	8G	8B	8b	8b	8b	8dd	8dd	8dd
.	.	.	24bb	24bb	24GG	.	.	.	.	.	.	.	.	.	.	.	.
.	.	.	24aa	24aa	24GG	.	.	.	.	.	.	.	.	.	.	.	.
8BB	8B	8d	24gg	24gg	8GG	8g	8gg	8b	8dd	8B	8d	8dd	8dd	8dd	16r	16r	16r
.	.	.	24ff#	24ff#	.	.	.	.	.	.	.	.	.	.	.	.	.
.	.	.	.	.	.	.	.	.	.	.	.	.	.	.	16dd	16dd	16dd
.	.	.	24ee	24ee	.	.	.	.	.	.	.	.	.	.	.	.	.
=139	=139	=139	=139	=139	=139	=139	=139	=139	=139	=139	=139	=139	=139	=139	=139	=139	=139
8FF#	8F#	8a	24dd	24dd	[24D	8dd	8dd	8d	8a	8F#	8F#	8cc	8cc	8a	8cc	8ccc	8ccc
.	.	.	24cc	24cc	24D]	.	.	.	.	.	.	.	.	.	.	.	.
.	.	.	24ee'	24ee'	24D	.	.	.	.	.	.	.	.	.	.	.	.
8GG	8G	8d	24cc	24cc	8D	8dd	8dd	8g	8b	8G	8G	8b	8b	8b	8b	8bb	8bb
.	.	.	24b	24b	.	.	.	.	.	.	.	.	.	.	.	.	.
.	.	.	24dd'	24dd'	.	.	.	.	.	.	.	.	.	.	.	.	.
8CC	8C	8e	24b	24b	4r	8ee	8ee	8a	8cc	8C	8C	8a	8a	8cc	8ee	8aa	8aa
.	.	.	24a	24a	.	.	.	.	.	.	.	.	.	.	.	.	.
.	.	.	24cc'	24cc'	.	.	.	.	.	.	.	.	.	.	.	.	.
8CC#	8C#	8E	24a	24a	.	8ee	8ee	8g	8b	8C#	8C#	8g	8g	8b	8ee	8gg	8gg
.	.	.	24g	24g	.	.	.	.	.	.	.	.	.	.	.	.	.
.	.	.	24b'	24b'	.	.	.	.	.	.	.	.	.	.	.	.	.
=140	=140	=140	=140	=140	=140	=140	=140	=140	=140	=140	=140	=140	=140	=140	=140	=140	=140
4DD	4D	4D	24g	24g	4D	4dd	4dd	4d	4a	4D	4D	4dd	4dd	4a	4dd	24gg	24gg
.	.	.	24f#	24f#	.	.	.	.	.	.	.	.	.	.	.	24ff#	24ff#
.	.	.	24a	24a	.	.	.	.	.	.	.	.	.	.	.	24aa	24aa
.	.	.	24g	24g	.	.	.	.	.	.	.	.	.	.	.	24gg	24gg
.	.	.	24f#	24f#	.	.	.	.	.	.	.	.	.	.	.	24ff#	24ff#
.	.	.	24e	24e	.	.	.	.	.	.	.	.	.	.	.	24ee	24ee
4r	4r	4r	24d	24d	4r	4r	4r	4ryy	4r	4r	4r	4r	4r	4ryy	4r	24dd	24dd
.	.	.	24f#	24f#	.	.	.	.	.	.	.	.	.	.	.	24ff#	24ff#
.	.	.	24g	24g	.	.	.	.	.	.	.	.	.	.	.	24gg	24gg
.	.	.	24a	24a	.	.	.	.	.	.	.	.	.	.	.	24aa	24aa
.	.	.	24b-	24b-	.	.	.	.	.	.	.	.	.	.	.	24bb-	24bb-
.	.	.	24bn	24bn	.	.	.	.	.	.	.	.	.	.	.	24bbn	24bbn
=141	=141	=141	=141	=141	=141	=141	=141	=141	=141	=141	=141	=141	=141	=141	=141	=141	=141
8DD'	8D'	8F#	24cc	24cc	[24D	8dd	8dd	8d	8a	2cn	2cn	8a	8a	8f#	8f#	24ccc	24ccc
.	.	.	24b	24b	24D]	.	.	.	.	.	.	.	.	.	.	24bb	24bb
.	.	.	24dd	24dd	24D	.	.	.	.	.	.	.	.	.	.	24ddd	24ddd
8FF#'	8F#'	8D	24cc	24cc	8D	8dd	8dd	8d	8a	.	.	8d	8d	8a	8a	24ccc	24ccc
.	.	.	24g#	24g#	.	.	.	.	.	.	.	.	.	.	.	24gg#	24gg#
.	.	.	24a	24a	.	.	.	.	.	.	.	.	.	.	.	24aa	24aa
8DD'	8D'	8F#	24cc	24cc	[24D	8dd	8dd	8d	8a	.	.	8a	8a	8f#	8f#	24ccc	24ccc
.	.	.	24b	24b	24D]	.	.	.	.	.	.	.	.	.	.	24bb	24bb
.	.	.	24dd	24dd	24D	.	.	.	.	.	.	.	.	.	.	24ddd	24ddd
8FF#'	8F#'	8D	24cc	24cc	8D	8dd	8dd	8d	8a	.	.	8d	8d	8a	8a	24ccc	24ccc
.	.	.	24g#	24g#	.	.	.	.	.	.	.	.	.	.	.	24gg#	24gg#
.	.	.	24a	24a	.	.	.	.	.	.	.	.	.	.	.	24aa	24aa
=142	=142	=142	=142	=142	=142	=142	=142	=142	=142	=142	=142	=142	=142	=142	=142	=142	=142
*staff:11	*staff:11	*staff:12	*staff:13	*staff:14	*staff:15	*staff:16	*staff:16	*staff:17	*staff:17	*staff:18	*staff:18	*staff:19	*staff:19	*staff:20	*staff:20	*staff:21	*staff:21
8DD'	8D'	4.F#	24cc	24cc	16D	2dd	2dd	2d	2a	8D	8D	2d	2a	2cc	2cc	4.ccc	4.ccc
.	.	.	24ff#	24ff#	.	.	.	.	.	.	.	.	.	.	.	.	.
.	.	.	.	.	16D	.	.	.	.	.	.	.	.	.	.	.	.
.	.	.	24aa	24aa	.	.	.	.	.	.	.	.	.	.	.	.	.
8FF#'	8F#'	.	24ccc	24ccc	16D	.	.	.	.	8F#	8F#	.	.	.	.	.	.
.	.	.	24aa	24aa	.	.	.	.	.	.	.	.	.	.	.	.	.
.	.	.	.	.	16D	.	.	.	.	.	.	.	.	.	.	.	.
.	.	.	24ff#	24ff#	.	.	.	.	.	.	.	.	.	.	.	.	.
8AA'	8A'	.	24cc	24cc	16D	.	.	.	.	8A	8A	.	.	.	.	.	.
.	.	.	24ccc	24ccc	.	.	.	.	.	.	.	.	.	.	.	.	.
.	.	.	.	.	16D	.	.	.	.	.	.	.	.	.	.	.	.
.	.	.	24aa	24aa	.	.	.	.	.	.	.	.	.	.	.	.	.
8C'	8c'	8cc'	24ff#	24ff#	16D	.	.	.	.	8c	8c	.	.	.	.	8fff#	8fff#
.	.	.	24aa	24aa	.	.	.	.	.	.	.	.	.	.	.	.	.
.	.	.	.	.	16D	.	.	.	.	.	.	.	.	.	.	.	.
.	.	.	24ff#	24ff#	.	.	.	.	.	.	.	.	.	.	.	.	.
=143	=143	=143	=143	=143	=143	=143	=143	=143	=143	=143	=143	=143	=143	=143	=143	=143	=143
4BB	4B	8b'	24gg	24gg	4GG	4g	4dd	4g	4b	4B	4B	4g	4b	8b'	8dd'y	8ggg'	8ggg'
.	.	.	24bb	24bb	.	.	.	.	.	.	.	.	.	.	.	.	.
.	.	.	24gg	24gg	.	.	.	.	.	.	.	.	.	.	.	.	.
.	.	8a'	24ff#	24ff#	.	.	.	.	.	.	.	.	.	8a'	8cc'y	8fff#'	8fff#'
.	.	.	24aa	24aa	.	.	.	.	.	.	.	.	.	.	.	.	.
.	.	.	24ff#	24ff#	.	.	.	.	.	.	.	.	.	.	.	.	.
4r	4r	8g'	24ee	24ee	4r	4ryy	4r	4ryy	4r	4r	4r	4ryy	4r	8g'	8b'y	8eee'	8eee'
.	.	.	24gg	24gg	.	.	.	.	.	.	.	.	.	.	.	.	.
.	.	.	24ee	24ee	.	.	.	.	.	.	.	.	.	.	.	.	.
.	.	8f#'	24dd	24dd	.	.	.	.	.	.	.	.	.	8f#'	8a'y	8ddd'	8ddd'
.	.	.	24ff#	24ff#	.	.	.	.	.	.	.	.	.	.	.	.	.
.	.	.	24dd	24dd	.	.	.	.	.	.	.	.	.	.	.	.	.
=144	=144	=144	=144	=144	=144	=144	=144	=144	=144	=144	=144	=144	=144	=144	=144	=144	=144
8E'	8e'	8g'	24dd	24dd	2r	2r	2r	2r	2r	2r	2r	2r	2r	8g'	8g'	8ccc'	8ccc'
.	.	.	24cc	24cc	.	.	.	.	.	.	.	.	.	.	.	.	.
.	.	.	24ee'	24ee'	.	.	.	.	.	.	.	.	.	.	.	.	.
8D'	8d'	8f#'	24cc	24cc	.	.	.	.	.	.	.	.	.	8f#'	8f#'	8bb'	8bb'
.	.	.	24b	24b	.	.	.	.	.	.	.	.	.	.	.	.	.
.	.	.	24dd'	24dd'	.	.	.	.	.	.	.	.	.	.	.	.	.
8C'	8c'	8e'	24b	24b	.	.	.	.	.	.	.	.	.	8e'	8e'	8aa'	8aa'
.	.	.	24a	24a	.	.	.	.	.	.	.	.	.	.	.	.	.
.	.	.	24cc'	24cc'	.	.	.	.	.	.	.	.	.	.	.	.	.
8BB'	8B'	8d'	24a	24a	.	.	.	.	.	.	.	.	.	8d'	8d'	8gg'	8gg'
.	.	.	24g	24g	.	.	.	.	.	.	.	.	.	.	.	.	.
.	.	.	24b'	24b'	.	.	.	.	.	.	.	.	.	.	.	.	.
=145	=145	=145	=145	=145	=145	=145	=145	=145	=145	=145	=145	=145	=145	=145	=145	=145	=145
4C	4c	4e	24g#	24g#	4r	4cc	4ee	2r	2r	2r	2r	2r	2r	4e	4e	24gg#	24gg#
.	.	.	24a	24a	.	.	.	.	.	.	.	.	.	.	.	24aa	24aa
.	.	.	24b	24b	.	.	.	.	.	.	.	.	.	.	.	24bb	24bb
.	.	.	24cc	24cc	.	.	.	.	.	.	.	.	.	.	.	24ccc	24ccc
.	.	.	24dd	24dd	.	.	.	.	.	.	.	.	.	.	.	24ddd	24ddd
.	.	.	24ee	24ee	.	.	.	.	.	.	.	.	.	.	.	24eee	24eee
8r	8r	4r	24dd	24dd	8r	8ryy	8r	.	.	.	.	.	.	4r	4r	24ddd	24ddd
.	.	.	24cc	24cc	.	.	.	.	.	.	.	.	.	.	.	24ccc	24ccc
.	.	.	24b	24b	.	.	.	.	.	.	.	.	.	.	.	24bb	24bb
8D	8d	.	24a	24a	8D	8dd	8dd	.	.	.	.	.	.	.	.	24aa	24aa
.	.	.	24gn	24gn	.	.	.	.	.	.	.	.	.	.	.	24ggn	24ggn
.	.	.	24f#	24f#	.	.	.	.	.	.	.	.	.	.	.	24ff#	24ff#
*	*	*	*	*	*	*	*	*clefF4	*clefF4	*clefC4	*clefC4	*	*	*	*	*	*
=146	=146	=146	=146	=146	=146	=146	=146	=146	=146	=146	=146	=146	=146	=146	=146	=146	=146
4GG	4G	24g	4g	4g	4GG	4g	4dd	2GGG	[2GG	8G'y	8B'	2r	2r	2b	2gg	4gg	4gg
.	.	24e	.	.	.	.	.	.	.	.	.	.	.	.	.	.	.
.	.	24d	.	.	.	.	.	.	.	.	.	.	.	.	.	.	.
.	.	24c	.	.	.	.	.	.	.	8B'y	8d'	.	.	.	.	.	.
.	.	24B	.	.	.	.	.	.	.	.	.	.	.	.	.	.	.
.	.	24A	.	.	.	.	.	.	.	.	.	.	.	.	.	.	.
4r	4r	24G	4r	4r	4r	4ryy	4r	.	.	8G'y	8B'	.	.	.	.	4r	4r
.	.	24G	.	.	.	.	.	.	.	.	.	.	.	.	.	.	.
.	.	24G	.	.	.	.	.	.	.	.	.	.	.	.	.	.	.
.	.	24G	.	.	.	.	.	.	.	8B'y	8d'	.	.	.	.	.	.
.	.	24G	.	.	.	.	.	.	.	.	.	.	.	.	.	.	.
.	.	24G	.	.	.	.	.	.	.	.	.	.	.	.	.	.	.
=147	=147	=147	=147	=147	=147	=147	=147	=147	=147	=147	=147	=147	=147	=147	=147	=147	=147
*staff:1	*staff:1	*staff:2	*staff:3	*staff:4	*staff:5	*staff:6	*staff:6	*staff:7	*staff:7	*staff:8	*staff:8	*	*	*staff:9	*staff:9	*staff:10	*staff:10
4GG	4G	24G	24ffn	2r	2r	2r	2r	2GGG	2GG_	8G	8B	2ryy	2ryy	2b	2ffn	2r	2r
.	.	24G	24ee	.	.	.	.	.	.	.	.	.	.	.	.	.	.
.	.	24G	24dd	.	.	.	.	.	.	.	.	.	.	.	.	.	.
.	.	24G	24cc	.	.	.	.	.	.	8d	8fn	.	.	.	.	.	.
.	.	24G	24b	.	.	.	.	.	.	.	.	.	.	.	.	.	.
.	.	24G	24a	.	.	.	.	.	.	.	.	.	.	.	.	.	.
4r	4r	24G	24g	.	.	.	.	.	.	8G	8B	.	.	.	.	.	.
.	.	24G	24fn	.	.	.	.	.	.	.	.	.	.	.	.	.	.
.	.	24G	24e	.	.	.	.	.	.	.	.	.	.	.	.	.	.
.	.	24G	24d	.	.	.	.	.	.	8d	8f	.	.	.	.	.	.
.	.	24G	24c	.	.	.	.	.	.	.	.	.	.	.	.	.	.
.	.	24G	24B	.	.	.	.	.	.	.	.	.	.	.	.	.	.
=148	=148	=148	=148	=148	=148	=148	=148	=148	=148	=148	=148	=148	=148	=148	=148	=148	=148
4GG	4G	24G	8c'	24gg	2r	2r	2r	2GGG	2GG_	8E	8c	2ryy	2ryy	2cc	2ee	2r	2r
.	.	24G	.	24ccc	.	.	.	.	.	.	.	.	.	.	.	.	.
.	.	24G	.	24gg	.	.	.	.	.	.	.	.	.	.	.	.	.
.	.	24G	8e'	24ffn	.	.	.	.	.	8c	8e	.	.	.	.	.	.
.	.	24G	.	24ee	.	.	.	.	.	.	.	.	.	.	.	.	.
.	.	24G	.	24dd	.	.	.	.	.	.	.	.	.	.	.	.	.
4r	4r	24G	8c'	24cc	.	.	.	.	.	8E	8c	.	.	.	.	.	.
.	.	24G	.	24dd	.	.	.	.	.	.	.	.	.	.	.	.	.
.	.	24G	.	24cc	.	.	.	.	.	.	.	.	.	.	.	.	.
.	.	24G	8e'	24b	.	.	.	.	.	8c	8e	.	.	.	.	.	.
.	.	24G	.	24a	.	.	.	.	.	.	.	.	.	.	.	.	.
.	.	24G	.	24g	.	.	.	.	.	.	.	.	.	.	.	.	.
=149	=149	=149	=149	=149	=149	=149	=149	=149	=149	=149	=149	=149	=149	=149	=149	=149	=149
4GG	4G	24G	8A'	8f#X'	2r	2r	2r	2GGG	2GG_	8A	8c	2ryy	2ryy	2ff#X	24ccc	2ryy	24eee
.	.	24G	.	.	.	.	.	.	.	.	.	.	.	.	24bb	.	24ddd
.	.	24G	.	.	.	.	.	.	.	.	.	.	.	.	24aa	.	24ccc
.	.	24G	8c'	8a'	.	.	.	.	.	8c	8f#X	.	.	.	24gg	.	24bb
.	.	24G	.	.	.	.	.	.	.	.	.	.	.	.	24ff#	.	24aa
.	.	24G	.	.	.	.	.	.	.	.	.	.	.	.	24ee	.	24gg
4r	4r	24G	8A'	8f#'	.	.	.	.	.	8A	8c	.	.	.	24dd	.	24ff#
.	.	24G	.	.	.	.	.	.	.	.	.	.	.	.	24cc	.	24ee
.	.	24G	.	.	.	.	.	.	.	.	.	.	.	.	24b	.	24dd
.	.	24G	8c'	8a'	.	.	.	.	.	8c	8f#	.	.	.	24a	.	24cc
.	.	24G	.	.	.	.	.	.	.	.	.	.	.	.	24g	.	24b
.	.	24G	.	.	.	.	.	.	.	.	.	.	.	.	24f#	.	24a
=150	=150	=150	=150	=150	=150	=150	=150	=150	=150	=150	=150	=150	=150	=150	=150	=150	=150
4GG	24GG	4G	8B'	8g'	2r	2r	2r	4GGG	4GG]	8B	8g	2ryy	2ryy	8gg	8g	2ryy	8g
.	24BB	.	.	.	.	.	.	.	.	.	.	.	.	.	.	.	.
.	24C	.	.	.	.	.	.	.	.	.	.	.	.	.	.	.	.
.	24D	.	8d'	8b'	.	.	.	.	.	8ryy	8r	.	.	8ryy	8r	.	8r
.	24E	.	.	.	.	.	.	.	.	.	.	.	.	.	.	.	.
.	24F#	.	.	.	.	.	.	.	.	.	.	.	.	.	.	.	.
4r	24G	4r	8B'	8g'	.	.	.	4ryy	4r	4ryy	4r	.	.	4ryy	4r	.	4r
.	24BB	.	.	.	.	.	.	.	.	.	.	.	.	.	.	.	.
.	24C	.	.	.	.	.	.	.	.	.	.	.	.	.	.	.	.
.	24D	.	8d'	8b'	.	.	.	.	.	.	.	.	.	.	.	.	.
.	24E	.	.	.	.	.	.	.	.	.	.	.	.	.	.	.	.
.	24F#	.	.	.	.	.	.	.	.	.	.	.	.	.	.	.	.
*	*	*	*	*	*	*	*	*	*	*clefF4	*clefF4	*	*	*	*	*	*
=151	=151	=151	=151	=151	=151	=151	=151	=151	=151	=151	=151	=151	=151	=151	=151	=151	=151
8GG	8G	8G	8B	8g	8GG	8g	8g	8GGG	8GG	8G	8B	2ryy	2ryy	8b	8gg	2ryy	8gg
8ryy	8r	8r	8r	8r	8r	8r	8r	8ryy	8r	8ryy	8r	.	.	8ryy	8r	.	8r
8GG	8GG	8G	8d	8b	8GG	8g	8g	8GGG	8GG	8G	8B	.	.	8b	8dd	.	8bb
8ryy	8r	8r	8r	8r	8r	8r	8r	8ryy	8r	8ryy	8r	.	.	8ryy	8r	.	8r
=152	=152	=152	=152	=152	=152	=152	=152	=152	=152	=152	=152	=152	=152	=152	=152	=152	=152
8GG	8GG	8G	8B	8g	8GG	8g	8g	8GGG	8GG	8G	8B	2ryy	2ryy	8b	8b	2ryy	8gg
8ryy	8r	8r	8r	8r	8r	8r	8r	8ryy	8r	8ryy	8r	.	.	8ryy	8r	.	8r
4ryy	4r	4r	4r	4r	4r	4r	4r	4ryy	4r	4ryy	4r	.	.	4ryy	4r	.	4r
==153||	==153||	==153||	==153||	==153||	==153||	==153||	==153||	==153||	==153||	==153||	==153||	==153||	==153||	==153||	==153||	==153||	==153||
*-	*-	*-	*-	*-	*-	*-	*-	*-	*-	*-	*-	*-	*-	*-	*-	*-	*-
